!!!!SEGMENT: pl-wtm--r-1707_stefani-jozef--mazur-no-29.krn
!!!cenid: 18xx:2321
!!!COM: Stefani, Józef
!!!COM-rism: pe30024097
!!!CDT: 1800/04/16-1876/03/19
!!!CNT: Polish
!!!OTL: Mazur No. 29
!!!PDT:
!!!AGN: Secular; Mazurka
!!!SMS-siglum: PL-Wtm
!!!SMS-shelfmark: R 1707
!!!NIFC-rismID: 1001128753
!!!URL-scan: http://repozytorium.nifc.pl/skany/pl-wtm-nut--r1707
!!!ONB-nifc:
!!!SMS-variant:
!!!SMS-altvar:
**kern	**dynam	**kern	**dynam	**kern	**dynam	**kern	**dynam	**kern	**dynam	**kern	**dynam	**kern	**dynam	**kern	**dynam	**kern	**dynam	**kern	**dynam	**kern	**dynam	**kern	**dynam	**kern	**dynam	**kern	**dynam	**kern	**dynam	**kern	**dynam	**kern	**dynam	**kern	**dynam	**kern	**dynam
*	*	*	*	*	*	*	*	*group3	*	*group3	*	*	*	*	*	*group2	*	*group2	*	*group2	*	*	*	*	*	*group1	*	*group1	*	*	*	*	*	*	*	*	*
*	*	*	*	*	*	*	*	*I""Violini	*	*I""Violini	*	*	*	*	*	*I""Tromboni	*	*I""Tromboni	*	*I""Tromboni	*	*	*	*	*	*I""Corni	*	*I""Corni	*	*	*	*	*	*	*	*	*
*part19	*part19	*part18	*part18	*part17	*part17	*part16	*part16	*part15	*part15	*part14	*part14	*part13	*part13	*part12	*part12	*part11	*part11	*part10	*part10	*part9	*part9	*part8	*part8	*part7	*part7	*part6	*part6	*part5	*part5	*part4	*part4	*part3	*part3	*part2	*part2	*part1	*part1
*staff19	*	*staff18	*	*staff17	*	*staff16	*	*staff15	*	*staff14	*	*staff13	*	*staff12	*	*staff11	*	*staff10	*	*staff9	*	*staff8	*	*staff7	*	*staff6	*	*staff5	*	*staff4	*	*staff3	*	*staff2	*	*staff1	*
*I"Timpani in d. a.	*	*I"C: Baſsi	*	*I"Violoncelli	*	*I"Viole	*	*	*	*	*	*I"Triangolo C: Casſa	*	*I"P. Tambour	*	*	*	*	*	*	*	*I"in C. Trombe	*	*I"Fagotti	*	*I"in C.	*	*I"in D.	*	*I"in a. Clarinetti	*	*I"Oboe	*	*I"Picolo	*	*I"Flauto	*
*>[A,A,B,B,C,C,D,D,E,E,F,F]	*>[A,A,B,B,C,C,D,D,E,E,F,F]	*>[A,A,B,B,C,C,D,D,E,E,F,F]	*>[A,A,B,B,C,C,D,D,E,E,F,F]	*>[A,A,B,B,C,C,D,D,E,E,F,F]	*>[A,A,B,B,C,C,D,D,E,E,F,F]	*>[A,A,B,B,C,C,D,D,E,E,F,F]	*>[A,A,B,B,C,C,D,D,E,E,F,F]	*>[A,A,B,B,C,C,D,D,E,E,F,F]	*>[A,A,B,B,C,C,D,D,E,E,F,F]	*>[A,A,B,B,C,C,D,D,E,E,F,F]	*>[A,A,B,B,C,C,D,D,E,E,F,F]	*>[A,A,B,B,C,C,D,D,E,E,F,F]	*>[A,A,B,B,C,C,D,D,E,E,F,F]	*>[A,A,B,B,C,C,D,D,E,E,F,F]	*>[A,A,B,B,C,C,D,D,E,E,F,F]	*>[A,A,B,B,C,C,D,D,E,E,F,F]	*>[A,A,B,B,C,C,D,D,E,E,F,F]	*>[A,A,B,B,C,C,D,D,E,E,F,F]	*>[A,A,B,B,C,C,D,D,E,E,F,F]	*>[A,A,B,B,C,C,D,D,E,E,F,F]	*>[A,A,B,B,C,C,D,D,E,E,F,F]	*>[A,A,B,B,C,C,D,D,E,E,F,F]	*>[A,A,B,B,C,C,D,D,E,E,F,F]	*>[A,A,B,B,C,C,D,D,E,E,F,F]	*>[A,A,B,B,C,C,D,D,E,E,F,F]	*>[A,A,B,B,C,C,D,D,E,E,F,F]	*>[A,A,B,B,C,C,D,D,E,E,F,F]	*>[A,A,B,B,C,C,D,D,E,E,F,F]	*>[A,A,B,B,C,C,D,D,E,E,F,F]	*>[A,A,B,B,C,C,D,D,E,E,F,F]	*>[A,A,B,B,C,C,D,D,E,E,F,F]	*>[A,A,B,B,C,C,D,D,E,E,F,F]	*>[A,A,B,B,C,C,D,D,E,E,F,F]	*>[A,A,B,B,C,C,D,D,E,E,F,F]	*>[A,A,B,B,C,C,D,D,E,E,F,F]	*>[A,A,B,B,C,C,D,D,E,E,F,F]	*>[A,A,B,B,C,C,D,D,E,E,F,F]
*>A	*>A	*>A	*>A	*>A	*>A	*>A	*>A	*>A	*>A	*>A	*>A	*>A	*>A	*>A	*>A	*>A	*>A	*>A	*>A	*>A	*>A	*>A	*>A	*>A	*>A	*>A	*>A	*>A	*>A	*>A	*>A	*>A	*>A	*>A	*>A	*>A	*>A
*stria1	*	*	*	*	*	*	*	*	*	*	*	*	*	*	*	*	*	*	*	*	*	*	*	*	*	*	*	*	*	*	*	*	*	*	*	*	*
*clefF4	*	*clefF4	*	*clefF4	*	*clefC3	*	*clefG2	*	*clefG2	*	*clefF4	*	*clefF4	*	*clefF4	*	*clefC4	*	*clefC3	*	*clefG2	*	*clefF4	*	*clefG2	*	*clefG2	*	*clefG2	*	*clefG2	*	*clefG2	*	*clefG2	*
*	*	*	*	*	*	*	*	*	*	*	*	*	*	*	*	*	*	*	*	*	*	*	*	*	*	*	*	*ITrd-1c-2	*	*ITrd2c3	*	*	*	*ITrd0c0	*	*	*
*k[]	*	*k[f#c#]	*	*k[f#c#]	*	*k[f#c#]	*	*k[f#c#]	*	*k[f#c#]	*	*k[]	*	*k[]	*	*k[f#c#]	*	*k[f#c#]	*	*k[f#c#]	*	*k[f#c#]	*	*k[f#c#]	*	*k[]	*	*k[f#c#]	*	*k[f#c#]	*	*k[f#c#]	*	*k[f#c#]	*	*k[f#c#]	*
*b:	*	*b:	*	*b:	*	*b:	*	*b:	*	*b:	*	*b:	*	*b:	*	*b:	*	*b:	*	*b:	*	*b:	*	*b:	*	*b:	*	*	*	*b:	*	*b:	*	*b:	*	*b:	*
*M3/8	*	*M3/8	*	*M3/8	*	*M3/8	*	*M3/8	*	*M3/8	*	*M3/8	*	*M3/8	*	*M3/8	*	*M3/8	*	*M3/8	*	*M3/8	*	*M3/8	*	*M3/8	*	*M3/8	*	*M3/8	*	*M3/8	*	*M3/8	*	*M3/8	*
=1	=1	=1	=1	=1	=1	=1	=1	=1	=1	=1	=1	=1	=1	=1	=1	=1	=1	=1	=1	=1	=1	=1	=1	=1	=1	=1	=1	=1	=1	=1	=1	=1	=1	=1	=1	=1	=1
*	*	*	*	*	*	*	*	*	*	*	*	*	*	*	*	*	*	*	*	*	*	*	*	*	*	*^	*	*	*	*	*	*	*	*	*	*	*
!	!	!	!LO:DY:rj	!	!	!	!LO:DY:rj	!	!	!	!LO:DY:a:rj	!	!	!	!	!	!	!	!	!	!	!	!	!	!	!	!	!	!	!	!LO:TX:a:t=P:problem:wymazany bemol przy kluczu	!	!	!	!	!	!	!
8r	.	16.BB|/LL	f	16.BB|/LLyy	fyy	16.B/LL	f	16.B/LL	.	16.B/LL|>	f	4.r	.	4.r	.	8r	.	8r	.	8r	.	4.r	.	16.BLL 16.BB\	.	8r	8rcyy	.	8r	.	4.r	.	4.r	.	4.r	.	4.r	.
.	.	32BB-X|/JJk	.	32BB-X|/JJkyy	.	32B-X/JJk	.	32B-X/JJk	.	32B-X/JJk|>	.	.	.	.	.	.	.	.	.	.	.	.	.	32B-XJJk 32BB-X\	.	.	.	.	.	.	.	.	.	.	.	.	.	.
8r	.	8AA|/L	.	8AA|/Lyy	.	8A/L	.	8A/L	.	8A/L|>	.	.	.	.	.	8r	.	8r	.	8r	.	.	.	8A 8AA\	.	8r	8rcyy	.	8r	.	.	.	.	.	.	.	.	.
!LO:SIC:s=8AA\	!	!	!	!	!	!	!	!	!	!	!	!	!	!	!	!	!	!	!	!	!	!	!	!	!	!	!	!	!	!	!	!	!	!	!	!	!	!
8Re\	.	8AA|/J	.	8AA|/Jyy	.	8A/J	.	8c#/J	.	8e/J|>	.	.	.	.	.	8A 8AA\	.	8c#\	.	8e\	.	.	.	8A 8AA\	.	8dd/	8dd\	.	8ee 8a/	.	.	.	.	.	.	.	.	.
*	*	*	*	*	*	*	*	*	*	*	*	*	*	*	*	*	*	*	*	*	*	*	*	*	*	*v	*v	*	*	*	*	*	*	*	*	*	*	*
=2	=2	=2	=2	=2	=2	=2	=2	=2	=2	=2	=2	=2	=2	=2	=2	=2	=2	=2	=2	=2	=2	=2	=2	=2	=2	=2	=2	=2	=2	=2	=2	=2	=2	=2	=2	=2	=2
.	.	.	.	.	.	.	.	8qe/	.	(8qg/	.	.	.	.	.	.	.	.	.	.	.	.	.	.	.	.	.	.	.	.	.	.	.	.	.	.	.
!LO:SIC:s=16.D/	!	!	!	!	!	!	!	!	!	!	!	!	!	!	!	!	!	!	!	!	!	!	!	!	!	!	!	!	!	!	!	!	!	!	!	!	!
16.Re/	.	16.D/LL	.	16.D/LLyy	.	16.A/LL	.	16.d/LL	.	16.f#/LL)	.	4.r	.	4.r	.	16.ALL 16.D\	.	16.d\LL	.	16.f#\LL	.	4.r	.	16.ALL 16.D\	.	16.dd\LL	.	16.ff#LL 16.dd\	.	4.r	.	4.r	.	4.r	.	4.r	.
!LO:SIC:s=32AA\	!	!	!	!	!	!	!	!	!	!	!	!	!	!	!	!	!	!	!	!	!	!	!	!	!	!	!	!	!	!	!	!	!	!	!	!	!
32Re\	.	32AA/JJk	.	32AA/JJkyy	.	32AJJk 32G/	.	32c#/JJk	.	32e'/JJk	.	.	.	.	.	32AJJk 32AA\	.	32c#\JJk	.	32e\JJk	.	.	.	32GJJk 32AA\	.	32eeJJk 32cc#X\	.	32eeJJk 32a\	.	.	.	.	.	.	.	.	.
!LO:SIC:s=4D/	!	!	!	!	!	!	!	!	!	!	!	!	!	!	!	!	!	!	!	!	!	!	!	!	!	!	!	!	!	!	!	!	!	!	!	!	!
4Re/	.	4D/	.	4D/yy	.	4A 4F#/	.	4d/	.	4d|/	.	.	.	.	.	8A 8D\	.	8d\	.	8d\	.	.	.	4F# 4D\	.	8dd\	.	8dd 8f#/	.	.	.	.	.	.	.	.	.
.	.	.	.	.	.	.	.	.	.	.	.	.	.	.	.	8r	.	8r	.	8r	.	.	.	.	.	8r	.	8r	.	.	.	.	.	.	.	.	.
=3	=3	=3	=3	=3	=3	=3	=3	=3	=3	=3	=3	=3	=3	=3	=3	=3	=3	=3	=3	=3	=3	=3	=3	=3	=3	=3	=3	=3	=3	=3	=3	=3	=3	=3	=3	=3	=3
*	*	*	*	*	*	*	*	*	*	*	*	*^	*	*	*	*	*	*	*	*	*	*	*	*	*	*	*	*	*	*^	*	*^	*	*	*	*	*
4.r	.	16.AA/LL	.	16.AA/LLyy	.	4.ryy	.	16.c#/LL	.	16.e/LL|	.	16.Ree/LL	4.r	.	4.r	.	4.r	.	4.r	.	4.r	.	16.eLL 16.c#/	.	16.ALL 16.AA\	.	4.r	.	4.r	.	16.e/LL	16.c#\LL	.	16.ee/LL	16.cc#\LL	.	4.r	.	4.r	.
.	.	32D/JJk	.	32D/JJkyy	.	.	.	32d/JJk	.	32f#/JJk|	.	32Ree/JJk	.	.	.	.	.	.	.	.	.	.	32f#JJk 32d/	.	32dJJk 32D\	.	.	.	.	.	32f#/JJk	32d\JJk	.	32ff#/JJk	32dd\JJk	.	.	.	.	.
.	.	8BB/L	.	8BB/Lyy	.	.	.	8d/L	.	8g/L|	.	8Ree/L	.	.	.	.	.	.	.	.	.	.	8gL 8d/	.	8BL 8BB\	.	.	.	.	.	8g/L	8d\L	.	8gg/L	8dd\L	.	.	.	.	.
.	.	8GG/J	.	8GG/Jyy	.	.	.	8d/J	.	8b/J|	.	8Ree/J	.	.	.	.	.	.	.	.	.	.	8bJ 8g/	.	8GJ 8GG\	.	.	.	.	.	8b/J	8d\J	.	8bb/J	8dd\J	.	.	.	.	.
=4	=4	=4	=4	=4	=4	=4	=4	=4	=4	=4	=4	=4	=4	=4	=4	=4	=4	=4	=4	=4	=4	=4	=4	=4	=4	=4	=4	=4	=4	=4	=4	=4	=4	=4	=4	=4	=4	=4	=4	=4
4.r	.	16.G\LL	.	16.G\LLyy	.	4.ryy	.	16.d/LL	.	16.b/LL	.	16.Ree/LL	4.r	.	4.r	.	4.r	.	4.r	.	4.r	.	16.bLL 16.g/	.	16.BLL 16.G\	.	4.r	.	4.r	.	16.b/LL	16.d\LL	.	16.bb/LL	16.dd\LL	.	4.r	.	4.r	.
.	.	32F#\JJk	.	32F#\JJkyy	.	.	.	32d/JJk	.	32a/JJk	.	32Ree/JJk	.	.	.	.	.	.	.	.	.	.	32aJJk 32f#/	.	32AJJk 32F#\	.	.	.	.	.	32a/JJk	32d\JJk	.	32aa/JJk	32dd\JJk	.	.	.	.	.
.	.	8D\	.	8D\yy	.	.	.	8d/	.	8f#/	.	8Ree/	.	.	.	.	.	.	.	.	.	.	8f# 8d/	.	8F# 8D\	.	.	.	.	.	8f#/	8d\	.	8ff#/	8dd\	.	.	.	.	.
.	.	8r	.	8ryy	.	.	.	8r	.	8r	.	8r	.	.	.	.	.	.	.	.	.	.	8r	.	8r	.	.	.	.	.	8r	8r	.	8r	8rcyy	.	.	.	.	.
*	*	*	*	*	*	*	*	*	*	*	*	*	*	*	*	*	*	*	*	*	*	*	*	*	*	*	*	*	*	*	*v	*v	*	*	*	*	*	*	*	*
*	*	*	*	*	*	*	*	*	*	*	*	*v	*v	*	*	*	*	*	*	*	*	*	*	*	*	*	*	*	*	*	*	*	*v	*v	*	*	*	*	*
=5	=5	=5	=5	=5	=5	=5	=5	=5	=5	=5	=5	=5	=5	=5	=5	=5	=5	=5	=5	=5	=5	=5	=5	=5	=5	=5	=5	=5	=5	=5	=5	=5	=5	=5	=5	=5	=5
*	*	*	*	*	*	*	*	*	*	*	*	*	*	*	*	*	*	*	*	*	*	*	*	*	*	*^	*	*	*	*	*	*	*	*	*	*	*
!	!	!	!LO:DY:rj	!	!	!	!LO:DY:rj	!	!	!	!	!	!	!	!	!	!	!	!	!	!	!	!	!	!	!	!	!	!LO:TX:t=P:problem:miejsca pustych taktów wypełnione materiałem z analogicznych fragmentów.	!	!	!	!	!	!	!	!	!
8ryy	.	16.BB|/LLyy	fyy	16.BB|/LLyy	fyy	16.B/LLyy	fyy	16.B/LLyy	.	16.B/LL	.	4.ryy	.	4.ryy	.	8ryy	.	8ryy	.	8ryy	.	4.ryy	.	16.BLLyy 16.BB\yy	.	8ryy	8ryy	.	8ryy	.	4.ryy	.	4.r	.	4.r	.	4.r	.
.	.	32BB-X|/JJkyy	.	32BB-X|/JJkyy	.	32B-X/JJkyy	.	32B-X/JJkyy	.	32B-X/JJk	.	.	.	.	.	.	.	.	.	.	.	.	.	32B-XJJkyy 32BB-X\yy	.	.	.	.	.	.	.	.	.	.	.	.	.	.
8ryy	.	8AA|/Lyy	.	8AA|/Lyy	.	8A/Lyy	.	8A/Lyy	.	8A/L	.	.	.	.	.	8ryy	.	8ryy	.	8ryy	.	.	.	8Ayy 8AA\yy	.	8ryy	8ryy	.	8ryy	.	.	.	.	.	.	.	.	.
!LO:SIC:s=8AA\	!	!	!	!	!	!	!	!	!	!	!	!	!	!	!	!	!	!	!	!	!	!	!	!	!	!	!	!	!	!	!	!	!	!	!	!	!	!
8Re\yy	.	8AA|/Jyy	.	8AA|/Jyy	.	8A/Jyy	.	8c#/Jyy	.	8e/J	.	.	.	.	.	8Ayy 8AA\yy	.	8c#\yy	.	8e\yy	.	.	.	8Ayy 8AA\yy	.	8dd/yy	8dd\yy	.	8eeyy 8a/yy	.	.	.	.	.	.	.	.	.
*	*	*	*	*	*	*	*	*	*	*	*	*	*	*	*	*	*	*	*	*	*	*	*	*	*	*v	*v	*	*	*	*	*	*	*	*	*	*	*
!!LO:PB:g=original
=6	=6	=6	=6	=6	=6	=6	=6	=6	=6	=6	=6	=6	=6	=6	=6	=6	=6	=6	=6	=6	=6	=6	=6	=6	=6	=6	=6	=6	=6	=6	=6	=6	=6	=6	=6	=6	=6
.	.	.	.	.	.	.	.	8qe/yy	.	8qg/	.	.	.	.	.	.	.	.	.	.	.	.	.	.	.	.	.	.	.	.	.	.	.	.	.	.	.
!LO:SIC:s=16.D/	!	!	!	!	!	!	!	!	!	!	!	!	!	!	!	!	!	!	!	!	!	!	!	!	!	!	!	!	!	!	!	!	!	!	!	!	!
16.Re/yy	.	16.D/LLyy	.	16.D/LLyy	.	16.A/LLyy	.	16.d/LLyy	.	16.f#/LL	.	4.ryy	.	4.ryy	.	16.ALLyy 16.D\yy	.	16.d\LLyy	.	16.f#\LLyy	.	4.ryy	.	16.ALLyy 16.D\yy	.	16.dd\LL	.	16.ff#LyyL 16.dd\yy	.	4.ryy	.	4.ryy	.	4.ryy	.	4.r	.
!LO:SIC:s=32AA\	!	!	!	!	!	!	!	!	!	!	!	!	!	!	!	!	!	!	!	!	!	!	!	!	!	!	!	!	!	!	!	!	!	!	!	!	!
32Re\yy	.	32AA/JJkyy	.	32AA/JJkyy	.	32AJJkyy 32G/yy	.	32c#/JJkyy	.	32e/JJk	.	.	.	.	.	32AJJkyy 32AA\yy	.	32c#\JJkyy	.	32e\JJkyy	.	.	.	32GJJkyy 32AA\yy	.	32eeJJk 32cc#X\	.	32eeJJkyy 32a\yy	.	.	.	.	.	.	.	.	.
!LO:SIC:s=4D/	!	!	!	!	!	!	!	!	!	!	!	!	!	!	!	!	!	!	!	!	!	!	!	!	!	!	!	!	!	!	!	!	!	!	!	!	!
4Re/yy	.	4D/yy	.	4D/yy	.	4Ayy 4F#/yy	.	4d/yy	.	4d/	.	.	.	.	.	8Ayy 8D\yy	.	8d\yy	.	8d\yy	.	.	.	4F#yy 4D\yy	.	8dd\	.	8ddyy 8f#/yy	.	.	.	.	.	.	.	.	.
.	.	.	.	.	.	.	.	.	.	.	.	.	.	.	.	8ryy	.	8ryy	.	8ryy	.	.	.	.	.	8r	.	8ryy	.	.	.	.	.	.	.	.	.
=7	=7	=7	=7	=7	=7	=7	=7	=7	=7	=7	=7	=7	=7	=7	=7	=7	=7	=7	=7	=7	=7	=7	=7	=7	=7	=7	=7	=7	=7	=7	=7	=7	=7	=7	=7	=7	=7
*	*	*	*	*	*	*	*	*	*	*	*	*	*	*	*	*	*	*	*	*	*	*	*	*	*	*^	*	*^	*	*	*	*	*	*	*	*	*
!	!	!	!	!	!	!	!	!	!	!	!	!	!	!	!	!	!	!	!	!	!	!	!	!LO:TX:t=P:problem:na tej stronie partie Fagotti i 3 4 Corni zamienione	!	!	!	!	!	!	!	!	!	!	!	!	!	!	!
4.ryy	.	16E\	.	16E\yy	.	16e 16B\	.	16.e/LL	.	16.g#X|/LL	.	4.ryy	.	4.ryy	.	4.r	.	4.r	.	4.r	.	16.g#XLL 16.e/	.	16e 16E\	.	16ee/yy	16ee\yy	.	16ee/	16ee\	.	16.g#LL 16.e/	.	16.ee\LL	.	16.gg#X\LL|	.	16.gg#X\LL|	.
.	.	16r	.	16ryy	.	16r	.	.	.	.	.	.	.	.	.	.	.	.	.	.	.	.	.	16r	.	16ryy	16rcyy	.	16r	16rdyy	.	.	.	.	.	.	.	.	.
.	.	.	.	.	.	.	.	32f#/JJk	.	32a|/JJk	.	.	.	.	.	.	.	.	.	.	.	32aJJk 32f#/	.	.	.	.	.	.	.	.	.	32aJJk 32f#/	.	32ff#\JJk	.	32aa\JJk|	.	32aa\JJk|	.
.	.	8E\L	.	8E\Lyy	.	8eL 8B\	.	8g#X/L	.	8b|/L	.	.	.	.	.	.	.	.	.	.	.	8bL 8g#/	.	8eL 8E\	.	8ee\Lyy	8rcyy	.	8ee\L	8rdyy	.	8bL 8g#\	.	8gg#X\L	.	8bb\L|	.	8bb\L|	.
.	.	8E^<\J	.	8E^<\Jyy	.	8eJ 8B^<\	.	8g#^>/J	.	8ee|/J	.	.	.	.	.	.	.	.	.	.	.	8eeJ 8g#/	.	8eJ 8E\	.	8ee\Jyy	8rcyy	.	8ee\J	8rdyy	.	8eeJ 8g#\	.	8gg#\J	.	8eee\J|	.	8eee\J|	.
*	*	*	*	*	*	*	*	*	*	*	*	*	*	*	*	*	*	*	*	*	*	*	*	*	*	*v	*v	*	*	*	*	*	*	*	*	*	*	*	*
*	*	*	*	*	*	*	*	*	*	*	*	*	*	*	*	*	*	*	*	*	*	*	*	*	*	*	*	*v	*v	*	*	*	*	*	*	*	*	*
=8	=8	=8	=8	=8	=8	=8	=8	=8	=8	=8	=8	=8	=8	=8	=8	=8	=8	=8	=8	=8	=8	=8	=8	=8	=8	=8	=8	=8	=8	=8	=8	=8	=8	=8	=8	=8	=8
.	.	.	.	.	.	.	.	8qb/	.	(8qdd/	.	.	.	.	.	.	.	.	.	.	.	(8qdd 8qb/	.	.	.	.	.	.	.	(<8qdd 8qb/	.	8qbb/	.	(>8qddd/	.	(>8qddd/	.
4.ryy	.	16.A\LL	.	16.A\LLyy	.	16.eLL 16.A\	.	16.a/LL	.	16.cc#/LL)	.	4.ryy	.	4.ryy	.	4.r	.	4.r	.	4.r	.	16.cc#LL 16.a/)	.	16.eLL 16.A\	.	16eeyy 16a\yy	.	16ee 16a\	.	16.cc#LL 16.a\)	.	16.aa\LL	.	16.ccc#\LL)	.	16.ccc#\LL)	.
.	.	.	.	.	.	.	.	.	.	.	.	.	.	.	.	.	.	.	.	.	.	.	.	.	.	16ryy	.	16r	.	.	.	.	.	.	.	.	.
.	.	32E\JJk	.	32E\JJkyy	.	32eJJk 32d\	.	32g#X/JJk	.	32b'/JJk	.	.	.	.	.	.	.	.	.	.	.	32bJJk 32e/	.	32dJJk 32E\	.	.	.	.	.	32bJJk 32g#\	.	32gg#X\JJk	.	32bb\JJk|	.	32bb\JJk|	.
.	.	8A\	.	8A\yy	.	8e 8c#\	.	8a/	.	8a/	.	.	.	.	.	.	.	.	.	.	.	8a 8c#/	.	8c# 8A\	.	8eeyy 8a\yy	.	8ee 8a\	.	8cc# 8a\	.	8aa\	.	8aa\|	.	8aa\|	.
.	.	8r	.	8ryy	.	8r	.	8r	.	8r	.	.	.	.	.	.	.	.	.	.	.	8r	.	8r	.	8ryy	.	8r	.	8r	.	8r	.	8r	.	8r	.
=9:|!|:	=9:|!|:	=9:|!|:	=9:|!|:	=9:|!|:	=9:|!|:	=9:|!|:	=9:|!|:	=9:|!|:	=9:|!|:	=9:|!|:	=9:|!|:	=9:|!|:	=9:|!|:	=9:|!|:	=9:|!|:	=9:|!|:	=9:|!|:	=9:|!|:	=9:|!|:	=9:|!|:	=9:|!|:	=9:|!|:	=9:|!|:	=9:|!|:	=9:|!|:	=9:|!|:	=9:|!|:	=9:|!|:	=9:|!|:	=9:|!|:	=9:|!|:	=9:|!|:	=9:|!|:	=9:|!|:	=9:|!|:	=9:|!|:	=9:|!|:
*>B	*>B	*>B	*>B	*>B	*>B	*>B	*>B	*>B	*>B	*>B	*>B	*>B	*>B	*>B	*>B	*>B	*>B	*>B	*>B	*>B	*>B	*>B	*>B	*>B	*>B	*>B	*>B	*>B	*>B	*>B	*>B	*>B	*>B	*>B	*>B	*>B	*>B
*	*	*	*	*	*	*	*	*	*	*	*	*^	*	*	*	*	*	*	*	*	*	*	*	*	*	*	*	*	*	*	*	*	*	*	*	*	*
!LO:SIC:s=16.AA\LL	!	!	!LO:DY:rj	!	!LO:DY:rj	!LO:TX:a:t=col b&colon;//	!LO:DY:rj	!	!	!	!LO:DY:rj	!	!	!	!	!	!	!	!	!	!	!	!	!	!	!LO:DY:a:rj	!	!LO:DY:a:rj	!	!LO:DY:a:rj	!	!	!	!LO:DY:a:rj	!	!	!LO:TX:a:t=a:problem:dopisane ołówkiem	!
16.Re\L	.	16.A\LL	f	16.A\LLyy	fy	16.a\LLyy	fyy	16.cc#LL 16.e 16.A/	.	16.ggnLL 16.a\	f	16.Ree/LL	8Ra#\	.	4.r	.	16.ALL 16.AA\	.	16.c#\LL	.	16.e\LL	.	16.gLL 16.e/	.	16.ALL 16.AA\	f	16.aaLLyy 16.a\yy	fy	16.aaLL 16.a\	f	16.cc#LL 16.e/	.	16.ggLL 16.ee\	f	16.ggn\LL	.	4.ryy	.
!LO:SIC:s=32AA\JJk	!	!	!	!	!	!	!	!	!	!	!	!	!	!	!	!	!	!	!	!	!	!	!	!	!	!	!	!	!	!	!	!	!	!	!	!	!	!
32Re\Jk	.	32A\JJk	.	32A\JJkyy	.	32a\JJkyy	.	32cc#JJk 32e/	.	32ggJJk 32a\	.	32Ree/JJk	.	.	.	.	32AJJk 32AA\	.	32c#\JJk	.	32e\JJk	.	32gJJk 32e/	.	32AJJk 32AA\	.	32aaJJkyy 32a\yy	.	32aaJJk 32a\	.	32cc#JJk 32e/	.	32ggJJk 32ee\	.	32gg\JJk	.	.	.
!LO:SIC:s=8AA\L	!	!	!	!	!	!	!	!	!	!	!	!	!	!	!	!	!	!	!	!	!	!	!	!	!	!	!	!	!	!	!	!	!	!	!	!	!	!
8Re\L	.	8AA/L	.	8AA/Lyy	.	8A/Lyy	.	8cc#L 8e\	.	8aaL 8a\	.	8Ree/L	8r	.	.	.	8AL 8AA\	.	8c#\L	.	8e\L	.	8aL 8c#/	.	8AL 8AA\	.	8aaLyy 8a\yy	.	8aaL 8a\	.	8cc#L 8e/	.	8aaL 8cc#\	.	8aa\L	.	.	.
!LO:SIC:s=8AA\J	!	!	!	!	!	!	!	!	!	!	!	!	!	!	!	!	!	!	!	!	!	!	!	!	!	!	!	!	!	!	!	!	!	!	!	!	!	!
8Re\J	.	8C#/J	.	8C#/Jyy	.	8c#/Jyy	.	8eeJ 8e\	.	8ggJ 8a\	.	8Ree/J	8r	.	.	.	8C#\J	.	8A\J	.	8e\J	.	8gJ 8e/	.	8AJ 8C#\	.	8aaJyy 8a\yy	.	8aaJ 8a\	.	8eeJ 8gn/	.	8ggJ 8ee\	.	8gg\J	.	.	.
=10	=10	=10	=10	=10	=10	=10	=10	=10	=10	=10	=10	=10	=10	=10	=10	=10	=10	=10	=10	=10	=10	=10	=10	=10	=10	=10	=10	=10	=10	=10	=10	=10	=10	=10	=10	=10	=10	=10
*	*	*	*	*	*	*	*	*	*	*	*	*	*	*	*	*	*	*	*	*	*	*	*^	*	*	*	*	*	*	*	*^	*	*^	*	*	*	*	*
*	*	*	*	*	*	*	*	*tremolo	*	*Xtuplet	*	*	*tremolo	*	*	*	*	*	*	*	*	*	*Xtuplet	*	*	*	*	*	*	*	*	*Xtuplet	*Xtuplet	*	*Xtuplet	*	*	*Xtuplet	*	*	*
!LO:SIC:s=8D/L	!	!	!	!	!	!	!	!	!	!	!	!	!	!	!	!	!	!	!	!	!	!	!	!	!	!	!	!	!	!	!	!	!	!	!	!	!	!	!	!	!
8Re/L	.	8D\L	.	8D\Lyy	.	8d\Lyy	.	8ddL 8d/	.	24ff#\LL	.	8Ree/	8Ra#\L	.	8Ra/	.	16D\	.	16d\	.	16f#\	.	24f#/LL	16d\	.	16AKL 16D\	.	16aayy 16dd\yy	.	16aa 16dd\	.	16dd/	24f#\LL	.	24ff#/LL	16dd\	.	24ff#\LL	.	4.ryy	.
.	.	.	.	.	.	.	.	.	.	24gg\	.	.	.	.	.	.	.	.	.	.	.	.	24g/	.	.	.	.	.	.	.	.	.	24g\	.	24gg/	.	.	24gg\	.	.	.
.	.	.	.	.	.	.	.	.	.	.	.	.	.	.	.	.	16r	.	16r	.	16r	.	.	16re	.	16r	.	16ryy	.	16r	.	16rdd	.	.	.	16r	.	.	.	.	.
.	.	.	.	.	.	.	.	.	.	24bb\JJ	.	.	.	.	.	.	.	.	.	.	.	.	24b/JJ	.	.	.	.	.	.	.	.	.	24b\JJ	.	24bb/JJ	.	.	24bb\JJ	.	.	.
*tremolo	*	*	*	*	*	*	*	*	*	*	*	*tremolo	*	*	*	*	*	*	*	*	*	*	*	*	*	*	*	*	*	*	*	*	*	*	*	*	*	*	*	*	*
!LO:TX:a:t=P:problem:w podobnych grupach rytmicznych nie wyświetla się tremolo	!	!	!	!	!	!	!	!	!	!	!	!LO:TX:a:t=P:problem:w podobnych grupach rytmicznych nie wyświetla się tremolo	!	!	!	!	!	!	!	!	!	!	!	!	!	!	!	!	!	!	!	!	!	!	!	!	!	!	!	!	!
!LO:SIC:s=32D/LL	!	!	!	!	!	!	!	!	!	!	!	!	!	!	!	!	!	!	!	!	!	!	!	!	!	!	!	!	!	!	!	!	!	!	!	!	!	!	!	!	!
32Re/	.	8F#\	.	8F#\yy	.	8f#\yy	.	8dd 8d/	.	8aa\L	.	32Ree/LLL	8Ra#\	.	8RaT/L	.	8F#\L	.	8f#L 8d\	.	8a\L	.	8a/L	8d\L	.	8F#\	.	8aaLyy 8dd\yy	.	8aaL 8dd\	.	8dd/L	8a\L	.	8aa/L	8dd\L	.	8aa\L	.	.	.
!LO:SIC:s=32D/	!	!	!	!	!	!	!	!	!	!	!	!	!	!	!	!	!	!	!	!	!	!	!	!	!	!	!	!	!	!	!	!	!	!	!	!	!	!	!	!	!
32Re/	.	.	.	.	.	.	.	.	.	.	.	32Ree/	.	.	.	.	.	.	.	.	.	.	.	.	.	.	.	.	.	.	.	.	.	.	.	.	.	.	.	.	.
!LO:SIC:s=32D/	!	!	!	!	!	!	!	!	!	!	!	!	!	!	!	!	!	!	!	!	!	!	!	!	!	!	!	!	!	!	!	!	!	!	!	!	!	!	!	!	!
32Re/	.	.	.	.	.	.	.	.	.	.	.	32Ree/	.	.	.	.	.	.	.	.	.	.	.	.	.	.	.	.	.	.	.	.	.	.	.	.	.	.	.	.	.
!LO:SIC:s=32D/JJ	!	!	!	!	!	!	!	!	!	!	!	!	!	!	!	!	!	!	!	!	!	!	!	!	!	!	!	!	!	!	!	!	!	!	!	!	!	!	!	!	!
32Re/	.	.	.	.	.	.	.	.	.	.	.	32Ree/JJ	.	.	.	.	.	.	.	.	.	.	.	.	.	.	.	.	.	.	.	.	.	.	.	.	.	.	.	.	.
*Xtremolo	*	*	*	*	*	*	*	*	*	*	*	*	*	*	*	*	*	*	*	*	*	*	*	*	*	*	*	*	*	*	*	*	*	*	*	*	*	*	*	*	*
!LO:SIC:s=8D/J	!	!	!	!	!	!	!	!	!	!	!	!	!	!	!	!	!	!	!	!	!	!	!	!	!	!	!	!	!	!	!	!	!	!	!	!	!	!	!	!	!
8Re/J	.	8D\J	.	8D\Jyy	.	8d\Jyy	.	8ddJ 8d/	.	8ff#\J	.	8Ree/J	8Ra#\J	.	8Ra/J	.	8D\J	.	8d\J	.	8f#\J	.	8f#/J	8d\J	.	8D\J	.	8aaJyy 8dd\yy	.	8aaJ 8dd\	.	8dd/J	8f#\J	.	8ff#/J	8dd\J	.	8ff#\J	.	.	.
*	*	*	*	*	*	*	*	*Xtremolo	*	*	*	*	*	*	*	*	*	*	*	*	*	*	*	*	*	*	*	*	*	*	*	*	*	*	*	*	*	*	*	*	*
*	*	*	*	*	*	*	*	*	*	*	*	*	*	*	*	*	*	*	*	*	*	*	*	*	*	*	*	*	*	*	*	*v	*v	*	*	*	*	*	*	*	*
*	*	*	*	*	*	*	*	*	*	*	*	*	*	*	*	*	*	*	*	*	*	*	*v	*v	*	*	*	*	*	*	*	*	*	*v	*v	*	*	*	*	*
=11	=11	=11	=11	=11	=11	=11	=11	=11	=11	=11	=11	=11	=11	=11	=11	=11	=11	=11	=11	=11	=11	=11	=11	=11	=11	=11	=11	=11	=11	=11	=11	=11	=11	=11	=11	=11	=11	=11
!LO:SIC:s=16.AA\LL	!	!LO:TX:t=P:problem:mixed beam	!	!LO:TX:t=P:problem:mixed beam	!	!LO:TX:t=P:problem:mixed beam	!	!	!	!	!	!	!	!	!	!	!	!	!	!	!	!	!	!	!	!	!	!	!	!	!	!	!	!	!	!	!	!
16.Re\L	.	16.AA/LL	.	16.AA/LLyy	.	16.A/LLyy	.	16.cc#LL 16.e 16.A/	.	16.ggLL 16.a\	.	16.Ree/LL	8Ra#\	.	4.r	.	16.ALL 16.AA\	.	16.c#\LL	.	16.e\LL	.	16.gLL 16.e/	.	16.ALL 16.AA\	.	16.aaLLyy 16.a\yy	.	16.aaLL 16.a\	.	16.cc#LL 16.e\	.	16.ggLL 16.ee\	.	16.gg\LL	.	4.ryy	.
!LO:SIC:s=32AA\JJk	!	!	!	!	!	!	!	!	!	!	!	!	!	!	!	!	!	!	!	!	!	!	!	!	!	!	!	!	!	!	!	!	!	!	!	!	!	!
32Re\Jk	.	32A\JJk	.	32A\JJkyy	.	32a\JJkyy	.	32cc#JJk 32e/	.	32ggJJk 32a\	.	32Ree/JJk	.	.	.	.	32AJJk 32AA\	.	32c#\JJk	.	32e\JJk	.	32gJJk 32e/	.	32AJJk 32AA\	.	32aaJJkyy 32a\yy	.	32aaJJk 32a\	.	32cc#JJk 32e\	.	32ggJJk 32ee\	.	32gg\JJk	.	.	.
*	*	*	*	*	*	*	*	*	*	*	*	*Xtremolo	*	*	*	*	*	*	*	*	*	*	*	*	*	*	*	*	*	*	*	*	*	*	*	*	*	*
!LO:SIC:s=8AA\L	!	!	!	!	!	!	!	!	!	!	!	!	!	!	!	!	!	!	!	!	!	!	!	!	!	!	!	!	!	!	!	!	!	!	!	!	!	!
8Re\L	.	8AA/L	.	8AA/Lyy	.	8A/Lyy	.	8cc#L 8e/	.	8aaL 8a\	.	8Ree/L	8r	.	.	.	8AL 8AA\	.	8c#\L	.	8e\L	.	8aL 8c#/	.	8AL 8AA\	.	8aaLyy 8a\yy	.	8aaL 8a\	.	8cc#L 8e\	.	8aaL 8cc#\	.	8aa\L	.	.	.
!LO:SIC:s=8AA\J	!	!	!	!	!	!	!	!	!	!	!	!	!	!	!	!	!	!	!	!	!	!	!	!	!	!	!	!	!	!	!	!	!	!	!	!	!	!
8Re\J	.	8C#/J	.	8C#/Jyy	.	8c#/Jyy	.	8eeJ 8e/	.	8ggJ 8a\	.	8Ree/J	8r	.	.	.	8C#\J	.	8A\J	.	8e\J	.	8gJ 8e/	.	8AJ 8C#\	.	8aaJyy 8a\yy	.	8aaJ 8a\	.	8eeJ 8g\	.	8ggJ 8ee\	.	8gg\J	.	.	.
!!LO:PB:g=original
=12	=12	=12	=12	=12	=12	=12	=12	=12	=12	=12	=12	=12	=12	=12	=12	=12	=12	=12	=12	=12	=12	=12	=12	=12	=12	=12	=12	=12	=12	=12	=12	=12	=12	=12	=12	=12	=12	=12
*	*	*	*	*	*	*	*	*	*	*	*	*	*	*	*	*	*	*	*	*	*	*	*^	*	*	*	*	*	*	*	*^	*	*^	*	*	*	*	*
*	*	*	*	*	*	*	*	*tremolo	*	*	*	*	*tremolo	*	*	*	*	*	*	*	*	*	*	*	*	*	*	*	*	*	*	*	*	*	*	*	*	*	*	*	*
!LO:SIC:s=8D/L	!	!	!	!	!	!LO:TX:a:t=//	!	!	!	!	!	!	!	!	!	!	!	!	!	!	!	!	!	!	!	!	!	!	!	!	!	!	!	!	!	!	!	!	!	!	!
8Re/L	.	8C#\L	.	8C#\Lyy	.	8c#\Lyy	.	8ddL 8d/	.	24ff#\LL	.	8Ree/	8Ra#\L	.	16Ra/	.	16D\	.	16d\	.	16f#\	.	24f#/LL	16d\	.	16A 16D\	.	16aayy 16dd\yy	.	16aa 16dd\	.	16dd/	24f#\LL	.	24ff#/LL	16dd\	.	24ff#\LL	.	4.r	.
.	.	.	.	.	.	.	.	.	.	24bb\	.	.	.	.	.	.	.	.	.	.	.	.	24b/	.	.	.	.	.	.	.	.	.	24b\	.	24bb/	.	.	24bb\	.	.	.
.	.	.	.	.	.	.	.	.	.	.	.	.	.	.	16r	.	16r	.	16r	.	16r	.	.	16re	.	16r	.	16ryy	.	16r	.	16r	.	.	.	16rff	.	.	.	.	.
.	.	.	.	.	.	.	.	.	.	24aa\JJ	.	.	.	.	.	.	.	.	.	.	.	.	24a/JJ	.	.	.	.	.	.	.	.	.	24a\JJ	.	24aa/JJ	.	.	24aa\JJ	.	.	.
*tremolo	*	*	*	*	*	*	*	*	*	*	*	*tremolo	*	*	*	*	*	*	*	*	*	*	*	*	*	*	*	*	*	*	*	*	*	*	*	*	*	*	*	*	*
!LO:SIC:s=32D/LL	!	!	!	!	!	!	!	!	!	!	!	!	!	!	!	!	!	!	!	!	!	!	!	!	!	!	!	!	!	!	!	!	!	!	!	!	!	!	!	!	!
32Re/	.	8D\	.	8D\yy	.	8d\yy	.	8dd 8d/	.	8ff#\L	.	32Ree/LLL	8Ra#\	.	8RaT/L	.	8D\L	.	8d\L	.	8f#\L	.	8f#/L	8d\L	.	8D\L	.	8aaLyy 8dd\yy	.	8aaL 8dd\	.	8dd/L	8f#\L	.	8ff#/L	8dd\L	.	8ff#\L	.	.	.
!LO:SIC:s=32D/	!	!	!	!	!	!	!	!	!	!	!	!	!	!	!	!	!	!	!	!	!	!	!	!	!	!	!	!	!	!	!	!	!	!	!	!	!	!	!	!	!
32Re/	.	.	.	.	.	.	.	.	.	.	.	32Ree/	.	.	.	.	.	.	.	.	.	.	.	.	.	.	.	.	.	.	.	.	.	.	.	.	.	.	.	.	.
!LO:SIC:s=32D/	!	!	!	!	!	!	!	!	!	!	!	!	!	!	!	!	!	!	!	!	!	!	!	!	!	!	!	!	!	!	!	!	!	!	!	!	!	!	!	!	!
32Re/	.	.	.	.	.	.	.	.	.	.	.	32Ree/	.	.	.	.	.	.	.	.	.	.	.	.	.	.	.	.	.	.	.	.	.	.	.	.	.	.	.	.	.
!LO:SIC:s=32D/JJ	!	!	!	!	!	!	!	!	!	!	!	!	!	!	!	!	!	!	!	!	!	!	!	!	!	!	!	!	!	!	!	!	!	!	!	!	!	!	!	!	!
32Re/	.	.	.	.	.	.	.	.	.	.	.	32Ree/JJ	.	.	.	.	.	.	.	.	.	.	.	.	.	.	.	.	.	.	.	.	.	.	.	.	.	.	.	.	.
*Xtremolo	*	*	*	*	*	*	*	*	*	*	*	*Xtremolo	*	*	*	*	*	*	*	*	*	*	*	*	*	*	*	*	*	*	*	*	*	*	*	*	*	*	*	*	*
!LO:SIC:s=8D/J	!	!	!	!	!	!	!	!	!	!	!	!	!	!	!	!	!	!	!	!	!	!	!	!	!	!	!	!	!	!	!	!	!	!	!	!	!	!	!	!	!
8Re/J	.	8F#\J	.	8F#\Jyy	.	8f#\Jyy	.	8ddJ 8d/	.	8dd\J	.	8Ree/J	8Ra#\J	.	8Ra/J	.	8F#\J	.	8A\J	.	8d\J	.	8d/J	8d\J	.	8F#\J	.	8aaJyy 8dd\yy	.	8aaJ 8dd\	.	8dd/J	8d\J	.	8dd/J	8a\J	.	8dd\J	.	.	.
*	*	*	*	*	*	*	*	*Xtremolo	*	*	*	*	*Xtremolo	*	*	*	*	*	*	*	*	*	*	*	*	*	*	*	*	*	*	*	*	*	*	*	*	*	*	*	*
*	*	*	*	*	*	*	*	*	*	*	*	*	*	*	*	*	*	*	*	*	*	*	*	*	*	*	*	*	*	*	*	*v	*v	*	*	*	*	*	*	*	*
*	*	*	*	*	*	*	*	*	*	*	*	*	*	*	*	*	*	*	*	*	*	*	*v	*v	*	*	*	*	*	*	*	*	*	*v	*v	*	*	*	*	*
=13	=13	=13	=13	=13	=13	=13	=13	=13	=13	=13	=13	=13	=13	=13	=13	=13	=13	=13	=13	=13	=13	=13	=13	=13	=13	=13	=13	=13	=13	=13	=13	=13	=13	=13	=13	=13	=13	=13
!LO:SIC:s=16.AA\LL	!	!	!	!	!	!	!	!	!	!	!	!	!	!	!	!	!	!	!	!	!	!	!	!	!	!	!	!LO:DY:a:rj	!	!LO:DY:a:rj	!	!	!	!LO:DY:a:rj	!	!	!	!
16.Re\Lyy	.	16.A\LL	.	16.A\LLyy	.	16.a\LLyy	.	16.cc#LL 16.e 16.A\	.	16.ggLL 16.a\	.	16.Ree/LLyy	8Ra#\yy	.	4.ryy	.	16.ALLyy 16.AA\yy	.	16.c#\LLyy	.	16.e\LLyy	.	16.gLLyy 16.e/yy	.	16.A\LL	.	16.aaLLyy 16.a\yy	fy	16.aaLLyy 16.a\yy	fy	16.cc#LLyy 16.e/yy	.	16.ggLLyy 16.ee\yy	fy	16.ggn\LLyy	.	4.ryy	.
!LO:SIC:s=32AA\JJk	!	!	!	!	!	!	!	!	!	!	!	!	!	!	!	!	!	!	!	!	!	!	!	!	!	!	!	!	!	!	!	!	!	!	!	!	!	!
32Re\Jkyy	.	32A\JJk	.	32A\JJkyy	.	32a\JJkyy	.	32cc#JJk 32e\	.	32ggJJk 32a\	.	32Ree/JJkyy	.	.	.	.	32AJJkyy 32AA\yy	.	32c#\JJkyy	.	32e\JJkyy	.	32gJJkyy 32e/yy	.	32A\JJk	.	32aaJJkyy 32a\yy	.	32aaJJkyy 32a\yy	.	32cc#JJkyy 32e/yy	.	32ggJJkyy 32ee\yy	.	32gg\JJkyy	.	.	.
!LO:SIC:s=8AA\L	!	!	!	!	!	!	!	!	!	!	!	!	!	!	!	!	!	!	!	!	!	!	!	!	!	!	!	!	!	!	!	!	!	!	!	!	!	!
8Re\Lyy	.	8AA/L	.	8AA/Lyy	.	8A/Lyy	.	8cc#L 8e\	.	8aaL 8a\	.	8Ree/Lyy	8rBByy	.	.	.	8ALyy 8AA\yy	.	8c#\Lyy	.	8e\Lyy	.	8aLyy 8c#/yy	.	8AL 8AA\	.	8aaLyy 8a\yy	.	8aaLyy 8a\yy	.	8cc#Lyy 8e/yy	.	8aaLyy 8cc#\yy	.	8aa\Lyy	.	.	.
!LO:SIC:s=8AA\J	!	!	!	!	!	!	!	!	!	!	!	!	!	!	!	!	!	!	!	!	!	!	!	!	!	!	!	!	!	!	!	!	!	!	!	!	!	!
8Re\Jyy	.	8C#/J	.	8C#/Jyy	.	8c#/Jyy	.	8eeJ 8e\	.	8ggJ 8a\	.	8Ree/Jyy	8rBByy	.	.	.	8C#\Jyy	.	8A\Jyy	.	8e\Jyy	.	8gJyy 8e/yy	.	8AJ 8C#\	.	8aaJyy 8a\yy	.	8aaJyy 8a\yy	.	8eeJyy 8gn/yy	.	8ggJyy 8ee\yy	.	8gg\Jyy	.	.	.
=14	=14	=14	=14	=14	=14	=14	=14	=14	=14	=14	=14	=14	=14	=14	=14	=14	=14	=14	=14	=14	=14	=14	=14	=14	=14	=14	=14	=14	=14	=14	=14	=14	=14	=14	=14	=14	=14	=14
*	*	*	*	*	*	*	*	*	*	*	*	*	*	*	*	*	*	*	*	*	*	*	*^	*	*	*	*	*	*	*	*^	*	*^	*	*	*	*	*
*	*	*	*	*	*	*	*	*tremolo	*	*	*	*	*tremolo	*	*	*	*	*	*	*	*	*	*	*	*	*	*	*	*	*	*	*	*	*	*	*	*	*	*	*	*
!LO:SIC:s=8D/L	!	!	!	!	!	!	!	!	!	!	!	!	!	!	!	!	!	!	!	!	!	!	!	!	!	!	!	!	!	!	!	!	!	!	!	!	!	!	!	!	!
8Re/Lyy	.	8D\L	.	8D\Lyy	.	8d\Lyy	.	8ddL 8d/	.	24ff#\LL	.	8Ree/yy	8Ra#\Lyy	.	8Ra/yy	.	16D\yy	.	16d\yy	.	16f#\yy	.	24f#/LLyy	16d\yy	.	8AL 8D\	.	16aayy 16dd\yy	.	16aayy 16dd\yy	.	16dd/yy	24f#\LLyy	.	24ff#/LLyy	16dd\yy	.	24ff#\LLyy	.	4.ryy	.
.	.	.	.	.	.	.	.	.	.	24gg\	.	.	.	.	.	.	.	.	.	.	.	.	24g/yy	.	.	.	.	.	.	.	.	.	24g\yy	.	24gg/yy	.	.	24gg\yy	.	.	.
.	.	.	.	.	.	.	.	.	.	.	.	.	.	.	.	.	16ryy	.	16ryy	.	16ryy	.	.	16reyy	.	.	.	16ryy	.	16ryy	.	16ryy	.	.	.	16rddyy	.	.	.	.	.
.	.	.	.	.	.	.	.	.	.	24bb\JJ	.	.	.	.	.	.	.	.	.	.	.	.	24b/JJyy	.	.	.	.	.	.	.	.	.	24b\JJyy	.	24bb/JJyy	.	.	24bb\JJyy	.	.	.
*tremolo	*	*	*	*	*	*	*	*	*	*	*	*tremolo	*	*	*	*	*	*	*	*	*	*	*	*	*	*	*	*	*	*	*	*	*	*	*	*	*	*	*	*	*
!LO:SIC:s=32D/LL	!	!	!	!	!	!	!	!	!	!	!	!	!	!	!	!	!	!	!	!	!	!	!	!	!	!	!	!	!	!	!	!	!	!	!	!	!	!	!	!	!
32Re/yy	.	8F#\	.	8F#\yy	.	8f#\yy	.	8dd 8d/	.	8aa\L	.	32Ree/LLLyy	8Ra#\yy	.	8RaT/Lyy	.	8F#\Lyy	.	8f#Lyy 8d\yy	.	8a\Lyy	.	8a/Lyy	8d\Lyy	.	8F#\	.	8aaLyy 8dd\yy	.	8aaLyy 8dd\yy	.	8dd/Lyy	8a\Lyy	.	8aa/Lyy	8dd\Lyy	.	8aa\Lyy	.	.	.
!LO:SIC:s=32D/	!	!	!	!	!	!	!	!	!	!	!	!	!	!	!	!	!	!	!	!	!	!	!	!	!	!	!	!	!	!	!	!	!	!	!	!	!	!	!	!	!
32Re/yy	.	.	.	.	.	.	.	.	.	.	.	32Ree/yy	.	.	.	.	.	.	.	.	.	.	.	.	.	.	.	.	.	.	.	.	.	.	.	.	.	.	.	.	.
!LO:SIC:s=32D/	!	!	!	!	!	!	!	!	!	!	!	!	!	!	!	!	!	!	!	!	!	!	!	!	!	!	!	!	!	!	!	!	!	!	!	!	!	!	!	!	!
32Re/yy	.	.	.	.	.	.	.	.	.	.	.	32Ree/yy	.	.	.	.	.	.	.	.	.	.	.	.	.	.	.	.	.	.	.	.	.	.	.	.	.	.	.	.	.
!LO:SIC:s=32D/JJ	!	!	!	!	!	!	!	!	!	!	!	!	!	!	!	!	!	!	!	!	!	!	!	!	!	!	!	!	!	!	!	!	!	!	!	!	!	!	!	!	!
32Re/yy	.	.	.	.	.	.	.	.	.	.	.	32Ree/JJyy	.	.	.	.	.	.	.	.	.	.	.	.	.	.	.	.	.	.	.	.	.	.	.	.	.	.	.	.	.
*Xtremolo	*	*	*	*	*	*	*	*	*	*	*	*Xtremolo	*	*	*	*	*	*	*	*	*	*	*	*	*	*	*	*	*	*	*	*	*	*	*	*	*	*	*	*	*
!LO:SIC:s=8D/J	!	!	!	!	!	!	!	!	!	!	!	!	!	!	!	!	!	!	!	!	!	!	!	!	!	!	!	!	!	!	!	!	!	!	!	!	!	!	!	!	!
8Re/Jyy	.	8D\J	.	8D\Jyy	.	8d\Jyy	.	8ddJ 8d/	.	8ff#\J	.	8Ree/Jyy	8Ra#\Jyy	.	8Ra/Jyy	.	8D\Jyy	.	8d\Jyy	.	8f#\Jyy	.	8f#/Jyy	8d\Jyy	.	8D\J	.	8aaJyy 8dd\yy	.	8aaJyy 8dd\yy	.	8dd/Jyy	8f#\Jyy	.	8ff#/Jyy	8dd\Jyy	.	8ff#\Jyy	.	.	.
*	*	*	*	*	*	*	*	*Xtremolo	*	*	*	*	*	*	*	*	*	*	*	*	*	*	*	*	*	*	*	*	*	*	*	*	*	*	*	*	*	*	*	*	*
*	*	*	*	*	*	*	*	*	*	*	*	*	*	*	*	*	*	*	*	*	*	*	*	*	*	*	*	*	*	*	*	*v	*v	*	*	*	*	*	*	*	*
*	*	*	*	*	*	*	*	*	*	*	*	*	*	*	*	*	*	*	*	*	*	*	*v	*v	*	*	*	*	*	*	*	*	*	*v	*v	*	*	*	*	*
=15	=15	=15	=15	=15	=15	=15	=15	=15	=15	=15	=15	=15	=15	=15	=15	=15	=15	=15	=15	=15	=15	=15	=15	=15	=15	=15	=15	=15	=15	=15	=15	=15	=15	=15	=15	=15	=15	=15
!LO:SIC:s=16.D/LL	!	!	!	!	!	!	!	!	!	!	!	!	!	!	!	!	!	!	!	!	!	!	!	!	!	!	!	!	!	!	!	!	!	!	!	!	!	!
16.Re/L	.	16.G\LL	.	16.G\LLyy	.	16.g\LLyy	.	16.ggLL 16.b 16.d\	.	16.bb\LL	.	16.Ree/LL	8Ra#\	.	8r	.	16.G\LL	.	16.d\LL	.	16.g\LL	.	16.bLL 16.g/	.	16.BLL 16.G\	.	8ryy	.	8r	.	16.bLL 16.g\	.	16.bbLL 16.gg\	.	16.bb\LL	.	4.r	.
!LO:SIC:s=32D/JK	!	!	!	!	!	!	!	!	!	!	!	!	!	!	!	!	!	!	!	!	!	!	!	!	!	!	!	!	!	!	!	!	!	!	!	!	!	!
32Re/	.	32G\JJk	.	32G\JJkyy	.	32g\JJkyy	.	32ggJJk 32b\	.	32bb\JJk	.	32Ree/JJk	.	.	.	.	32G\JJk	.	32d\JJk	.	32g\JJk	.	32bJJk 32g/	.	32BJJk 32G\	.	.	.	.	.	32bJJk 32g\	.	32bbJJk 32gg\	.	32bb\JJk	.	.	.
!LO:SIC:s=8D/J	!	!LO:TX:t=P:problem:mixed beam	!	!LO:TX:t=P:problem:mixed beam	!	!LO:TX:t=P:problem:mixed beam	!	!	!	!	!	!	!	!	!	!	!	!	!	!	!	!	!	!	!	!	!	!	!	!	!	!	!	!	!	!	!	!
8Re/J	.	8A\L	.	8A\Lyy	.	8a\Lyy	.	8ff#L 8a\	.	8aa\L	.	8Ree/L	8rBB	.	8r	.	8A\L	.	8d\L	.	8f#\L	.	8aL 8f#/	.	8A\L	.	8ff#Lyy 8dd\yy	.	8ff#L 8dd\	.	8aL 8f#\	.	8aaL 8ff#\	.	8aa\L	.	.	.
*	*	*	*	*	*	*	*	*	*	*	*	*tremolo	*	*	*	*	*	*	*	*	*	*	*	*	*	*	*	*	*	*	*	*	*	*	*	*	*	*
!LO:SIC:s=8AA\	!	!	!	!	!	!	!	!	!	!	!	!	!	!	!	!	!	!	!	!	!	!	!	!	!	!	!	!	!	!	!	!	!	!	!	!	!	!
8Re\	.	8AA/J	.	8AA/Jyy	.	8A/Jyy	.	8ggJ 8a\	.	8ccc#\J	.	32Ree/LL	8rBB	.	32Ra/LLL	.	8AJ 8AA\	.	8c#\J	.	8e\J	.	8cc#J 8g/	.	8GJ 8AA\	.	8eeJyy 8a\yy	.	8eeJ 8a\	.	8cc#J 8e\	.	8ggJ 8ee\	.	8ccc#\J	.	.	.
.	.	.	.	.	.	.	.	.	.	.	.	32Ree/	.	.	32Ra/	.	.	.	.	.	.	.	.	.	.	.	.	.	.	.	.	.	.	.	.	.	.	.
.	.	.	.	.	.	.	.	.	.	.	.	32Ree/	.	.	32Ra/	.	.	.	.	.	.	.	.	.	.	.	.	.	.	.	.	.	.	.	.	.	.	.
.	.	.	.	.	.	.	.	.	.	.	.	32Ree/JJJ	.	.	32Ra/JJJ	.	.	.	.	.	.	.	.	.	.	.	.	.	.	.	.	.	.	.	.	.	.	.
*	*	*	*	*	*	*	*	*	*	*	*	*Xtremolo	*	*	*	*	*	*	*	*	*	*	*	*	*	*	*	*	*	*	*	*	*	*	*	*	*	*
=16	=16	=16	=16	=16	=16	=16	=16	=16	=16	=16	=16	=16	=16	=16	=16	=16	=16	=16	=16	=16	=16	=16	=16	=16	=16	=16	=16	=16	=16	=16	=16	=16	=16	=16	=16	=16	=16	=16
!LO:SIC:s=16D/	!	!	!	!	!	!	!	!	!	!	!	!	!	!	!	!	!	!	!	!	!	!	!	!	!	!	!	!	!	!	!	!	!	!	!	!	!	!
16Re/	.	16D\	.	16D\yy	.	16d\	.	16ff# 16a\	.	32eee\KLL	.	16Ree/	8rBB	.	16Ra/	.	16A 16D\	.	16d\	.	16f#\	.	16dd 16f#/	.	16F# 16D\	.	16ddyy 16f#/yy	.	16dd 16f#/	.	16dd 16f#\	.	16ff# 16dd\	.	(32eee\KLL	.	4.r	.
.	.	.	.	.	.	.	.	.	.	16ddd\JJ	.	.	.	.	.	.	.	.	.	.	.	.	.	.	.	.	.	.	.	.	.	.	.	.	16ddd\JJ)	.	.	.
16r	.	16r	.	16ryy	.	16r	.	16r	.	.	.	16r	.	.	16r	.	16r	.	16r	.	16r	.	16r	.	16r	.	16ryy	.	16r	.	16r	.	16r	.	.	.	.	.
.	.	.	.	.	.	.	.	.	.	32r	.	.	.	.	.	.	.	.	.	.	.	.	.	.	.	.	.	.	.	.	.	.	.	.	32r	.	.	.
!LO:SIC:s=8D/	!	!	!	!	!	!	!	!	!	!	!	!	!	!	!	!	!	!	!	!	!	!	!	!	!	!	!	!	!	!	!	!	!	!	!	!	!	!
8Re/	.	8d 8D\	.	8dyy 8D\yy	.	8a 8d\	.	8dd 8f#/	.	8dd 8d/	.	8Ree/	8Ra#\	.	8Ra/	.	8A 8D\	.	8d\	.	8f#\	.	8dd 8f#/	.	8F# 8D\	.	8ddyy 8f#/yy	.	8dd 8f#/	.	8dd 8f#\	.	8ff# 8dd\	.	8ddd\	.	.	.
!	!	!	!	!	!	!	!	!	!	!	!	!	!	!	!	!	!	!	!	!	!	!	!	!	!	!	!	!	!	!	!	!	!	!	!	!	!LO:TX:a:t=b:problem:dopisane ołówkiem	!
8r	.	8r	.	8ryy	.	8r	.	8r	.	8r	.	8r	8rReeReeyy	.	8r	.	8r	.	8r	.	8r	.	8r	.	8r	.	8ryy	.	8r	.	8r	.	8r	.	8r	.	.	.
*	*	*	*	*	*	*	*	*	*	*	*	*v	*v	*	*	*	*	*	*	*	*	*	*	*	*	*	*	*	*	*	*	*	*	*	*	*	*	*
=17:|!|:	=17:|!|:	=17:|!|:	=17:|!|:	=17:|!|:	=17:|!|:	=17:|!|:	=17:|!|:	=17:|!|:	=17:|!|:	=17:|!|:	=17:|!|:	=17:|!|:	=17:|!|:	=17:|!|:	=17:|!|:	=17:|!|:	=17:|!|:	=17:|!|:	=17:|!|:	=17:|!|:	=17:|!|:	=17:|!|:	=17:|!|:	=17:|!|:	=17:|!|:	=17:|!|:	=17:|!|:	=17:|!|:	=17:|!|:	=17:|!|:	=17:|!|:	=17:|!|:	=17:|!|:	=17:|!|:	=17:|!|:	=17:|!|:	=17:|!|:
*>C	*>C	*>C	*>C	*>C	*>C	*>C	*>C	*>C	*>C	*>C	*>C	*>C	*>C	*>C	*>C	*>C	*>C	*>C	*>C	*>C	*>C	*>C	*>C	*>C	*>C	*>C	*>C	*>C	*>C	*>C	*>C	*>C	*>C	*>C	*>C	*>C	*>C
*	*	*	*	*	*	*	*	*	*	*	*	*	*	*	*	*	*	*	*	*	*	*	*	*^	*	*	*	*	*	*^	*	*	*	*	*	*	*
*	*	*tremolo	*	*tremolo	*	*tremolo	*	*tremolo	*	*	*	*	*	*	*	*	*	*	*	*	*	*	*	*	*	*	*	*	*	*	*	*	*	*	*	*	*	*Xtuplet	*
!	!	!	!LO:DY:rj	!	!	!	!	!	!LO:DY:rj	!	!	!	!	!	!	!	!	!	!	!	!	!	!	!	!	!	!	!	!	!LO:DY:rj	!	!	!	!	!	!	!	!	!
4.r	.	8AA/L	p	8EL 8AA/	.	8A/L	.	8c#/L	p	4.r	.	4.ryy	.	4.ryy	.	4.ryy	.	4.ryy	.	4.ryy	.	4.ryy	.	24A/LL	4.E\	p	4.ryy	.	4.a 4.A/	p	24a/LL	4.c#\	.	4.r	.	4.r	.	24aa\LL	.
.	.	.	.	.	.	.	.	.	.	.	.	.	.	.	.	.	.	.	.	.	.	.	.	24c#/	.	.	.	.	.	.	24cc#/	.	.	.	.	.	.	24ccc#\	.
.	.	.	.	.	.	.	.	.	.	.	.	.	.	.	.	.	.	.	.	.	.	.	.	24d#X/JJ	.	.	.	.	.	.	24dd#X/JJ	.	.	.	.	.	.	24ddd#X\JJ	.
.	.	8AA/	.	8E 8AA/	.	8A/	.	8c#/	.	.	.	.	.	.	.	.	.	.	.	.	.	.	.	8e/L	.	.	.	.	.	.	8ee/L	.	.	.	.	.	.	8eee\L	.
.	.	8AA/J	.	8EJ 8AA/	.	8A/J	.	8c#/J	.	.	.	.	.	.	.	.	.	.	.	.	.	.	.	8f#/J	.	.	.	.	.	.	8ff#/J	.	.	.	.	.	.	8fff#\J	.
*	*	*Xtremolo	*	*Xtremolo	*	*	*	*Xtremolo	*	*	*	*	*	*	*	*	*	*	*	*	*	*	*	*	*	*	*	*	*	*	*	*	*	*	*	*	*	*	*
!!LO:PB:g=original
=18	=18	=18	=18	=18	=18	=18	=18	=18	=18	=18	=18	=18	=18	=18	=18	=18	=18	=18	=18	=18	=18	=18	=18	=18	=18	=18	=18	=18	=18	=18	=18	=18	=18	=18	=18	=18	=18	=18	=18
*	*	*	*	*	*	*	*	*	*	*tuplet	*	*	*	*	*	*	*	*	*	*	*	*	*	*Xtuplet	*	*	*	*	*	*	*	*	*	*	*	*	*	*	*
!	!	!	!	!	!	!	!	!	!LO:DY:a	!LO:TUP:a:problem:klamra łukowa	!	!	!	!	!	!	!	!	!	!	!	!	!	!	!	!	!	!	!	!LO:DY:a:rj	!	!	!	!	!	!	!	!	!
4.ryy	.	8AA/L	sf	8F#L 8AA/	sf	8A/L	.	8B#X/L	sf	24dd#X\LL	.	4.ryy	.	4.ryy	.	4.ryy	.	4.ryy	.	4.ryy	.	4.ryy	.	24d#X/LL	8F#\	sf	4.r	.	8a 8A/	f	24dd#X/LL	8B#X\	.	4.ryy	.	4.ryy	.	24ddd#X\LL	.
.	.	.	.	.	.	.	.	.	.	24ff#\	.	.	.	.	.	.	.	.	.	.	.	.	.	24f#/	.	.	.	.	.	.	24ff#/	.	.	.	.	.	.	24fff#\	.
.	.	.	.	.	.	.	.	.	.	24dd#\JJ	.	.	.	.	.	.	.	.	.	.	.	.	.	24d#/JJ	.	.	.	.	.	.	24dd#/JJ	.	.	.	.	.	.	24ddd#\JJ	.
.	.	8AA/	.	8E 8AA/	.	8A/	.	8e 8c#/	.	8ee\L	.	.	.	.	.	.	.	.	.	.	.	.	.	8e/L	4E\	.	.	.	4a 4A/	.	8ee/L	4c#\	.	.	.	.	.	8eee\L	.
.	.	8AA/J	.	8EJ 8AA/	.	8A/J	.	8eJ 8c#/	.	8cc#\J	.	.	.	.	.	.	.	.	.	.	.	.	.	8c#/J	.	.	.	.	.	.	8cc#/J	.	.	.	.	.	.	8ccc#\J	.
=19	=19	=19	=19	=19	=19	=19	=19	=19	=19	=19	=19	=19	=19	=19	=19	=19	=19	=19	=19	=19	=19	=19	=19	=19	=19	=19	=19	=19	=19	=19	=19	=19	=19	=19	=19	=19	=19	=19	=19
*	*	*tremolo	*	*tremolo	*	*	*	*tremolo	*	*	*	*	*	*	*	*	*	*	*	*	*	*	*	*	*	*	*	*	*	*	*	*	*	*	*	*	*	*	*
4.ryy	.	8AA/L	.	8EL 8AA/	.	8A/L	.	8eL 8c#/	.	4.r	.	4.ryy	.	4.ryy	.	4.ryy	.	4.ryy	.	4.ryy	.	4.ryy	.	24A/LL	4.E\	.	4.r	.	4.a 4.A/	.	24a/LL	4.c#\	.	4.ryy	.	4.ryy	.	24aa\LL	.
.	.	.	.	.	.	.	.	.	.	.	.	.	.	.	.	.	.	.	.	.	.	.	.	24c#/	.	.	.	.	.	.	24cc#/	.	.	.	.	.	.	24ccc#\	.
.	.	.	.	.	.	.	.	.	.	.	.	.	.	.	.	.	.	.	.	.	.	.	.	24d#X/JJ	.	.	.	.	.	.	24dd#X/JJ	.	.	.	.	.	.	24ddd#X\JJ	.
.	.	8AA/	.	8E 8AA/	.	8A/	.	8e 8c#/	.	.	.	.	.	.	.	.	.	.	.	.	.	.	.	8e/L	.	.	.	.	.	.	8ee/L	.	.	.	.	.	.	8eee\L	.
.	.	8AA/J	.	8EJ 8AA/	.	8A/J	.	8eJ 8c#/	.	.	.	.	.	.	.	.	.	.	.	.	.	.	.	8f#/J	.	.	.	.	.	.	8ff#/J	.	.	.	.	.	.	8fff#\J	.
*	*	*Xtremolo	*	*Xtremolo	*	*Xtremolo	*	*Xtremolo	*	*	*	*	*	*	*	*	*	*	*	*	*	*	*	*	*	*	*	*	*	*	*	*	*	*	*	*	*	*	*
=20	=20	=20	=20	=20	=20	=20	=20	=20	=20	=20	=20	=20	=20	=20	=20	=20	=20	=20	=20	=20	=20	=20	=20	=20	=20	=20	=20	=20	=20	=20	=20	=20	=20	=20	=20	=20	=20	=20	=20
*	*	*	*	*	*	*	*	*	*	*	*	*	*	*	*	*	*	*	*	*	*	*	*	*	*	*	*	*	*	*	*	*	*	*	*	*	*	*tuplet	*
!	!	!	!	!	!	!	!	!	!	!LO:TX:a:t=divisi	!	!	!	!	!	!	!	!	!	!	!	!	!	!	!	!	!	!	!	!	!	!	!	!	!	!	!	!LO:TUP:a:problem:klamra łukowa	!
!	!	!	!	!	!	!	!	!	!	!LO:TUP:a:problem:klamra łukowa	!	!	!	!	!	!	!	!	!	!	!	!	!	!	!	!	!	!	!	!	!	!	!	!	!	!	!	!	!
4.ryy	.	8E\	.	8EE/	.	8G#X/	.	8d/	.	24bbLL 24b\	.	4.ryy	.	4.ryy	.	4.ryy	.	4.ryy	.	4.ryy	.	4.ryy	.	24B/LL	8E\	sf	4.r	.	8g#X 8e/	.	24b/LL	8d\	.	4.ryy	.	4.ryy	.	24bb\LL	.
.	.	.	.	.	.	.	.	.	.	24ccc# 24cc#\	.	.	.	.	.	.	.	.	.	.	.	.	.	24c#/	.	.	.	.	.	.	24cc#/	.	.	.	.	.	.	24ccc#\	.
.	.	.	.	.	.	.	.	.	.	24bbJJ 24b\	.	.	.	.	.	.	.	.	.	.	.	.	.	24B/JJ	.	.	.	.	.	.	24b/JJ	.	.	.	.	.	.	24bb\JJ	.
!	!	!LO:TX:t=P:problem:mixed beam	!	!	!	!	!	!	!	!	!	!	!	!	!	!	!	!	!	!	!	!	!	!	!	!	!	!	!	!	!	!	!	!	!	!	!	!	!
.	.	8A\L	.	8EL 8AA/	.	8A/L	.	8c#/L	.	4aa 4a\	.	.	.	.	.	.	.	.	.	.	.	.	.	4A/	4E\	.	.	.	4a 4A/	.	4a/	4c#\	.	.	.	.	.	4aa\	.
.	.	8AA/J	.	8EJ 8AA/	.	8A/J	.	8c#/J	.	.	.	.	.	.	.	.	.	.	.	.	.	.	.	.	.	.	.	.	.	.	.	.	.	.	.	.	.	.	.
=21	=21	=21	=21	=21	=21	=21	=21	=21	=21	=21	=21	=21	=21	=21	=21	=21	=21	=21	=21	=21	=21	=21	=21	=21	=21	=21	=21	=21	=21	=21	=21	=21	=21	=21	=21	=21	=21	=21	=21
*	*	*tremolo	*	*tremolo	*	*tremolo	*	*tremolo	*	*	*	*	*	*	*	*	*	*	*	*	*	*	*	*	*	*	*	*	*	*	*	*	*	*	*	*	*	*Xtuplet	*
4.ryy	.	8AA/L	.	8EL 8AA/	.	8A/L	.	8c#/L	.	4.r	.	4.ryy	.	4.ryy	.	4.ryy	.	4.ryy	.	4.ryy	.	4.ryy	.	24A/LL	4.E\	.	4.r	.	4.a 4.A/	.	24a/LL	4.c#\	.	4.ryy	.	4.ryy	.	24aa\LL	.
.	.	.	.	.	.	.	.	.	.	.	.	.	.	.	.	.	.	.	.	.	.	.	.	24c#/	.	.	.	.	.	.	24cc#/	.	.	.	.	.	.	24ccc#\	.
.	.	.	.	.	.	.	.	.	.	.	.	.	.	.	.	.	.	.	.	.	.	.	.	24d#X/JJ	.	.	.	.	.	.	24dd#X/JJ	.	.	.	.	.	.	24ddd#X\JJ	.
.	.	8AA/	.	8E 8AA/	.	8A/	.	8c#/	.	.	.	.	.	.	.	.	.	.	.	.	.	.	.	8e/L	.	.	.	.	.	.	8ee/L	.	.	.	.	.	.	8eee\L	.
.	.	8AA/J	.	8EJ 8AA/	.	8A/J	.	8c#/J	.	.	.	.	.	.	.	.	.	.	.	.	.	.	.	8f#/J	.	.	.	.	.	.	8ff#/J	.	.	.	.	.	.	8fff#\J	.
*	*	*Xtremolo	*	*Xtremolo	*	*Xtremolo	*	*Xtremolo	*	*	*	*	*	*	*	*	*	*	*	*	*	*	*	*	*	*	*	*	*	*	*	*	*	*	*	*	*	*	*
=22	=22	=22	=22	=22	=22	=22	=22	=22	=22	=22	=22	=22	=22	=22	=22	=22	=22	=22	=22	=22	=22	=22	=22	=22	=22	=22	=22	=22	=22	=22	=22	=22	=22	=22	=22	=22	=22	=22	=22
!	!	!	!	!	!	!	!	!	!LO:DY:a	!LO:TUP:a:problem:klamra łukowa	!	!	!	!	!	!	!	!	!	!	!	!	!	!	!	!	!	!	!	!	!	!	!	!	!	!	!	!	!
4.ryy	.	8AA/L	sf	8F#L 8AA/	sf	8A/L	sf	8B#X/L	sf	24dd#X\LL	.	4.ryy	.	4.ryy	.	4.ryy	.	4.ryy	.	4.ryy	.	4.ryy	.	24d#X/LL	8F#\	sf	4.r	.	8a 8A/	.	24dd#X/LL	8B#X\	.	4.ryy	.	4.ryy	.	24ddd#X\LL	.
.	.	.	.	.	.	.	.	.	.	24ff#\	.	.	.	.	.	.	.	.	.	.	.	.	.	24f#/	.	.	.	.	.	.	24ff#/	.	.	.	.	.	.	24fff#\	.
.	.	.	.	.	.	.	.	.	.	24dd#\JJ	.	.	.	.	.	.	.	.	.	.	.	.	.	24d#/JJ	.	.	.	.	.	.	24dd#/JJ	.	.	.	.	.	.	24ddd#\JJ	.
.	.	8AA/	.	8E 8AA/	.	8A/	.	8c#/	.	8ee\L	.	.	.	.	.	.	.	.	.	.	.	.	.	8e/L	4E\	.	.	.	4a 4A/	.	8ee/L	4c#\	.	.	.	.	.	8eee\L	.
!	!	!	!	!	!	!	!	!	!	!	!	!	!	!	!	!	!	!	!	!	!	!	!	!	!	!	!	!	!	!	!	!	!	!	!	!	!	!LO:TX:t=P:problem:jeden takt partytury wykreslony	!
.	.	8AA/J	.	8EJ 8AA/	.	8A/J	.	8c#/J	.	8cc#\J	.	.	.	.	.	.	.	.	.	.	.	.	.	8c#/J	.	.	.	.	.	.	8cc#/J	.	.	.	.	.	.	8ccc#\J	.
!!LO:PB:g=original
=23	=23	=23	=23	=23	=23	=23	=23	=23	=23	=23	=23	=23	=23	=23	=23	=23	=23	=23	=23	=23	=23	=23	=23	=23	=23	=23	=23	=23	=23	=23	=23	=23	=23	=23	=23	=23	=23	=23	=23
*	*	*tremolo	*	*tremolo	*	*tremolo	*	*tremolo	*	*	*	*	*	*	*	*	*	*	*	*	*	*	*	*	*	*	*	*	*	*	*	*	*	*	*	*	*	*	*
4.ryy	.	8AA/L	.	8EL 8AA/	.	8A/L	.	8c#/L	.	4.r	.	4.r	.	4.r	.	4.r	.	4.r	.	4.r	.	4.r	.	24A/LL	4.E\	.	4.ryy	.	4.a 4.A/	.	24a/LL	4.c#\	.	4.r	.	4.r	.	24aa\LL	.
.	.	.	.	.	.	.	.	.	.	.	.	.	.	.	.	.	.	.	.	.	.	.	.	24c#/	.	.	.	.	.	.	24cc#/	.	.	.	.	.	.	24ccc#\	.
.	.	.	.	.	.	.	.	.	.	.	.	.	.	.	.	.	.	.	.	.	.	.	.	24d#X/JJ	.	.	.	.	.	.	24dd#X/JJ	.	.	.	.	.	.	24ddd#X\JJ	.
.	.	8AA/	.	8E 8AA/	.	8A/	.	8c#/	.	.	.	.	.	.	.	.	.	.	.	.	.	.	.	8e/L	.	.	.	.	.	.	8ee/L	.	.	.	.	.	.	8eee\L	.
.	.	8AA/J	.	8EJ 8AA/	.	8A/J	.	8c#/J	.	.	.	.	.	.	.	.	.	.	.	.	.	.	.	8f#/J	.	.	.	.	.	.	8ff#/J	.	.	.	.	.	.	8fff#\J	.
*	*	*Xtremolo	*	*Xtremolo	*	*Xtremolo	*	*Xtremolo	*	*	*	*	*	*	*	*	*	*	*	*	*	*	*	*	*	*	*	*	*	*	*	*	*	*	*	*	*	*	*
=24	=24	=24	=24	=24	=24	=24	=24	=24	=24	=24	=24	=24	=24	=24	=24	=24	=24	=24	=24	=24	=24	=24	=24	=24	=24	=24	=24	=24	=24	=24	=24	=24	=24	=24	=24	=24	=24	=24	=24
!	!	!	!	!	!	!	!	!	!LO:DY:rj	!LO:TUP:a:problem:klamra łukowa	!	!	!	!	!	!	!	!	!	!	!	!	!	!	!	!	!	!	!	!	!	!	!LO:DY:rj	!	!	!	!	!	!
4.ryy	.	16E\	sf	16E\	.	16B/	.	16d/	sf	24bb\LL	.	4.r	.	4.r	.	4.r	.	4.r	.	4.r	.	4.r	.	24B/LL	8E\	sf	4.ryy	.	8b 8e/	sf	24b^/LL	8d\	sf	4.r	.	4.r	.	24bb\LL	.
.	.	.	.	.	.	.	.	.	.	24ff#\	.	.	.	.	.	.	.	.	.	.	.	.	.	24F#/	.	.	.	.	.	.	24f#/	.	.	.	.	.	.	24ff#\	.
.	.	16r	.	16r	.	16r	.	16r	.	.	.	.	.	.	.	.	.	.	.	.	.	.	.	.	.	.	.	.	.	.	.	.	.	.	.	.	.	.	.
.	.	.	.	.	.	.	.	.	.	24gg#X\JJ	.	.	.	.	.	.	.	.	.	.	.	.	.	24G#X/JJ	.	.	.	.	.	.	24g#/JJ	.	.	.	.	.	.	24gg#X\JJ	.
.	.	8AA/	.	8AA/	.	8A/	.	8c#/	.	8aa\	.	.	.	.	.	.	.	.	.	.	.	.	.	8A/	8AA\	.	.	.	8a 8A/	.	8a/	8c#\	.	.	.	.	.	8aa\	.
.	.	8r	.	8r	.	8r	.	8r	.	8r	.	.	.	.	.	.	.	.	.	.	.	.	.	8rA	8rEEyy	.	.	.	8r	.	8re	8rc	.	.	.	.	.	8r	.
*	*	*	*	*	*	*	*	*	*	*	*	*	*	*	*	*	*	*	*	*	*	*	*	*v	*v	*	*	*	*	*	*v	*v	*	*	*	*	*	*	*
=25:|!|:	=25:|!|:	=25:|!|:	=25:|!|:	=25:|!|:	=25:|!|:	=25:|!|:	=25:|!|:	=25:|!|:	=25:|!|:	=25:|!|:	=25:|!|:	=25:|!|:	=25:|!|:	=25:|!|:	=25:|!|:	=25:|!|:	=25:|!|:	=25:|!|:	=25:|!|:	=25:|!|:	=25:|!|:	=25:|!|:	=25:|!|:	=25:|!|:	=25:|!|:	=25:|!|:	=25:|!|:	=25:|!|:	=25:|!|:	=25:|!|:	=25:|!|:	=25:|!|:	=25:|!|:	=25:|!|:	=25:|!|:	=25:|!|:	=25:|!|:
*>D	*>D	*>D	*>D	*>D	*>D	*>D	*>D	*>D	*>D	*>D	*>D	*>D	*>D	*>D	*>D	*>D	*>D	*>D	*>D	*>D	*>D	*>D	*>D	*>D	*>D	*>D	*>D	*>D	*>D	*>D	*>D	*>D	*>D	*>D	*>D	*>D	*>D
*	*	*	*	*	*	*	*	*	*	*	*	*^	*	*	*	*	*	*	*	*	*	*	*	*	*	*	*	*	*	*	*	*	*	*	*	*	*
!LO:SIC:s=16.AA\LL	!	!	!	!	!	!LO:TX:a:t=col b&colon;//	!	!	!	!	!	!	!	!	!	!	!	!	!	!	!	!	!	!	!	!	!	!	!	!	!	!	!	!	!	!LO:DY:rj	!LO:TX:a:t=P:problem:tt.25-32 oznaczone odnośnikiem a.b. dopisanym ołówkiem	!
!	!	!	!LO:DY:rj	!	!LO:DY:rj	!	!LO:DY:rj	!	!	!	!	!	!	!	!	!	!	!	!	!	!	!	!	!	!	!LO:DY:a:rj	!	!LO:DY:a:rj	!	!LO:DY:a:rj	!	!	!	!LO:DY:a:rj	!	!	!	!
16.Re\Lyy	.	16.A\LLyy	fy	16.A\LLyy	fy	16.a\LLyy	fy	16.cc#LLyy 16.eyy 16.A/yy	.	16.ggnLL 16.a\	.	16.Ree/LLyy	8Ra#\yy	.	4.ryy	.	16.ALLyy 16.AA\yy	.	16.c#\LLyy	.	16.e\LLyy	.	16.gLLyy 16.e/yy	.	16.ALLyy 16.AA\yy	fy	16.aaLLyy 16.a\yy	fy	16.aaLLyy 16.a\yy	fy	16.cc#LLyy 16.e/yy	.	16.ggLLyy 16.ee\yy	fy	16.ggn\LLyy	fy	4.ryy	.
!LO:SIC:s=32AA\JJk	!	!	!	!	!	!	!	!	!	!	!	!	!	!	!	!	!	!	!	!	!	!	!	!	!	!	!	!	!	!	!	!	!	!	!	!	!	!
32Re\Jkyy	.	32A\JJkyy	.	32A\JJkyy	.	32a\JJkyy	.	32cc#JJkyy 32e/yy	.	32ggJJk 32a\	.	32Ree/JJkyy	.	.	.	.	32AJJkyy 32AA\yy	.	32c#\JJkyy	.	32e\JJkyy	.	32gJJkyy 32e/yy	.	32AJJkyy 32AA\yy	.	32aaJJkyy 32a\yy	.	32aaJJkyy 32a\yy	.	32cc#JJkyy 32e/yy	.	32ggJJkyy 32ee\yy	.	32gg\JJkyy	.	.	.
!LO:SIC:s=8AA\L	!	!	!	!	!	!	!	!	!	!	!	!	!	!	!	!	!	!	!	!	!	!	!	!	!	!	!	!	!	!	!	!	!	!	!	!	!	!
8Re\Lyy	.	8AA/Lyy	.	8AA/Lyy	.	8A/Lyy	.	8cc#Lyy 8e\yy	.	8aaL 8a\	.	8Ree/Lyy	8ryy	.	.	.	8ALyy 8AA\yy	.	8c#\Lyy	.	8e\Lyy	.	8aLyy 8c#/yy	.	8ALyy 8AA\yy	.	8aaLyy 8a\yy	.	8aaLyy 8a\yy	.	8cc#Lyy 8e/yy	.	8aaLyy 8cc#\yy	.	8aa\Lyy	.	.	.
!LO:SIC:s=8AA\J	!	!	!	!	!	!	!	!	!	!	!	!	!	!	!	!	!	!	!	!	!	!	!	!	!	!	!	!	!	!	!	!	!	!	!	!	!	!
8Re\Jyy	.	8C#/Jyy	.	8C#/Jyy	.	8c#/Jyy	.	8eeJyy 8e\yy	.	8ggJ 8a\	.	8Ree/Jyy	8ryy	.	.	.	8C#\Jyy	.	8A\Jyy	.	8e\Jyy	.	8gJyy 8e/yy	.	8AJyy 8C#\yy	.	8aaJyy 8a\yy	.	8aaJyy 8a\yy	.	8eeJyy 8gn/yy	.	8ggJyy 8ee\yy	.	8gg\Jyy	.	.	.
=26	=26	=26	=26	=26	=26	=26	=26	=26	=26	=26	=26	=26	=26	=26	=26	=26	=26	=26	=26	=26	=26	=26	=26	=26	=26	=26	=26	=26	=26	=26	=26	=26	=26	=26	=26	=26	=26	=26
*	*	*	*	*	*	*	*	*	*	*	*	*	*	*	*	*	*	*	*	*	*	*	*^	*	*	*	*	*	*	*	*^	*	*^	*	*	*	*	*
*	*	*	*	*	*	*	*	*tremolo	*	*Xtuplet	*	*	*tremolo	*	*	*	*	*	*	*	*	*	*	*	*	*	*	*	*	*	*	*	*	*	*	*	*	*	*	*	*
!LO:SIC:s=8D/L	!	!	!	!	!	!	!	!	!	!	!	!	!	!	!	!	!	!	!	!	!	!	!	!	!	!	!	!	!	!	!	!	!	!	!	!	!	!	!	!	!
8Re/Lyy	.	8D\Lyy	.	8D\Lyy	.	8d\Lyy	.	8ddLyy 8d/yy	.	24ff#\LL	.	8Ree/yy	8Ra#\Lyy	.	8Ra/yy	.	16D\yy	.	16d\yy	.	16f#\yy	.	24f#/LLyy	16d\yy	.	16AKLyy 16D\yy	.	16aayy 16dd\yy	.	16aayy 16dd\yy	.	16dd/yy	24f#\LLyy	.	24ff#/LLyy	16dd\yy	.	24ff#\LLyy	.	4.ryy	.
.	.	.	.	.	.	.	.	.	.	24gg\	.	.	.	.	.	.	.	.	.	.	.	.	24g/yy	.	.	.	.	.	.	.	.	.	24g\yy	.	24gg/yy	.	.	24gg\yy	.	.	.
.	.	.	.	.	.	.	.	.	.	.	.	.	.	.	.	.	16ryy	.	16ryy	.	16ryy	.	.	16reyy	.	16ryy	.	16ryy	.	16ryy	.	16ryy	.	.	.	16rffyy	.	.	.	.	.
.	.	.	.	.	.	.	.	.	.	24bb\JJ	.	.	.	.	.	.	.	.	.	.	.	.	24b/JJyy	.	.	.	.	.	.	.	.	.	24b\JJyy	.	24bb/JJyy	.	.	24bb\JJyy	.	.	.
*tremolo	*	*	*	*	*	*	*	*	*	*	*	*tremolo	*	*	*	*	*	*	*	*	*	*	*	*	*	*	*	*	*	*	*	*	*	*	*	*	*	*	*	*	*
!LO:SIC:s=32D/LL	!	!	!	!	!	!	!	!	!	!	!	!	!	!	!	!	!	!	!	!	!	!	!	!	!	!	!	!	!	!	!	!	!	!	!	!	!	!	!	!	!
32Re/yy	.	8F#\yy	.	8F#\yy	.	8f#\yy	.	8ddyy 8d/yy	.	8aa\L	.	32Ree/LLLyy	8Ra#\yy	.	8RaT/Lyy	.	8F#\Lyy	.	8f#Lyy 8d\yy	.	8a\Lyy	.	8a/Lyy	8d\Lyy	.	8F#\yy	.	8aaLyy 8dd\yy	.	8aaLyy 8dd\yy	.	8dd/Lyy	8a\Lyy	.	8aa/Lyy	8dd\Lyy	.	8aa\Lyy	.	.	.
!LO:SIC:s=32D/	!	!	!	!	!	!	!	!	!	!	!	!	!	!	!	!	!	!	!	!	!	!	!	!	!	!	!	!	!	!	!	!	!	!	!	!	!	!	!	!	!
32Re/yy	.	.	.	.	.	.	.	.	.	.	.	32Ree/yy	.	.	.	.	.	.	.	.	.	.	.	.	.	.	.	.	.	.	.	.	.	.	.	.	.	.	.	.	.
!LO:SIC:s=32D/	!	!	!	!	!	!	!	!	!	!	!	!	!	!	!	!	!	!	!	!	!	!	!	!	!	!	!	!	!	!	!	!	!	!	!	!	!	!	!	!	!
32Re/yy	.	.	.	.	.	.	.	.	.	.	.	32Ree/yy	.	.	.	.	.	.	.	.	.	.	.	.	.	.	.	.	.	.	.	.	.	.	.	.	.	.	.	.	.
!LO:SIC:s=32D/JJ	!	!	!	!	!	!	!	!	!	!	!	!	!	!	!	!	!	!	!	!	!	!	!	!	!	!	!	!	!	!	!	!	!	!	!	!	!	!	!	!	!
32Re/yy	.	.	.	.	.	.	.	.	.	.	.	32Ree/JJyy	.	.	.	.	.	.	.	.	.	.	.	.	.	.	.	.	.	.	.	.	.	.	.	.	.	.	.	.	.
*Xtremolo	*	*	*	*	*	*	*	*	*	*	*	*Xtremolo	*	*	*	*	*	*	*	*	*	*	*	*	*	*	*	*	*	*	*	*	*	*	*	*	*	*	*	*	*
!LO:SIC:s=8D/J	!	!	!	!	!	!	!	!	!	!	!	!	!	!	!	!	!	!	!	!	!	!	!	!	!	!	!	!	!	!	!	!	!	!	!	!	!	!	!	!	!
8Re/Jyy	.	8D\Jyy	.	8D\Jyy	.	8d\Jyy	.	8ddJyy 8d/yy	.	8ff#\J	.	8Ree/Jyy	8Ra#\Jyy	.	8Ra/Jyy	.	8D\Jyy	.	8d\Jyy	.	8f#\Jyy	.	8f#/Jyy	8d\Jyy	.	8D\Jyy	.	8aaJyy 8dd\yy	.	8aaJyy 8dd\yy	.	8dd/Jyy	8f#\Jyy	.	8ff#/Jyy	8dd\Jyy	.	8ff#\Jyy	.	.	.
*	*	*	*	*	*	*	*	*Xtremolo	*	*	*	*	*Xtremolo	*	*	*	*	*	*	*	*	*	*	*	*	*	*	*	*	*	*	*	*	*	*	*	*	*	*	*	*
*	*	*	*	*	*	*	*	*	*	*	*	*	*	*	*	*	*	*	*	*	*	*	*	*	*	*	*	*	*	*	*	*v	*v	*	*	*	*	*	*	*	*
*	*	*	*	*	*	*	*	*	*	*	*	*	*	*	*	*	*	*	*	*	*	*	*v	*v	*	*	*	*	*	*	*	*	*	*v	*v	*	*	*	*	*
=27	=27	=27	=27	=27	=27	=27	=27	=27	=27	=27	=27	=27	=27	=27	=27	=27	=27	=27	=27	=27	=27	=27	=27	=27	=27	=27	=27	=27	=27	=27	=27	=27	=27	=27	=27	=27	=27	=27
!LO:SIC:s=16.AA\LL	!	!LO:TX:t=P:problem:mixed beam	!	!LO:TX:t=P:problem:mixed beam	!	!LO:TX:t=P:problem:mixed beam	!	!	!	!	!	!	!	!	!	!	!	!	!	!	!	!	!	!	!	!	!	!	!	!	!	!	!	!	!	!	!	!
16.Re\Lyy	.	16.AA/LLyy	.	16.AA/LLyy	.	16.A/LLyy	.	16.cc#LLyy 16.eyy 16.A/yy	.	16.ggLL 16.a\	.	16.Ree/LLyy	8Ra#\yy	.	4.ryy	.	16.ALLyy 16.AA\yy	.	16.c#\LLyy	.	16.e\LLyy	.	16.gLLyy 16.e/yy	.	16.ALLyy 16.AA\yy	.	16.aaLLyy 16.a\yy	.	16.aaLLyy 16.a\yy	.	16.cc#LLyy 16.e\yy	.	16.ggLLyy 16.ee\yy	.	16.gg\LLyy	.	4.ryy	.
!LO:SIC:s=32AA\JJk	!	!	!	!	!	!	!	!	!	!	!	!	!	!	!	!	!	!	!	!	!	!	!	!	!	!	!	!	!	!	!	!	!	!	!	!	!	!
32Re\Jkyy	.	32A\JJkyy	.	32A\JJkyy	.	32a\JJkyy	.	32cc#JJkyy 32e/yy	.	32ggJJk 32a\	.	32Ree/JJkyy	.	.	.	.	32AJJkyy 32AA\yy	.	32c#\JJkyy	.	32e\JJkyy	.	32gJJkyy 32e/yy	.	32AJJkyy 32AA\yy	.	32aaJJkyy 32a\yy	.	32aaJJkyy 32a\yy	.	32cc#JJkyy 32e\yy	.	32ggJJkyy 32ee\yy	.	32gg\JJkyy	.	.	.
!LO:SIC:s=8AA\L	!	!	!	!	!	!	!	!	!	!	!	!	!	!	!	!	!	!	!	!	!	!	!	!	!	!	!	!	!	!	!	!	!	!	!	!	!	!
8Re\Lyy	.	8AA/Lyy	.	8AA/Lyy	.	8A/Lyy	.	8cc#Lyy 8e/yy	.	8aaL 8a\	.	8Ree/Lyy	8ryy	.	.	.	8ALyy 8AA\yy	.	8c#\Lyy	.	8e\Lyy	.	8aLyy 8c#/yy	.	8ALyy 8AA\yy	.	8aaLyy 8a\yy	.	8aaLyy 8a\yy	.	8cc#Lyy 8e\yy	.	8aaLyy 8cc#\yy	.	8aa\Lyy	.	.	.
!LO:SIC:s=8AA\J	!	!	!	!	!	!	!	!	!	!	!	!	!	!	!	!	!	!	!	!	!	!	!	!	!	!	!	!	!	!	!	!	!	!	!	!	!	!
8Re\Jyy	.	8C#/Jyy	.	8C#/Jyy	.	8c#/Jyy	.	8eeJyy 8e/yy	.	8ggJ 8a\	.	8Ree/Jyy	8ryy	.	.	.	8C#\Jyy	.	8A\Jyy	.	8e\Jyy	.	8gJyy 8e/yy	.	8AJyy 8C#\yy	.	8aaJyy 8a\yy	.	8aaJyy 8a\yy	.	8eeJyy 8g\yy	.	8ggJyy 8ee\yy	.	8gg\Jyy	.	.	.
=28	=28	=28	=28	=28	=28	=28	=28	=28	=28	=28	=28	=28	=28	=28	=28	=28	=28	=28	=28	=28	=28	=28	=28	=28	=28	=28	=28	=28	=28	=28	=28	=28	=28	=28	=28	=28	=28	=28
*	*	*	*	*	*	*	*	*	*	*	*	*	*	*	*	*	*	*	*	*	*	*	*^	*	*	*	*	*	*	*	*^	*	*^	*	*	*	*	*
*	*	*	*	*	*	*	*	*tremolo	*	*	*	*	*tremolo	*	*	*	*	*	*	*	*	*	*	*	*	*	*	*	*	*	*	*	*	*	*	*	*	*	*	*	*
!LO:SIC:s=8D/L	!	!	!	!	!	!	!	!	!	!	!	!	!	!	!	!	!	!	!	!	!	!	!	!	!	!	!	!	!	!	!	!	!	!	!	!	!	!	!	!	!
8Re/Lyy	.	8C#\Lyy	.	8C#\Lyy	.	8c#\Lyy	.	8ddLyy 8d/yy	.	24ff#\LL	.	8Ree/yy	8Ra#\Lyy	.	16Ra/yy	.	16D\yy	.	16d\yy	.	16f#\yy	.	24f#/LLyy	16d\yy	.	16Ayy 16D\yy	.	16aayy 16dd\yy	.	16aayy 16dd\yy	.	16dd/yy	24f#\LLyy	.	24ff#/LLyy	16dd\yy	.	24ff#\LLyy	.	4.ryy	.
.	.	.	.	.	.	.	.	.	.	24bb\	.	.	.	.	.	.	.	.	.	.	.	.	24b/yy	.	.	.	.	.	.	.	.	.	24b\yy	.	24bb/yy	.	.	24bb\yy	.	.	.
.	.	.	.	.	.	.	.	.	.	.	.	.	.	.	16ryy	.	16ryy	.	16ryy	.	16ryy	.	.	16reyy	.	16ryy	.	16ryy	.	16ryy	.	16ryy	.	.	.	16rffyy	.	.	.	.	.
.	.	.	.	.	.	.	.	.	.	24aa\JJ	.	.	.	.	.	.	.	.	.	.	.	.	24a/JJyy	.	.	.	.	.	.	.	.	.	24a\JJyy	.	24aa/JJyy	.	.	24aa\JJyy	.	.	.
*tremolo	*	*	*	*	*	*	*	*	*	*	*	*tremolo	*	*	*	*	*	*	*	*	*	*	*	*	*	*	*	*	*	*	*	*	*	*	*	*	*	*	*	*	*
!LO:SIC:s=32D/LL	!	!	!	!	!	!	!	!	!	!	!	!	!	!	!	!	!	!	!	!	!	!	!	!	!	!	!	!	!	!	!	!	!	!	!	!	!	!	!	!	!
32Re/yy	.	8D\yy	.	8D\yy	.	8d\yy	.	8ddyy 8d/yy	.	8ff#\L	.	32Ree/LLLyy	8Ra#\yy	.	8RaT/Lyy	.	8D\Lyy	.	8d\Lyy	.	8f#\Lyy	.	8f#/Lyy	8d\Lyy	.	8D\Lyy	.	8aaLyy 8dd\yy	.	8aaLyy 8dd\yy	.	8dd/Lyy	8f#\Lyy	.	8ff#/Lyy	8dd\Lyy	.	8ff#\Lyy	.	.	.
!LO:SIC:s=32D/	!	!	!	!	!	!	!	!	!	!	!	!	!	!	!	!	!	!	!	!	!	!	!	!	!	!	!	!	!	!	!	!	!	!	!	!	!	!	!	!	!
32Re/yy	.	.	.	.	.	.	.	.	.	.	.	32Ree/yy	.	.	.	.	.	.	.	.	.	.	.	.	.	.	.	.	.	.	.	.	.	.	.	.	.	.	.	.	.
!LO:SIC:s=32D/	!	!	!	!	!	!	!	!	!	!	!	!	!	!	!	!	!	!	!	!	!	!	!	!	!	!	!	!	!	!	!	!	!	!	!	!	!	!	!	!	!
32Re/yy	.	.	.	.	.	.	.	.	.	.	.	32Ree/yy	.	.	.	.	.	.	.	.	.	.	.	.	.	.	.	.	.	.	.	.	.	.	.	.	.	.	.	.	.
!LO:SIC:s=32D/JJ	!	!	!	!	!	!	!	!	!	!	!	!	!	!	!	!	!	!	!	!	!	!	!	!	!	!	!	!	!	!	!	!	!	!	!	!	!	!	!	!	!
32Re/yy	.	.	.	.	.	.	.	.	.	.	.	32Ree/JJyy	.	.	.	.	.	.	.	.	.	.	.	.	.	.	.	.	.	.	.	.	.	.	.	.	.	.	.	.	.
*Xtremolo	*	*	*	*	*	*	*	*	*	*	*	*Xtremolo	*	*	*	*	*	*	*	*	*	*	*	*	*	*	*	*	*	*	*	*	*	*	*	*	*	*	*	*	*
!LO:SIC:s=8D/J	!	!	!	!	!	!	!	!	!	!	!	!	!	!	!	!	!	!	!	!	!	!	!	!	!	!	!	!	!	!	!	!	!	!	!	!	!	!	!	!	!
8Re/Jyy	.	8F#\Jyy	.	8F#\Jyy	.	8f#\Jyy	.	8ddJyy 8d/yy	.	8dd\J	.	8Ree/Jyy	8Ra#\Jyy	.	8Ra/Jyy	.	8F#\Jyy	.	8A\Jyy	.	8d\Jyy	.	8d/Jyy	8d\Jyy	.	8F#\Jyy	.	8aaJyy 8dd\yy	.	8aaJyy 8dd\yy	.	8dd/Jyy	8d\Jyy	.	8dd/Jyy	8a\Jyy	.	8dd\Jyy	.	.	.
*	*	*	*	*	*	*	*	*Xtremolo	*	*	*	*	*Xtremolo	*	*	*	*	*	*	*	*	*	*	*	*	*	*	*	*	*	*	*	*	*	*	*	*	*	*	*	*
*	*	*	*	*	*	*	*	*	*	*	*	*	*	*	*	*	*	*	*	*	*	*	*	*	*	*	*	*	*	*	*	*v	*v	*	*	*	*	*	*	*	*
*	*	*	*	*	*	*	*	*	*	*	*	*	*	*	*	*	*	*	*	*	*	*	*v	*v	*	*	*	*	*	*	*	*	*	*v	*v	*	*	*	*	*
!!LO:PB:g=original
=29	=29	=29	=29	=29	=29	=29	=29	=29	=29	=29	=29	=29	=29	=29	=29	=29	=29	=29	=29	=29	=29	=29	=29	=29	=29	=29	=29	=29	=29	=29	=29	=29	=29	=29	=29	=29	=29	=29
!LO:SIC:s=16.AA\LL	!	!	!	!	!	!LO:TX:a:t=//	!	!	!	!	!	!	!	!	!	!	!	!	!	!	!	!	!	!	!	!	!	!LO:DY:a:rj	!	!LO:DY:a:rj	!	!	!	!LO:DY:a:rj	!	!LO:DY:rj	!	!
16.Re\Lyy	.	16.A\LLyy	.	16.A\LLyy	.	16.a\LLyy	.	16.cc#LLyy 16.eyy 16.A\yy	.	16.ggLL 16.a\	.	16.Ree/LLyy	8Ra#\yy	.	4.ryy	.	16.ALLyy 16.AA\yy	.	16.c#\LLyy	.	16.e\LLyy	.	16.gLLyy 16.e/yy	.	16.A\LLyy	.	16.aaLLyy 16.a\yy	fy	16.aaLLyy 16.a\yy	fy	16.cc#LLyy 16.e/yy	.	16.ggLLyy 16.ee\yy	fy	16.ggn\LLyy	fy	4.ryy	.
!LO:SIC:s=32AA\JJk	!	!	!	!	!	!	!	!	!	!	!	!	!	!	!	!	!	!	!	!	!	!	!	!	!	!	!	!	!	!	!	!	!	!	!	!	!	!
32Re\Jkyy	.	32A\JJkyy	.	32A\JJkyy	.	32a\JJkyy	.	32cc#JJkyy 32e\yy	.	32ggJJk 32a\	.	32Ree/JJkyy	.	.	.	.	32AJJkyy 32AA\yy	.	32c#\JJkyy	.	32e\JJkyy	.	32gJJkyy 32e/yy	.	32A\JJkyy	.	32aaJJkyy 32a\yy	.	32aaJJkyy 32a\yy	.	32cc#JJkyy 32e/yy	.	32ggJJkyy 32ee\yy	.	32gg\JJkyy	.	.	.
!LO:SIC:s=8AA\L	!	!	!	!	!	!	!	!	!	!	!	!	!	!	!	!	!	!	!	!	!	!	!	!	!	!	!	!	!	!	!	!	!	!	!	!	!	!
8Re\Lyy	.	8AA/Lyy	.	8AA/Lyy	.	8A/Lyy	.	8cc#Lyy 8e\yy	.	8aaL 8a\	.	8Ree/Lyy	8rBByy	.	.	.	8ALyy 8AA\yy	.	8c#\Lyy	.	8e\Lyy	.	8aLyy 8c#/yy	.	8ALyy 8AA\yy	.	8aaLyy 8a\yy	.	8aaLyy 8a\yy	.	8cc#Lyy 8e/yy	.	8aaLyy 8cc#\yy	.	8aa\Lyy	.	.	.
!LO:SIC:s=8AA\J	!	!	!	!	!	!	!	!	!	!	!	!	!	!	!	!	!	!	!	!	!	!	!	!	!	!	!	!	!	!	!	!	!	!	!	!	!	!
8Re\Jyy	.	8C#/Jyy	.	8C#/Jyy	.	8c#/Jyy	.	8eeJyy 8e\yy	.	8ggJ 8a\	.	8Ree/Jyy	8rBByy	.	.	.	8C#\Jyy	.	8A\Jyy	.	8e\Jyy	.	8gJyy 8e/yy	.	8AJyy 8C#\yy	.	8aaJyy 8a\yy	.	8aaJyy 8a\yy	.	8eeJyy 8gX/yy	.	8ggJyy 8ee\yy	.	8gg\Jyy	.	.	.
=30	=30	=30	=30	=30	=30	=30	=30	=30	=30	=30	=30	=30	=30	=30	=30	=30	=30	=30	=30	=30	=30	=30	=30	=30	=30	=30	=30	=30	=30	=30	=30	=30	=30	=30	=30	=30	=30	=30
*	*	*	*	*	*	*	*	*	*	*	*	*	*	*	*	*	*	*	*	*	*	*	*^	*	*	*	*	*	*	*	*^	*	*^	*	*	*	*	*
*	*	*	*	*	*	*	*	*tremolo	*	*	*	*	*tremolo	*	*	*	*	*	*	*	*	*	*	*	*	*	*	*	*	*	*	*	*	*	*	*	*	*	*	*	*
!LO:SIC:s=8D/L	!	!	!	!	!	!	!	!	!	!	!	!	!	!	!	!	!	!	!	!	!	!	!	!	!	!	!	!	!	!	!	!	!	!	!	!	!	!	!	!	!
8Re/Lyy	.	8D\Lyy	.	8D\Lyy	.	8d\Lyy	.	8ddLyy 8d/yy	.	24ff#\LL	.	8Ree/yy	8Ra#\Lyy	.	8Ra/yy	.	16D\yy	.	16d\yy	.	16f#\yy	.	24f#/LLyy	16d\yy	.	8ALyy 8D\yy	.	16aayy 16dd\yy	.	16aayy 16dd\yy	.	16dd/yy	24f#\LLyy	.	24ff#/LLyy	16dd\yy	.	24ff#\LLyy	.	4.ryy	.
.	.	.	.	.	.	.	.	.	.	24gg\	.	.	.	.	.	.	.	.	.	.	.	.	24g/yy	.	.	.	.	.	.	.	.	.	24g\yy	.	24gg/yy	.	.	24gg\yy	.	.	.
.	.	.	.	.	.	.	.	.	.	.	.	.	.	.	.	.	16ryy	.	16ryy	.	16ryy	.	.	16reyy	.	.	.	16ryy	.	16ryy	.	16ryy	.	.	.	16rddyy	.	.	.	.	.
.	.	.	.	.	.	.	.	.	.	24bb\JJ	.	.	.	.	.	.	.	.	.	.	.	.	24b/JJyy	.	.	.	.	.	.	.	.	.	24b\JJyy	.	24bb/JJyy	.	.	24bb\JJyy	.	.	.
*tremolo	*	*	*	*	*	*	*	*	*	*	*	*tremolo	*	*	*	*	*	*	*	*	*	*	*	*	*	*	*	*	*	*	*	*	*	*	*	*	*	*	*	*	*
!LO:SIC:s=32D/LL	!	!	!	!	!	!	!	!	!	!	!	!	!	!	!	!	!	!	!	!	!	!	!	!	!	!	!	!	!	!	!	!	!	!	!	!	!	!	!	!	!
32Re/yy	.	8F#\yy	.	8F#\yy	.	8f#\yy	.	8ddyy 8d/yy	.	8aa\L	.	32Ree/LLLyy	8Ra#\yy	.	8RaT/Lyy	.	8F#\Lyy	.	8f#Lyy 8d\yy	.	8a\Lyy	.	8a/Lyy	8d\Lyy	.	8F#\yy	.	8aaLyy 8dd\yy	.	8aaLyy 8dd\yy	.	8dd/Lyy	8a\Lyy	.	8aa/Lyy	8dd\Lyy	.	8aa\Lyy	.	.	.
!LO:SIC:s=32D/	!	!	!	!	!	!	!	!	!	!	!	!	!	!	!	!	!	!	!	!	!	!	!	!	!	!	!	!	!	!	!	!	!	!	!	!	!	!	!	!	!
32Re/yy	.	.	.	.	.	.	.	.	.	.	.	32Ree/yy	.	.	.	.	.	.	.	.	.	.	.	.	.	.	.	.	.	.	.	.	.	.	.	.	.	.	.	.	.
!LO:SIC:s=32D/	!	!	!	!	!	!	!	!	!	!	!	!	!	!	!	!	!	!	!	!	!	!	!	!	!	!	!	!	!	!	!	!	!	!	!	!	!	!	!	!	!
32Re/yy	.	.	.	.	.	.	.	.	.	.	.	32Ree/yy	.	.	.	.	.	.	.	.	.	.	.	.	.	.	.	.	.	.	.	.	.	.	.	.	.	.	.	.	.
!LO:SIC:s=32D/JJ	!	!	!	!	!	!	!	!	!	!	!	!	!	!	!	!	!	!	!	!	!	!	!	!	!	!	!	!	!	!	!	!	!	!	!	!	!	!	!	!	!
32Re/yy	.	.	.	.	.	.	.	.	.	.	.	32Ree/JJyy	.	.	.	.	.	.	.	.	.	.	.	.	.	.	.	.	.	.	.	.	.	.	.	.	.	.	.	.	.
*Xtremolo	*	*	*	*	*	*	*	*	*	*	*	*Xtremolo	*	*	*	*	*	*	*	*	*	*	*	*	*	*	*	*	*	*	*	*	*	*	*	*	*	*	*	*	*
!LO:SIC:s=8D/J	!	!	!	!	!	!	!	!	!	!	!	!	!	!	!	!	!	!	!	!	!	!	!	!	!	!	!	!	!	!	!	!	!	!	!	!	!	!	!	!	!
8Re/Jyy	.	8D\Jyy	.	8D\Jyy	.	8d\Jyy	.	8ddJyy 8d/yy	.	8ff#\J	.	8Ree/Jyy	8Ra#\Jyy	.	8Ra/Jyy	.	8D\Jyy	.	8d\Jyy	.	8f#\Jyy	.	8f#/Jyy	8d\Jyy	.	8D\Jyy	.	8aaJyy 8dd\yy	.	8aaJyy 8dd\yy	.	8dd/Jyy	8f#\Jyy	.	8ff#/Jyy	8dd\Jyy	.	8ff#\Jyy	.	.	.
*	*	*	*	*	*	*	*	*Xtremolo	*	*	*	*	*Xtremolo	*	*	*	*	*	*	*	*	*	*	*	*	*	*	*	*	*	*	*	*	*	*	*	*	*	*	*	*
*	*	*	*	*	*	*	*	*	*	*	*	*	*	*	*	*	*	*	*	*	*	*	*	*	*	*	*	*	*	*	*	*v	*v	*	*	*	*	*	*	*	*
*	*	*	*	*	*	*	*	*	*	*	*	*	*	*	*	*	*	*	*	*	*	*	*v	*v	*	*	*	*	*	*	*	*	*	*v	*v	*	*	*	*	*
=31	=31	=31	=31	=31	=31	=31	=31	=31	=31	=31	=31	=31	=31	=31	=31	=31	=31	=31	=31	=31	=31	=31	=31	=31	=31	=31	=31	=31	=31	=31	=31	=31	=31	=31	=31	=31	=31	=31
!LO:SIC:s=16.D/LL	!	!	!	!	!	!	!	!	!	!	!	!	!	!	!	!	!	!	!	!	!	!	!	!	!	!	!	!	!	!	!	!	!	!	!	!	!	!
16.Re/Lyy	.	16.G\LLyy	.	16.G\LLyy	.	16.g\LLyy	.	16.ggLLyy 16.byy 16.d\yy	.	16.bb\LL	.	16.Ree/LLyy	8Ra#\yy	.	8ryy	.	16.G\LLyy	.	16.d\LLyy	.	16.g\LLyy	.	16.bLLyy 16.g/yy	.	16.BLLyy 16.G\yy	.	8ryy	.	8ryy	.	16.bLLyy 16.g\yy	.	16.bbLLyy 16.gg\yy	.	16.bb\LLyy	.	4.ryy	.
!LO:SIC:s=32D/JK	!	!	!	!	!	!	!	!	!	!	!	!	!	!	!	!	!	!	!	!	!	!	!	!	!	!	!	!	!	!	!	!	!	!	!	!	!	!
32Re/yy	.	32G\JJkyy	.	32G\JJkyy	.	32g\JJkyy	.	32ggJJkyy 32b\yy	.	32bb\JJk	.	32Ree/JJkyy	.	.	.	.	32G\JJkyy	.	32d\JJkyy	.	32g\JJkyy	.	32bJJkyy 32g/yy	.	32BJJkyy 32G\yy	.	.	.	.	.	32bJJkyy 32g\yy	.	32bbJJkyy 32gg\yy	.	32bb\JJkyy	.	.	.
!LO:SIC:s=8D/J	!	!LO:TX:t=P:problem:mixed beam	!	!LO:TX:t=P:problem:mixed beam	!	!LO:TX:t=P:problem:mixed beam	!	!	!	!	!	!	!	!	!	!	!	!	!	!	!	!	!	!	!	!	!	!	!	!	!	!	!	!	!	!	!	!
8Re/Jyy	.	8A\Lyy	.	8A\Lyy	.	8a\Lyy	.	8ff#Lyy 8a\yy	.	8aa\L	.	8Ree/Lyy	8rBByy	.	8ryy	.	8A\Lyy	.	8d\Lyy	.	8f#\Lyy	.	8aLyy 8f#/yy	.	8A\Lyy	.	8ff#Lyy 8dd\yy	.	8ff#Lyy 8dd\yy	.	8aLyy 8f#\yy	.	8aaLyy 8ff#\yy	.	8aa\Lyy	.	.	.
*	*	*	*	*	*	*	*	*	*	*	*	*tremolo	*	*	*	*	*	*	*	*	*	*	*	*	*	*	*	*	*	*	*	*	*	*	*	*	*	*
!LO:SIC:s=8AA\	!	!	!	!	!	!	!	!	!	!	!	!	!	!	!	!	!	!	!	!	!	!	!	!	!	!	!	!	!	!	!	!	!	!	!	!	!	!
8Re\yy	.	8AA/Jyy	.	8AA/Jyy	.	8A/Jyy	.	8ggJyy 8a\yy	.	8ccc#\J	.	32Ree/LLyy	8rBByy	.	32Ra/LLLyy	.	8AJyy 8AA\yy	.	8c#\Jyy	.	8e\Jyy	.	8cc#Jyy 8g/yy	.	8GJyy 8AA\yy	.	8eeJyy 8a\yy	.	8eeJyy 8a\yy	.	8cc#Jyy 8e\yy	.	8ggJyy 8ee\yy	.	8ccc#\Jyy	.	.	.
.	.	.	.	.	.	.	.	.	.	.	.	32Ree/yy	.	.	32Ra/yy	.	.	.	.	.	.	.	.	.	.	.	.	.	.	.	.	.	.	.	.	.	.	.
.	.	.	.	.	.	.	.	.	.	.	.	32Ree/yy	.	.	32Ra/yy	.	.	.	.	.	.	.	.	.	.	.	.	.	.	.	.	.	.	.	.	.	.	.
.	.	.	.	.	.	.	.	.	.	.	.	32Ree/JJJyy	.	.	32Ra/JJJyy	.	.	.	.	.	.	.	.	.	.	.	.	.	.	.	.	.	.	.	.	.	.	.
*	*	*	*	*	*	*	*	*	*	*	*	*Xtremolo	*	*	*	*	*	*	*	*	*	*	*	*	*	*	*	*	*	*	*	*	*	*	*	*	*	*
=32	=32	=32	=32	=32	=32	=32	=32	=32	=32	=32	=32	=32	=32	=32	=32	=32	=32	=32	=32	=32	=32	=32	=32	=32	=32	=32	=32	=32	=32	=32	=32	=32	=32	=32	=32	=32	=32	=32
!LO:SIC:s=16D/	!	!	!	!	!	!	!	!	!	!	!	!	!	!	!	!	!	!	!	!	!	!	!	!	!	!	!	!	!	!	!	!	!	!	!	!	!	!
16Re/yy	.	16D\yy	.	16D\yy	.	16d\yy	.	16ff#yy 16a\yy	.	(32eee\KLL	.	16Ree/yy	8rBByy	.	16Ra/yy	.	16Ayy 16D\yy	.	16d\yy	.	16f#\yy	.	16ddyy 16f#/yy	.	16F#yy 16D\yy	.	16ddyy 16f#/yy	.	16ddyy 16f#/yy	.	16ddyy 16f#\yy	.	16ff#yy 16dd\yy	.	(y32eee\KLLyy	.	4.ryy	.
.	.	.	.	.	.	.	.	.	.	16ddd\JJ)	.	.	.	.	.	.	.	.	.	.	.	.	.	.	.	.	.	.	.	.	.	.	.	.	16ddd\JJ)yy	.	.	.
16ryy	.	16ryy	.	16ryy	.	16ryy	.	16ryy	.	.	.	16ryy	.	.	16ryy	.	16ryy	.	16ryy	.	16ryy	.	16ryy	.	16ryy	.	16ryy	.	16ryy	.	16ryy	.	16ryy	.	.	.	.	.
.	.	.	.	.	.	.	.	.	.	32r	.	.	.	.	.	.	.	.	.	.	.	.	.	.	.	.	.	.	.	.	.	.	.	.	32ryy	.	.	.
!LO:SIC:s=8D/	!	!	!	!	!	!	!	!	!	!	!	!	!	!	!	!	!	!	!	!	!	!	!	!	!	!	!	!	!	!	!	!	!	!	!	!	!	!
8Re/yy	.	8dyy 8D\yy	.	8dyy 8D\yy	.	8ayy 8d\yy	.	8ddyy 8f#/yy	.	8dd 8d/	.	8Ree/yy	8Ra#\yy	.	8Ra/yy	.	8Ayy 8D\yy	.	8d\yy	.	8f#\yy	.	8ddyy 8f#/yy	.	8F#yy 8D\yy	.	8ddyy 8f#/yy	.	8ddyy 8f#/yy	.	8ddyy 8f#\yy	.	8ff#yy 8dd\yy	.	8ddd\yy	.	.	.
*	*	*	*	*	*	*	*	*	*	*	*	*	*	*	*	*	*	*	*	*	*	*	*	*	*	*	*	*	*	*	*	*	*	*	*	*	*kcancel	*
8ryy	.	8ryy	.	8ryy	.	8ryy	.	8ryy	.	8r	.	8ryy	8ryy	.	8ryy	.	8ryy	.	8ryy	.	8ryy	.	8ryy	.	8ryy	.	8ryy	.	8ryy	.	8ryy	.	8ryy	.	8ryy	.	.	.
*	*	*	*	*	*	*	*	*	*	*	*	*v	*v	*	*	*	*	*	*	*	*	*	*	*	*	*	*	*	*	*	*	*	*	*	*	*	*	*
=33:|!	=33:|!	=33:|!	=33:|!	=33:|!	=33:|!	=33:|!	=33:|!	=33:|!	=33:|!	=33:|!	=33:|!	=33:|!	=33:|!	=33:|!	=33:|!	=33:|!	=33:|!	=33:|!	=33:|!	=33:|!	=33:|!	=33:|!	=33:|!	=33:|!	=33:|!	=33:|!	=33:|!	=33:|!	=33:|!	=33:|!	=33:|!	=33:|!	=33:|!	=33:|!	=33:|!	=33:|!	=33:|!
*>E	*>E	*>E	*>E	*>E	*>E	*>E	*>E	*>E	*>E	*>E	*>E	*>E	*>E	*>E	*>E	*>E	*>E	*>E	*>E	*>E	*>E	*>E	*>E	*>E	*>E	*>E	*>E	*>E	*>E	*>E	*>E	*>E	*>E	*>E	*>E	*>E	*>E
*k[]	*	*k[f#]	*	*k[f#]	*	*k[cnf#]	*	*k[cnf#]	*	*k[cnf#]	*	*k[f#]	*	*k[f#]	*	*k[cnf#]	*	*k[cnf#]	*	*k[cnf#]	*	*k[cnf#]	*	*k[cnf#]	*	*k[]	*	*k[f#]	*	*k[f#]	*	*k[f#]	*	*k[cnf#]	*	*k[cnf#]	*
*G:	*	*G:	*	*G:	*	*G:	*	*G:	*	*G:	*	*G:	*	*G:	*	*G:	*	*G:	*	*G:	*	*G:	*	*G:	*	*G:	*	*G:	*	*G:	*	*G:	*	*G:	*	*G:	*
*	*	*	*	*	*	*	*	*^	*	*	*	*	*	*	*	*	*	*	*	*	*	*	*	*	*	*	*	*	*	*	*	*	*	*	*	*	*
!	!	!	!LO:DY:rj	!	!LO:DY:rj	!LO:TX:t=P:problem:mixed beam	!	!	!	!	!	!LO:DY:rj	!	!	!	!	!	!LO:DY:rj	!	!	!	!	!	!	!	!	!	!	!	!	!	!	!	!	!	!	!LO:TX:a:B:t=Trio	!
4.ryy	.	16.D\LL	f	16.D\LLyy	fy	16.D/LL	.	16.d/LL	16.d\LL	.	16.d/LL	f	4.r	.	4.r	.	16.D/LL	f	16.d\LL	.	16.d\LL	.	4.r	.	16.D/LL	f	4.r	.	4.r	.	4.r	.	4.r	.	4.r	.	4.r	.
.	.	32D\JJk	.	32D\JJkyy	.	32d\JJk	.	32d/JJk	32d\JJk	.	32d/JJk	.	.	.	.	.	32D/JJk	.	32d\JJk	.	32d\JJk	.	.	.	32D/JJk	.	.	.	.	.	.	.	.	.	.	.	.	.
.	.	8D^\L	.	8D^\Lyy	.	8d\L	.	8d/L	8d\L	.	8d^/L	.	.	.	.	.	8D/L	.	8d\L	.	8d\L	.	.	.	8D/L	.	.	.	.	.	.	.	.	.	.	.	.	.
.	.	8C#X^\J	.	8C#X^\Jyy	.	8c#X\J	.	8d/J	8d\J	.	8e^/J	.	.	.	.	.	8C#X/J	.	8d\J	.	8e\J	.	.	.	8C#X/J	.	.	.	.	.	.	.	.	.	.	.	.	.
=34	=34	=34	=34	=34	=34	=34	=34	=34	=34	=34	=34	=34	=34	=34	=34	=34	=34	=34	=34	=34	=34	=34	=34	=34	=34	=34	=34	=34	=34	=34	=34	=34	=34	=34	=34	=34	=34	=34
4.ryy	.	8Cn^>/L	.	8Cn^>/Lyy	.	8cn/L	.	8d/L	8d\L	.	8f#^/L	.	4.r	.	4.r	.	8Cn/L	.	8d\L	.	8f#\L	.	4.r	.	8Cn/L	.	4.r	.	4.r	.	4.r	.	4.r	.	4.r	.	4.r	.
.	.	8BB^>/	.	8BB^>/yy	.	8B/	.	8d/	8d\	.	8g^/	.	.	.	.	.	8BB/	.	8d\	.	8g\	.	.	.	8BB/	.	.	.	.	.	.	.	.	.	.	.	.	.
.	.	8AA^>/J	.	8AA^>/Jyy	.	8A/J	.	8d/J	8d\J	.	8aJ 8f#^/	.	.	.	.	.	8AA/J	.	8d\J	.	8f#\J	.	.	.	8AA/J	.	.	.	.	.	.	.	.	.	.	.	.	.
*	*	*	*	*	*	*	*	*v	*v	*	*	*	*	*	*	*	*	*	*	*	*	*	*	*	*	*	*	*	*	*	*	*	*	*	*	*	*	*
!!LO:PB:g=original
=35	=35	=35	=35	=35	=35	=35	=35	=35	=35	=35	=35	=35	=35	=35	=35	=35	=35	=35	=35	=35	=35	=35	=35	=35	=35	=35	=35	=35	=35	=35	=35	=35	=35	=35	=35	=35	=35
*	*	*	*	*	*	*	*	*	*	*	*	*^	*	*	*	*	*	*	*	*	*	*	*	*	*	*	*	*	*	*	*	*	*	*	*	*	*
!	!	!	!	!	!	!	!	!	!	!	!	!	!	!	!	!LO:DY:rj	!	!	!	!	!	!	!	!	!	!	!	!	!	!	!	!	!	!	!	!	!LO:TX:a:t=C:problem:dopisane ołówkiem	!
.	.	.	.	.	.	.	.	.	.	.	.	.	.	.	16qqC/LL	p	.	.	.	.	.	.	.	.	.	.	.	.	.	.	.	.	.	.	.	.	.	.
.	.	.	.	.	.	.	.	.	.	.	.	.	.	.	16qqC/JJ	.	.	.	.	.	.	.	.	.	.	.	.	.	.	.	.	.	.	.	.	.	.	.
!	!	!	!LO:DY:rj	!	!LO:DY:rj	!	!	!	!	!	!	!	!	!	!	!	!	!	!	!	!	!	!	!	!	!	!	!	!	!	!	!	!	!	!LO:TX:t=P:problem:na tej stronie partie Picolo i Oboe zamienione	!	!	!
4.ryy	.	8GG/	p	(16GG\LL	p	8r	.	8r	p	4.r	.	8r	4.rGG	.	8C/	.	4.r	.	4.r	.	4.r	.	16.bLL 16.g\	.	8r	.	8r	.	4.r	.	4.r	.	16.bLL 16.g\	.	16.b\LL	.	16.gg\LL	.
.	.	.	.	16BB\)	.	.	.	.	.	.	.	.	.	.	.	.	.	.	.	.	.	.	.	.	.	.	.	.	.	.	.	.	.	.	.	.	.	.
.	.	.	.	.	.	.	.	.	.	.	.	.	.	.	.	.	.	.	.	.	.	.	32eeJJk 32cc\	.	.	.	.	.	.	.	.	.	32eeJJk 32cc\	.	32ee\JJk	.	32ccc\JJk	.
!	!	!	!	!	!	!	!	!	!	!	!	!	!	!	!	!	!	!	!	!	!	!	!	!	!	!	!	!LO:DY:rj	!	!	!	!	!	!	!	!	!	!
.	.	8r	.	16D'\	.	8dL 8G\	.	8gL 8B/	.	.	.	8Ree/L	.	.	8r	.	.	.	.	.	.	.	8ddL 8b\	.	8BL 8GG\	.	8ddL 8g/	p	.	.	.	.	8ddL 8b\	.	8dd\L	.	8bb\L	.
.	.	.	.	16G'\J	.	.	.	.	.	.	.	.	.	.	.	.	.	.	.	.	.	.	.	.	.	.	.	.	.	.	.	.	.	.	.	.	.	.
.	.	8r	.	8B'\J	.	8dJ 8G\	.	8gJ 8B/	.	.	.	8Ree/J	.	.	8r	.	.	.	.	.	.	.	8bJ 8g\	.	8BJ 8GG\	.	8ddJ 8g/	.	.	.	.	.	8bJ 8g\	.	8b\J	.	8gg\J	.
=36	=36	=36	=36	=36	=36	=36	=36	=36	=36	=36	=36	=36	=36	=36	=36	=36	=36	=36	=36	=36	=36	=36	=36	=36	=36	=36	=36	=36	=36	=36	=36	=36	=36	=36	=36	=36	=36	=36
*	*	*	*	*	*	*	*	*	*	*	*	*rep	*	*	*rep	*	*	*	*	*	*	*	*	*	*	*	*	*	*	*	*	*	*	*	*	*	*	*
.	.	.	.	.	.	.	.	.	.	.	.	.	.	.	16qqC/LL	.	.	.	.	.	.	.	.	.	.	.	.	.	.	.	.	.	.	.	.	.	.	.
.	.	.	.	.	.	.	.	.	.	.	.	.	.	.	16qqC/JJ	.	.	.	.	.	.	.	.	.	.	.	.	.	.	.	.	.	.	.	.	.	.	.
4.ryy	.	8C/	.	(16C\LL	.	8r	.	8r	.	4.r	.	8r	4.rGG	.	8C/	.	4.r	.	4.r	.	4.r	.	8r	.	8r	.	8r	.	4.r	.	4.r	.	16.aaLL 16.ff#\	.	16.aa\LL	.	16.fff#\LL	.
.	.	.	.	16E\)	.	.	.	.	.	.	.	.	.	.	.	.	.	.	.	.	.	.	.	.	.	.	.	.	.	.	.	.	.	.	.	.	.	.
.	.	.	.	.	.	.	.	.	.	.	.	.	.	.	.	.	.	.	.	.	.	.	.	.	.	.	.	.	.	.	.	.	32ggJJk 32ee\	.	32gg\JJk	.	32eee\JJk	.
.	.	8r	.	16G'\	.	8eL 8c\	.	8aL 8c/	.	.	.	8Ree/L	.	.	8r	.	.	.	.	.	.	.	8eeL 8cc\	.	8AL 8C\	.	8eeL 8cc\	.	.	.	.	.	8eeL 8cc\	.	8ee\L	.	8ccc\L	.
.	.	.	.	16c'\J	.	.	.	.	.	.	.	.	.	.	.	.	.	.	.	.	.	.	.	.	.	.	.	.	.	.	.	.	.	.	.	.	.	.
.	.	8r	.	8e'\J	.	8eJ 8c\	.	8aJ 8c/	.	.	.	8Ree/J	.	.	8r	.	.	.	.	.	.	.	8ccJ 8a\	.	8AJ 8C\	.	8eeJ 8cc\	.	.	.	.	.	8ccJ 8a\	.	8cc\J	.	8aa\J	.
*	*	*	*	*	*	*	*	*	*	*	*	*Xrep	*	*	*Xrep	*	*	*	*	*	*	*	*	*	*	*	*	*	*	*	*	*	*	*	*	*	*	*
=37	=37	=37	=37	=37	=37	=37	=37	=37	=37	=37	=37	=37	=37	=37	=37	=37	=37	=37	=37	=37	=37	=37	=37	=37	=37	=37	=37	=37	=37	=37	=37	=37	=37	=37	=37	=37	=37	=37
*	*	*	*	*	*	*	*	*	*	*	*	*rep	*	*	*rep	*	*	*	*	*	*	*	*	*	*	*	*	*	*	*	*	*	*	*	*	*	*	*
.	.	.	.	.	.	.	.	.	.	.	.	.	.	.	16qqC/LL	.	.	.	.	.	.	.	.	.	.	.	.	.	.	.	.	.	.	.	.	.	.	.
.	.	.	.	.	.	.	.	.	.	.	.	.	.	.	16qqC/JJ	.	.	.	.	.	.	.	.	.	.	.	.	.	.	.	.	.	.	.	.	.	.	.
4.ryy	.	8D\	.	(16D\LL	.	8r	.	8r	.	4.r	.	8r	4.rGG	.	8C/	.	4.r	.	4.r	.	4.r	.	16.aLL 16.f#\	.	8r	.	8r	.	4.r	.	4.r	.	16.aLL 16.f#/	.	16.a\LL	.	16.ff#\LL	.
.	.	.	.	16F#\)	.	.	.	.	.	.	.	.	.	.	.	.	.	.	.	.	.	.	.	.	.	.	.	.	.	.	.	.	.	.	.	.	.	.
.	.	.	.	.	.	.	.	.	.	.	.	.	.	.	.	.	.	.	.	.	.	.	32eeJJk 32cc\	.	.	.	.	.	.	.	.	.	32eeJJk 32cc/	.	32ee\JJk	.	32ccc\JJk	.
.	.	8r	.	16A'\	.	8dL 8A\	.	8f#L 8c/	.	.	.	8Ree/L	.	.	8r	.	.	.	.	.	.	.	8ddL 8f#\	.	8AL 8D\	.	8ddL 8cc\	.	.	.	.	.	8ddL 8f#/	.	8dd\L	.	8ff#\L	.
.	.	.	.	16c'\J	.	.	.	.	.	.	.	.	.	.	.	.	.	.	.	.	.	.	.	.	.	.	.	.	.	.	.	.	.	.	.	.	.	.
.	.	8r	.	8d'\J	.	8dJ 8A\	.	8f#J 8c/	.	.	.	8Ree/J	.	.	8r	.	.	.	.	.	.	.	8ccJ 8a\	.	8F#J 8D\	.	8ddJ 8cc\	.	.	.	.	.	8ccJ 8a/	.	8cc\J	.	8aa\J	.
*	*	*	*	*	*	*	*	*	*	*	*	*Xrep	*	*	*Xrep	*	*	*	*	*	*	*	*	*	*	*	*	*	*	*	*	*	*	*	*	*	*	*
=38	=38	=38	=38	=38	=38	=38	=38	=38	=38	=38	=38	=38	=38	=38	=38	=38	=38	=38	=38	=38	=38	=38	=38	=38	=38	=38	=38	=38	=38	=38	=38	=38	=38	=38	=38	=38	=38	=38
!	!	!	!	!	!	!	!	!	!	!	!	!	!	!	!	!	!	!	!	!	!	!	!	!	!	!	!	!	!	!	!	!	!	!LO:DY:a:rj	!	!LO:DY:a:rj	!	!
!	!	!	!LO:DY:rj	!	!LO:DY:rj	!	!	!	!LO:DY:rj	!	!	!	!	!LO:DY:a:rj	!	!	!	!	!	!LO:DY:a:rj	!	!	!	!	!	!	!	!LO:DY:rj	!	!	!	!LO:DY:a:rj	!	!	!	!	!	!
4.ryy	.	16G\	f	16G\	f	16d 16G\	.	16g 16B/	f	16.bbLL 16.gg\	.	16Ree/LL	4.rGG	f	16C/	.	16G 16GG\	.	16B\	f	16g\	.	16.bLL 16.g\	.	16B 16GG\	.	16dd 16g/	f	4.r	.	4.r	f	16.bLL 16.g/	f	16.b\LL	f	16.gg\LL	.
*	*	*	*	*	*	*	*	*	*	*	*	*tremolo	*	*	*	*	*	*	*	*	*	*	*	*	*	*	*	*	*	*	*	*	*	*	*	*	*	*
.	.	16r	.	16r	.	16r	.	16r	.	.	.	32Ree/L	.	.	16r	.	16r	.	16r	.	16r	.	.	.	16r	.	16r	.	.	.	.	.	.	.	.	.	.	.
.	.	.	.	.	.	.	.	.	.	32cccJJk 32aa\	.	32Ree/	.	.	.	.	.	.	.	.	.	.	32ccJJk 32a\	.	.	.	.	.	.	.	.	.	32ccJJk 32a/	.	32cc\JJk	.	32aa\JJk	.
.	.	4GG/	.	4D 4GG/	.	4d 4G\	.	4g 4B/	.	4ddd 4bb\	.	32Ree/	.	.	4C/	.	4G 4GG\	.	4B^\	.	4g\	.	4dd 4b\	.	4B 4GG^\	.	4dd 4g/	.	.	.	.	.	4dd 4b/	.	4dd\	.	4bb\	.
.	.	.	.	.	.	.	.	.	.	.	.	32Ree/	.	.	.	.	.	.	.	.	.	.	.	.	.	.	.	.	.	.	.	.	.	.	.	.	.	.
.	.	.	.	.	.	.	.	.	.	.	.	32Ree/	.	.	.	.	.	.	.	.	.	.	.	.	.	.	.	.	.	.	.	.	.	.	.	.	.	.
.	.	.	.	.	.	.	.	.	.	.	.	32Ree/JJ	.	.	.	.	.	.	.	.	.	.	.	.	.	.	.	.	.	.	.	.	.	.	.	.	.	.
*	*	*	*	*	*	*	*	*	*	*	*	*Xtremolo	*	*	*	*	*	*	*	*	*	*	*	*	*	*	*	*	*	*	*	*	*	*	*	*	*	*
.	.	.	.	.	.	.	.	.	.	.	.	8Ree/J	.	.	.	.	.	.	.	.	.	.	.	.	.	.	.	.	.	.	.	.	.	.	.	.	.	.
=39	=39	=39	=39	=39	=39	=39	=39	=39	=39	=39	=39	=39	=39	=39	=39	=39	=39	=39	=39	=39	=39	=39	=39	=39	=39	=39	=39	=39	=39	=39	=39	=39	=39	=39	=39	=39	=39	=39
.	.	.	.	.	.	.	.	.	.	.	.	.	.	.	16qqC/LL	.	.	.	.	.	.	.	.	.	.	.	.	.	.	.	.	.	.	.	.	.	.	.
.	.	.	.	.	.	.	.	.	.	.	.	.	.	.	16qqC/JJ	.	.	.	.	.	.	.	.	.	.	.	.	.	.	.	.	.	.	.	.	.	.	.
!	!	!	!	!	!	!	!	!	!	!	!	!	!	!	!	!	!	!	!	!	!	!	!LO:TX:a:t=P:problem:niedokończone "p"	!	!	!	!	!	!	!	!	!	!	!	!	!	!	!
4.ryy	.	8G\	p	(16GG\LL	.	8r	p	8r	p	4.r	.	8r	4.rGG	.	8C/	p	4.r	.	4.r	.	4.r	.	16.bLL 16.g\	p	8r	.	8r	p	4.r	.	4.r	.	16.bLL 16.g/	.	16.b\LL	.	16.gg\LL	.
.	.	.	.	16BB\)	.	.	.	.	.	.	.	.	.	.	.	.	.	.	.	.	.	.	.	.	.	.	.	.	.	.	.	.	.	.	.	.	.	.
.	.	.	.	.	.	.	.	.	.	.	.	.	.	.	.	.	.	.	.	.	.	.	32eeJJk 32cc\	.	.	.	.	.	.	.	.	.	32eeJJk 32cc/	.	32ee\JJk	.	32ccc\JJk	.
!	!	!	!	!	!	!	!	!	!	!	!	!	!	!	!	!	!	!	!	!	!	!	!LO:TX:a:t=P:problem:pokreślone nuty	!	!	!	!	!	!	!	!	!	!	!	!	!	!	!
.	.	8r	.	16D'\	.	8dL 8G\	.	8gL 8B/	.	.	.	8Ree/L	.	.	8r	.	.	.	.	.	.	.	8ddL 8b\	.	8BL 8GG\	.	8ddL 8g/	.	.	.	.	.	8ddL 8b/	.	8dd\L	.	8bb\L	.
.	.	.	.	16G'\J	.	.	.	.	.	.	.	.	.	.	.	.	.	.	.	.	.	.	.	.	.	.	.	.	.	.	.	.	.	.	.	.	.	.
.	.	8r	.	8B'\J	.	8dJ 8G\	.	8gJ 8B/	.	.	.	8Ree/J	.	.	8r	.	.	.	.	.	.	.	8bJ 8g\	.	8BJ 8GG\	.	8ddJ 8g/	.	.	.	.	.	8bJ 8g/	.	8b\J	.	8gg\J	.
=40	=40	=40	=40	=40	=40	=40	=40	=40	=40	=40	=40	=40	=40	=40	=40	=40	=40	=40	=40	=40	=40	=40	=40	=40	=40	=40	=40	=40	=40	=40	=40	=40	=40	=40	=40	=40	=40	=40
*	*	*	*	*	*	*	*	*	*	*	*	*rep	*	*	*rep	*	*	*	*	*	*	*	*	*	*	*	*	*	*	*	*	*	*	*	*	*	*	*
.	.	.	.	.	.	.	.	.	.	.	.	.	.	.	16qqC/LL	.	.	.	.	.	.	.	.	.	.	.	.	.	.	.	.	.	.	.	.	.	.	.
.	.	.	.	.	.	.	.	.	.	.	.	.	.	.	16qqC/JJ	.	.	.	.	.	.	.	.	.	.	.	.	.	.	.	.	.	.	.	.	.	.	.
4.ryy	.	8C/	.	(16C\LL	.	8r	.	8r	.	4.r	.	8r	4.rGG	.	8C/	.	4.r	.	4.r	.	4.r	.	8r	.	8r	.	8r	.	4.r	.	4.r	.	16.aaLL 16.ff#\	.	16.aa\LL	.	16.fff#\LL	.
.	.	.	.	16E\)	.	.	.	.	.	.	.	.	.	.	.	.	.	.	.	.	.	.	.	.	.	.	.	.	.	.	.	.	.	.	.	.	.	.
.	.	.	.	.	.	.	.	.	.	.	.	.	.	.	.	.	.	.	.	.	.	.	.	.	.	.	.	.	.	.	.	.	32ggJJk 32ee\	.	32gg\JJk	.	32eee\JJk	.
.	.	8r	.	16G'\	.	8eL 8c\	.	8aL 8c/	.	.	.	8Ree/L	.	.	8r	.	.	.	.	.	.	.	8eeL 8cc\	.	8AL 8C\	.	8eeL 8cc\	.	.	.	.	.	8eeL 8cc\	.	8ee\L	.	8ccc\L	.
.	.	.	.	16c'\J	.	.	.	.	.	.	.	.	.	.	.	.	.	.	.	.	.	.	.	.	.	.	.	.	.	.	.	.	.	.	.	.	.	.
.	.	8r	.	8e'\J	.	8eJ 8c\	.	8aJ 8c/	.	.	.	8Ree/J	.	.	8r	.	.	.	.	.	.	.	8ccJ 8a\	.	8AJ 8C\	.	8eeJ 8cc\	.	.	.	.	.	8ccJ 8a\	.	8cc\J	.	8aa\J	.
*	*	*	*	*	*	*	*	*	*	*	*	*Xrep	*	*	*Xrep	*	*	*	*	*	*	*	*	*	*	*	*	*	*	*	*	*	*	*	*	*	*	*
!!LO:PB:g=original
=41	=41	=41	=41	=41	=41	=41	=41	=41	=41	=41	=41	=41	=41	=41	=41	=41	=41	=41	=41	=41	=41	=41	=41	=41	=41	=41	=41	=41	=41	=41	=41	=41	=41	=41	=41	=41	=41	=41
*	*	*	*	*	*	*	*	*	*	*	*	*	*	*	*	*	*	*	*	*	*	*	*	*	*	*	*^	*	*	*	*	*	*^	*	*	*	*	*
*	*	*	*	*	*	*tremolo	*	*tremolo	*	*	*	*tremolo	*	*	*	*	*	*	*	*	*	*	*	*	*	*	*	*	*	*	*	*	*	*	*	*	*	*	*	*
!	!	!	!	!	!	!	!	!	!	!	!	!	!	!	!	!	!	!	!	!	!	!	!	!	!	!	!	!	!	!	!	!	!	!	!	!	!LO:TX:a:t=Col V°. 1°	!	!	!
4.r	.	8D\L	<	8D\Lyy	<	8d\L	.	8aL 8c/	.	24a'\LL	.	8Ree/L	4.rGG	.	4.r	.	4.D\	.	4.c\	.	4f#\	.	4.r	.	4.A 4.D\	.	4.dd/	4.cc\	<	4.r	.	(24a\LL	.	4.cc/	4.a\	.	24a'\LLyy	.	(24aa\LL	.
.	.	.	.	.	.	.	.	.	.	24b'\	.	.	.	.	.	.	.	.	.	.	.	.	.	.	.	.	.	.	.	.	.	24b\	.	.	.	.	24b'\yy	.	24bb\	.
!	!	!	!	!	!	!	!	!	!	!	!	!	!	!	!	!	!	!	!	!LO:HP:a	!	!	!	!	!	!	!	!	!	!	!	!	!	!	!	!	!	!	!	!
.	.	.	.	.	.	.	.	.	.	24cc'\JJ	.	.	.	.	.	.	.	.	.	<	.	.	.	.	.	.	.	.	.	.	.	24ccn\JJ	.	.	.	.	24cc'\JJyy	.	24ccc\JJ	.
.	.	8d\	.	8d\yy	.	8d\	.	8a 8c/	<	24cc#X'\LL	<	8Ree/	.	.	.	.	.	.	.	.	.	.	.	.	.	.	.	.	.	.	.	24cc#\LL	.	.	.	.	24cc#X'\LLyy	<	24ccc#X\LL	.
.	.	.	.	.	.	.	.	.	.	24dd'\	.	.	.	.	.	.	.	.	.	.	.	.	.	.	.	.	.	.	.	.	.	24dd\	.	.	.	.	24dd'\yy	.	24ddd\	.
.	.	.	.	.	.	.	.	.	.	24dd#X'\JJ	.	.	.	.	.	.	.	.	.	.	.	.	.	.	.	.	.	.	.	.	.	24dd#X\JJ	.	.	.	.	24dd#X'\JJyy	.	24ddd#X\JJ	.
.	.	8D\J	.	8D\Jyy	.	8d\J	.	8aJ 8c/	.	24ee'\LL	.	8Ree/J	.	.	.	.	.	.	.	.	8a\	.	.	.	.	.	.	.	.	.	.	24ee\LL	.	.	.	.	24ee'\LLyy	.	24eee\LL	.
.	.	.	.	.	.	.	.	.	.	24ee#X'\	.	.	.	.	.	.	.	.	.	.	.	.	.	.	.	.	.	.	.	.	.	24ee#X\	.	.	.	.	24ee#X'\yy	.	24eee#X\	.
.	.	.	[[	.	[[	.	.	.	[[	24ff#'\JJ	.	.	.	.	.	.	.	.	.	[[	.	.	.	.	.	.	.	.	.	.	.	24ff#\JJ	.	.	.	.	24ff#'\JJyy	.	24fff#\JJ	.
*	*	*	*	*	*	*Xtremolo	*	*Xtremolo	*	*	*	*Xtremolo	*	*	*	*	*	*	*	*	*	*	*	*	*	*	*	*	*	*	*	*	*	*	*	*	*	*	*	*
*	*	*	*	*	*	*	*	*	*	*	*	*	*	*	*	*	*	*	*	*	*	*	*	*	*	*	*v	*v	*	*	*	*	*	*	*	*	*	*	*	*
=42	=42	=42	=42	=42	=42	=42	=42	=42	=42	=42	=42	=42	=42	=42	=42	=42	=42	=42	=42	=42	=42	=42	=42	=42	=42	=42	=42	=42	=42	=42	=42	=42	=42	=42	=42	=42	=42	=42	=42
4.r	.	16G\	.	16G\yy	.	16d 16G\	.	16g 16B/	.	16gg\	[	16Ree/	4.rGG	.	8r	.	16G\	.	16B\	.	16g\	.	4.r	.	16B 16G\	.	16dd 16g/	[	4.r	.	16gg\)	.	16b/	16g\	.	16gg\yy	[	16ggg\)	.
.	.	16r	f	16ryy	fy	16r	.	16r	f	16r	f	16r	.	.	.	.	16r	.	16r	.	16r	f	.	.	16r	.	16r	f	.	.	16r	.	16r	16rcyy	.	16ryy	.	16r	.
.	.	8GG/	.	8GG/yy	.	8d 8G\	.	8g 8B/	.	8g 8G/	.	8Ree/	.	.	8C/	.	8G 8GG\	.	8B\	.	16g\	.	.	.	8B 8GG\	.	8dd 8g/	.	.	.	8g\	.	8gg 8b\	8rcyy	.	8gg\	.	8gg\	.
.	.	.	.	.	.	.	.	.	.	.	.	.	.	.	.	.	.	.	.	.	16r	.	.	.	.	.	.	.	.	.	.	.	.	.	.	.	.	.	.
!	!	!	!	!	!	!	!	!	!	!	!	!	!	!	!	!	!	!	!	!	!	!	!	!	!	!	!	!	!	!	!	!	!	!	!	!	!	!LO:TX:a:t=D:problem:dopisane ołówkiem	!
.	.	8r	.	8ryy	.	8r	.	8r	.	8r	.	8ryy	.	.	8r	.	8r	.	8r	.	8r	.	.	.	8r	.	8r	.	.	.	8r	.	8r	8rcyy	.	8r	.	8r	.
*	*	*	*	*	*	*	*	*	*	*	*	*	*	*	*	*	*	*	*	*	*	*	*	*	*	*	*	*	*	*	*	*	*v	*v	*	*	*	*	*
=43:|!|:	=43:|!|:	=43:|!|:	=43:|!|:	=43:|!|:	=43:|!|:	=43:|!|:	=43:|!|:	=43:|!|:	=43:|!|:	=43:|!|:	=43:|!|:	=43:|!|:	=43:|!|:	=43:|!|:	=43:|!|:	=43:|!|:	=43:|!|:	=43:|!|:	=43:|!|:	=43:|!|:	=43:|!|:	=43:|!|:	=43:|!|:	=43:|!|:	=43:|!|:	=43:|!|:	=43:|!|:	=43:|!|:	=43:|!|:	=43:|!|:	=43:|!|:	=43:|!|:	=43:|!|:	=43:|!|:	=43:|!|:	=43:|!|:	=43:|!|:	=43:|!|:
*>F	*>F	*>F	*>F	*>F	*>F	*>F	*>F	*>F	*>F	*>F	*>F	*>F	*>F	*>F	*>F	*>F	*>F	*>F	*>F	*>F	*>F	*>F	*>F	*>F	*>F	*>F	*>F	*>F	*>F	*>F	*>F	*>F	*>F	*>F	*>F	*>F	*>F	*>F
!LO:SIC:s=16.D/LL	!LO:DY:rj	!	!LO:DY:rj	!	!LO:DY:rj	!	!	!	!	!	!LO:DY:rj	!	!	!	!	!	!	!LO:DY:rj	!	!LO:DY:a:rj	!	!	!	!	!	!	!	!	!	!	!	!LO:DY:rj	!	!	!	!LO:DY:rj	!LO:TX:a:t=a:problem:dopisane ołówkiem	!
16.Re/LL	f	16.dLL 16.D\	f	16.dLLyy 16.D\yy	fy	16.ddLL 16.f# 16.A\	.	16.ff#LL 16.a 16.d\	.	16.aaLL 16.a 16.d\	f	16.Ree/LL	8Ra\	.	16.C/LL	.	16.D\LL	f	16.A\LL	f	16.f#\LL	.	16.aLL 16.f#/	.	16.dLL 16.D\	.	16.dd\LL	.	16.aLL 16.f#/	.	16.aLL 16.f#\	f	16.aaLL 16.ff#\	.	16.aa\LL	f	4.r	.
!LO:SIC:s=32D/JJk	!	!	!	!	!	!	!	!	!	!	!	!	!	!	!	!	!	!	!	!	!	!	!	!	!	!	!	!	!	!	!	!	!	!	!	!	!	!
32Re/JJk	.	32dJJk 32D\	.	32dJJkyy 32D\yy	.	32ddJJk 32f#\	.	32ff#JJk 32a\	.	32aaJJk 32a\	.	32Ree/JJk	.	.	32C/JJk	.	32D\JJk	.	32A\JJk	.	32f#\JJk	.	32aJJk 32f#/	.	32dJJk 32D\	.	32dd\JJk	.	32aJJk 32f#/	.	32aJJk 32f#\	.	32aaJJk 32ff#\	.	32aa\JJk	.	.	.
!LO:SIC:s=8D/	!	!	!	!	!	!	!	!	!	!	!	!	!	!	!	!	!	!	!	!	!	!	!	!	!	!	!	!	!	!	!	!	!	!	!	!	!	!
8Re/	.	8d 8D\	.	8dyy 8D\yy	.	8dd 8f#\	.	8ff# 8a\	.	8ddd\	.	8Ree/	8r	.	8C/	.	8D\	.	8A\	.	8f#\	.	8dd 8f#/	.	8d 8D\	.	8dd\	.	8dd 8f#/	.	8dd 8f#\	.	8ddd 8gg\	.	8ddd\	.	.	.
8r	.	8r	.	8ryy	.	8r	.	8r	.	8r	.	8rc	8r	.	8r	.	8r	.	8r	.	8r	.	8r	.	8r	.	8r	.	8r	.	8r	.	8r	.	8r	.	.	.
=44	=44	=44	=44	=44	=44	=44	=44	=44	=44	=44	=44	=44	=44	=44	=44	=44	=44	=44	=44	=44	=44	=44	=44	=44	=44	=44	=44	=44	=44	=44	=44	=44	=44	=44	=44	=44	=44	=44
*	*	*	*	*	*	*	*	*	*	*	*	*	*	*	*	*	*	*	*	*	*	*	*^	*	*	*	*^	*	*	*	*^	*	*^	*	*	*	*	*
*	*	*	*	*	*	*	*	*	*	*tuplet	*	*	*	*	*	*	*	*	*	*	*	*	*	*	*	*	*	*tremolo	*tremolo	*	*tremolo	*	*	*	*	*	*	*	*tuplet	*	*	*
!LO:SIC:s=8D^/L	!	!	!	!	!	!	!	!	!	!LO:TUP:a	!	!	!	!	!	!	!	!	!	!	!	!	!	!	!	!	!	!	!	!	!	!	!	!	!	!	!	!	!LO:TUP:a:problem:klamra łukowa	!	!LO:TX:a:t=b:problem:dopisane ołówkiem	!
8Re/L	.	8D^\L	.	8D^\Lyy	.	8bL 8d^\	.	8ee#X^\L	.	24gg#X\LL	.	32ReeT/LLL	8Ra\	.	8C/L	.	8D\L	.	8B^\L	.	8e#X\L	.	24g#X/LL	8e\L	.	8D 8DD/	.	8dd/L	8dd\L	.	8ddL 8d/	.	24g#/LL	8e#X\L	.	24gg#X/LL	8ee#X\L	.	24gg#X\LL	.	4.r	.
.	.	.	.	.	.	.	.	.	.	.	.	32Ree/	.	.	.	.	.	.	.	.	.	.	.	.	.	.	.	.	.	.	.	.	.	.	.	.	.	.	.	.	.	.
.	.	.	.	.	.	.	.	.	.	24aa\	.	.	.	.	.	.	.	.	.	.	.	.	24a/	.	.	.	.	.	.	.	.	.	24a/	.	.	24aa/	.	.	24aa\	.	.	.
.	.	.	.	.	.	.	.	.	.	.	.	32Ree/	.	.	.	.	.	.	.	.	.	.	.	.	.	.	.	.	.	.	.	.	.	.	.	.	.	.	.	.	.	.
.	.	.	.	.	.	.	.	.	.	24bb\JJ	.	.	.	.	.	.	.	.	.	.	.	.	24b/JJ	.	.	.	.	.	.	.	.	.	24b/JJ	.	.	24bb/JJ	.	.	24bb\JJ	.	.	.
.	.	.	.	.	.	.	.	.	.	.	.	32Ree/JJJ	.	.	.	.	.	.	.	.	.	.	.	.	.	.	.	.	.	.	.	.	.	.	.	.	.	.	.	.	.	.
!LO:SIC:s=8D/	!	!	!	!	!	!	!	!	!	!	!	!	!	!	!	!	!	!	!	!	!	!	!	!	!	!	!	!	!	!	!	!	!	!	!	!	!	!	!	!	!	!
8Re/	.	8d\	.	8d\yy	.	8b 8d\	.	8ff#\	.	8aa\L	.	8Ree/L	8r	.	8C/	.	8D\	.	8A\	.	8f#\	.	8a/L	8f#\	.	8dL 8D\	.	8dd/	8dd\	.	8dd 8d/	.	8a/L	8f#\	.	8aa/L	8ff#\	.	8aa\L	.	.	.
!LO:SIC:s=8D/J	!	!	!	!	!	!	!	!	!	!	!	!	!	!	!	!	!	!	!	!	!	!	!	!	!	!	!	!	!	!	!	!	!	!	!	!	!	!	!	!	!	!
8Re/J	.	8D\J	.	8D\Jyy	.	8bJ 8d\	.	8dd\J	.	8ff#\J	.	8Ree/J	8r	.	8C/J	.	8D\J	.	8A\J	.	8f#\J	.	8f#/J	8d\J	.	8dJ 8D\	.	8dd/J	8dd\J	.	8ddJ 8d/	.	8f#/J	8d\J	.	8ff#/J	8dd\J	.	8ff#\J	.	.	.
*	*	*	*	*	*	*	*	*	*	*	*	*	*	*	*	*	*	*	*	*	*	*	*	*	*	*	*	*Xtremolo	*Xtremolo	*	*Xtremolo	*	*	*	*	*	*	*	*	*	*	*
*	*	*	*	*	*	*	*	*	*	*	*	*	*	*	*	*	*	*	*	*	*	*	*	*	*	*	*	*	*	*	*	*	*v	*v	*	*	*	*	*	*	*	*
*	*	*	*	*	*	*	*	*	*	*	*	*v	*v	*	*	*	*	*	*	*	*	*	*v	*v	*	*	*	*v	*v	*	*	*	*	*	*v	*v	*	*	*	*	*
=45	=45	=45	=45	=45	=45	=45	=45	=45	=45	=45	=45	=45	=45	=45	=45	=45	=45	=45	=45	=45	=45	=45	=45	=45	=45	=45	=45	=45	=45	=45	=45	=45	=45	=45	=45	=45	=45
!LO:SIC:s=16.AA\LL	!	!LO:TX:t=P:problem:mixed beam	!	!LO:TX:t=P:problem:mixed beam	!	!	!	!	!	!	!	!	!	!	!	!	!	!	!	!	!	!	!	!	!	!	!	!	!	!	!	!	!	!	!	!	!
16.Re\LL	.	16.AA/LL	.	16.AA/LLyy	.	16.aLL 16.e 16.A\	.	16.ccLL 16.e 16.A/	.	16.eeLL 16.a\	.	4.r	.	4.r	.	4.r	.	4.r	.	4.r	.	16.eLL 16.c#X/	.	16.ALL 16.AA\	.	16.eeLL 16.cc#X\	.	16.aaLL 16.ee 16.a\	.	16.cc#LL 16.e\	.	16.ee#XLL 16.cc\	.	4.r	.	(16.ee\LL	.
!LO:SIC:s=32AA\JJk	!	!	!	!	!	!	!	!	!	!	!	!	!	!	!	!	!	!	!	!	!	!	!	!	!	!	!	!	!	!	!	!	!	!	!	!	!
32Re\JJk	.	32A\JJk	.	32A\JJkyy	.	32aJJk 32e\	.	32ccJJk 32e/	.	32eeJJk 32a\	.	.	.	.	.	.	.	.	.	.	.	32eJJk 32c#/	.	32AJJk 32AA\	.	32eeJJk 32cc#\	.	32aaJJk 32ee 32a\	.	32cc#JJk 32e\	.	32ee#JJk 32cc\	.	.	.	32ee\JJk	.
!LO:SIC:s=8AA\L	!	!LO:TX:t=P:problem:mixed beam	!	!LO:TX:t=P:problem:mixed beam	!	!	!	!	!	!	!	!	!	!	!	!	!	!	!	!	!	!	!	!	!	!	!	!	!	!	!	!	!	!	!	!	!
8Re\L	.	8A\L	.	8A\Lyy	.	8aL 8e\	.	8ccL 8e/	.	8aaL 8a\	.	.	.	.	.	.	.	.	.	.	.	8eL 8c#/	.	8AL 8AA\	.	8eeL 8cc#\	.	8aaL 8ee 8a\	.	8cc#L 8e\	.	8aaL 8cc\	.	.	.	8aa\L	.
!LO:SIC:s=8AA\J	!	!	!	!	!	!	!	!	!	!	!	!	!	!	!	!	!	!	!	!	!	!	!	!	!	!	!	!	!	!	!	!	!	!	!	!	!
8Re\J	.	8AA/J	.	8AA/Jyy	.	8aJ 8e\	.	8eeJ 8g/	.	8cccJ 8a\	.	.	.	.	.	.	.	.	.	.	.	8cc#XJ 8e/	.	8AJ 8AA\	.	8eeJ 8cc#\	.	8aaJ 8ee 8a\	.	8eeJ 8g\	.	8cccJ 8ee#\	.	.	.	8ccc\J)	.
!!LO:PB:g=original
=46	=46	=46	=46	=46	=46	=46	=46	=46	=46	=46	=46	=46	=46	=46	=46	=46	=46	=46	=46	=46	=46	=46	=46	=46	=46	=46	=46	=46	=46	=46	=46	=46	=46	=46	=46	=46	=46
*	*	*	*	*	*	*	*	*	*	*	*	*	*	*	*	*	*	*	*	*	*	*^	*	*	*	*^	*	*	*	*	*	*	*	*	*	*	*
!LO:SIC:s=16.D/	!	!	!	!	!	!	!	!	!	!	!	!	!	!	!	!	!	!	!	!	!	!	!	!	!	!	!	!	!	!	!	!	!	!	!	!	!	!	!
16.Re/	.	16.D/LL	.	16.D/LLyy	.	16.ddLL 16.d\	.	16.ddLL 16.f#\	.	16.dddLL 16.a\	.	4.r	.	4.r	.	16.ALL 16.D\	.	16.A\LL	.	16.d\LL	.	16.ddLL 16.f#\	8rcyy	.	16.dLL 16.D\	.	16.dd\LL	8rcyy	.	16.ff#LL 16.dd\	.	16.ddLL 16.f#\	.	16.dddLL 16.ff#\	.	4.r	.	16.ddd\LL|	.
!LO:SIC:s=32AA\	!	!	!	!	!	!	!	!	!	!	!	!	!	!	!	!	!	!	!	!	!	!	!	!	!	!	!	!	!	!	!	!	!	!	!	!	!	!	!
32Re\	.	32AA/JJk	.	32AA/JJkyy	.	32ccJJk 32e\	.	32eeJJk 32a\	.	32eeeJJk 32a\	.	.	.	.	.	32AJJk 32AA\	.	32c\JJk	.	32e\JJk	.	32eeJJk 32a\	.	.	32AJJk 32AA\	.	32eeJJk 32cc#X\	.	.	32eeJJk 32a\	.	32eeJJk 32a\	.	32cccJJk 32ee\	.	.	.	32eee\JJk|	.
!LO:SIC:s=4D/	!	!	!	!	!	!	!	!	!	!	!	!	!	!	!	!	!	!	!	!	!	!	!	!	!	!	!	!	!	!	!	!	!	!	!	!	!	!	!
4Re/	.	4D/	.	4D/yy	.	4dd 4d\	.	4ff# 4dd\	.	4fff# 4a\	.	.	.	.	.	4A 4D\	.	4d\	.	4f#\	.	4ff#/	4dd\	.	4d 4D\	.	4dd/	4dd\	.	4dd 4f#/	.	4ff# 4dd\	.	4ddd 4ff#\	.	.	.	8fff#\|	.
.	.	.	.	.	.	.	.	.	.	.	.	.	.	.	.	.	.	.	.	.	.	.	.	.	.	.	.	.	.	.	.	.	.	.	.	.	.	8r	.
*	*	*	*	*	*	*	*	*	*	*	*	*	*	*	*	*	*	*	*	*	*	*v	*v	*	*	*	*v	*v	*	*	*	*	*	*	*	*	*	*	*
=47	=47	=47	=47	=47	=47	=47	=47	=47	=47	=47	=47	=47	=47	=47	=47	=47	=47	=47	=47	=47	=47	=47	=47	=47	=47	=47	=47	=47	=47	=47	=47	=47	=47	=47	=47	=47	=47
*	*	*	*	*	*	*	*	*	*	*	*	*^	*	*	*	*	*	*	*	*	*	*	*	*	*	*	*	*	*	*	*	*	*	*	*	*	*
!LO:SIC:s=16.D/LL	!LO:DY:rj	!	!LO:DY:rj	!	!LO:DY:rj	!	!	!	!	!	!	!	!	!	!	!	!	!LO:DY:rj	!	!LO:DY:a:rj	!	!	!	!	!	!	!	!	!	!	!	!LO:DY:rj	!	!	!	!LO:DY:rj	!LO:TX:a:t=a.:problem:dopisane ołówkiem	!
16.Re/LLyy	fy	16.dLLyy 16.D\yy	fy	16.dLLyy 16.D\yy	fy	16.ddLLyy 16.f#yy 16.A\yy	.	16.ff#LLyy 16.ayy 16.d\yy	.	16.aaLL 16.a 16.d\	.	16.Ree/LLyy	8Ra\yy	.	16.C/LLyy	.	16.D\LLyy	fy	16.A\LLyy	fy	16.f#\LLyy	.	16.aLLyy 16.f#/yy	.	16.dLLyy 16.D\yy	.	16.dd\LLyy	.	16.aLLyy 16.f#/yy	.	16.aLLyy 16.f#\yy	fy	16.aaLLyy 16.ff#\yy	.	16.aa\LLyy	fy	4.ryy	.
!LO:SIC:s=32D/JJk	!	!	!	!	!	!	!	!	!	!	!	!	!	!	!	!	!	!	!	!	!	!	!	!	!	!	!	!	!	!	!	!	!	!	!	!	!	!
32Re/JJkyy	.	32dJJkyy 32D\yy	.	32dJJkyy 32D\yy	.	32ddJJkyy 32f#\yy	.	32ff#JJkyy 32a\yy	.	32aaJJk 32a\	.	32Ree/JJkyy	.	.	32C/JJkyy	.	32D\JJkyy	.	32A\JJkyy	.	32f#\JJkyy	.	32aJJkyy 32f#/yy	.	32dJJkyy 32D\yy	.	32dd\JJkyy	.	32aJJkyy 32f#/yy	.	32aJJkyy 32f#\yy	.	32aaJJkyy 32ff#\yy	.	32aa\JJkyy	.	.	.
!LO:SIC:s=8D/	!	!	!	!	!	!	!	!	!	!	!	!	!	!	!	!	!	!	!	!	!	!	!	!	!	!	!	!	!	!	!	!	!	!	!	!	!	!
8Re/yy	.	8dyy 8D\yy	.	8dyy 8D\yy	.	8ddyy 8f#\yy	.	8ff#yy 8a\yy	.	8ddd 8a\	.	8Ree/yy	8ryy	.	8C/yy	.	8D\yy	.	8A\yy	.	8f#\yy	.	8ddyy 8f#/yy	.	8dyy 8D\yy	.	8dd\yy	.	8ddyy 8f#/yy	.	8ddyy 8f#\yy	.	8dddyy 8gg\yy	.	8ddd\yy	.	.	.
8ryy	.	8ryy	.	8ryy	.	8r	.	8ryy	.	8r	.	8rcyy	8ryy	.	8ryy	.	8ryy	.	8ryy	.	8ryy	.	8ryy	.	8ryy	.	8ryy	.	8ryy	.	8ryy	.	8ryy	.	8ryy	.	.	.
=48	=48	=48	=48	=48	=48	=48	=48	=48	=48	=48	=48	=48	=48	=48	=48	=48	=48	=48	=48	=48	=48	=48	=48	=48	=48	=48	=48	=48	=48	=48	=48	=48	=48	=48	=48	=48	=48	=48
*	*	*	*	*	*	*	*	*	*	*	*	*	*	*	*	*	*	*	*	*	*	*	*^	*	*	*	*^	*	*	*	*^	*	*^	*	*	*	*	*
*	*	*	*	*	*	*	*	*	*	*	*	*	*	*	*	*	*	*	*	*	*	*	*	*	*	*	*	*tremolo	*tremolo	*	*tremolo	*	*	*	*	*	*	*	*	*	*	*
!LO:SIC:s=8D^/L	!	!	!	!	!	!	!	!	!	!LO:TUP:a:problem:klamra łukowa	!	!	!	!	!	!	!	!	!	!	!	!	!	!	!	!	!	!	!	!	!	!	!	!	!	!	!	!	!LO:TUP:a:problem:klamra łukowa	!	!LO:TX:a:t=b.:problem:dopisane ołówkiem	!
8Re/Lyy	.	8D^\Lyy	.	8D^\Lyy	.	8bLyy 8d^\yy	.	8ee#X^\Lyy	.	24gg#X\LL	.	32ReeT/LLLyy	8Ra\yy	.	8C/Lyy	.	8D\Lyy	.	8B^\Lyy	.	8e#X\Lyy	.	24g#X/LLyy	8e\Lyy	.	8Dyy 8DD/yy	.	8dd/Lyy	8dd\Lyy	.	8ddLyy 8d/yy	.	24g#/LLyy	8e#X\Lyy	.	24gg#X/LLyy	8ee#X\Lyy	.	24gg#X\LLyy	.	4.ryy	.
.	.	.	.	.	.	.	.	.	.	.	.	32Ree/yy	.	.	.	.	.	.	.	.	.	.	.	.	.	.	.	.	.	.	.	.	.	.	.	.	.	.	.	.	.	.
.	.	.	.	.	.	.	.	.	.	24aa\	.	.	.	.	.	.	.	.	.	.	.	.	24a/yy	.	.	.	.	.	.	.	.	.	24a/yy	.	.	24aa/yy	.	.	24aa\yy	.	.	.
.	.	.	.	.	.	.	.	.	.	.	.	32Ree/yy	.	.	.	.	.	.	.	.	.	.	.	.	.	.	.	.	.	.	.	.	.	.	.	.	.	.	.	.	.	.
.	.	.	.	.	.	.	.	.	.	24bb\JJ	.	.	.	.	.	.	.	.	.	.	.	.	24b/JJyy	.	.	.	.	.	.	.	.	.	24b/JJyy	.	.	24bb/JJyy	.	.	24bb\JJyy	.	.	.
.	.	.	.	.	.	.	.	.	.	.	.	32Ree/JJJyy	.	.	.	.	.	.	.	.	.	.	.	.	.	.	.	.	.	.	.	.	.	.	.	.	.	.	.	.	.	.
!LO:SIC:s=8D/	!	!	!	!	!	!	!	!	!	!	!	!	!	!	!	!	!	!	!	!	!	!	!	!	!	!	!	!	!	!	!	!	!	!	!	!	!	!	!	!	!	!
8Re/yy	.	8d\yy	.	8d\yy	.	8byy 8d\yy	.	8ff#\yy	.	8aa\L	.	8Ree/Lyy	8ryy	.	8C/yy	.	8D\yy	.	8A\yy	.	8f#\yy	.	8a/Lyy	8f#\yy	.	8dLyy 8D\yy	.	8dd/yy	8dd\yy	.	8ddyy 8d/yy	.	8a/Lyy	8f#\yy	.	8aa/Lyy	8ff#\yy	.	8aa\Lyy	.	.	.
!LO:SIC:s=8D/J	!	!	!	!	!	!	!	!	!	!	!	!	!	!	!	!	!	!	!	!	!	!	!	!	!	!	!	!	!	!	!	!	!	!	!	!	!	!	!	!	!	!
8Re/Jyy	.	8D\Jyy	.	8D\Jyy	.	8bJyy 8d\yy	.	8dd\Jyy	.	8ff#\J	.	8Ree/Jyy	8ryy	.	8C/Jyy	.	8D\Jyy	.	8A\Jyy	.	8f#\Jyy	.	8f#/Jyy	8d\Jyy	.	8dJyy 8D\yy	.	8dd/Jyy	8dd\Jyy	.	8ddJyy 8d/yy	.	8f#/Jyy	8d\Jyy	.	8ff#/Jyy	8dd\Jyy	.	8ff#\Jyy	.	.	.
*	*	*	*	*	*	*	*	*	*	*	*	*	*	*	*	*	*	*	*	*	*	*	*	*	*	*	*	*	*	*	*	*	*v	*v	*	*	*	*	*	*	*	*
*	*	*	*	*	*	*	*	*	*	*	*	*v	*v	*	*	*	*	*	*	*	*	*	*v	*v	*	*	*	*	*	*	*	*	*	*	*v	*v	*	*	*	*	*
=49	=49	=49	=49	=49	=49	=49	=49	=49	=49	=49	=49	=49	=49	=49	=49	=49	=49	=49	=49	=49	=49	=49	=49	=49	=49	=49	=49	=49	=49	=49	=49	=49	=49	=49	=49	=49	=49	=49
*tremolo	*	*	*	*	*	*tremolo	*	*tremolo	*	*	*	*	*	*	*	*	*	*	*	*	*	*	*	*tremolo	*	*	*tremolo	*	*	*	*tuplet	*	*	*	*Xtuplet	*	*	*
!LO:SIC:s=8AA\L	!	!LO:TX:t=P:problem:mixed beam	!	!LO:TX:t=P:problem:mixed beam	!	!	!	!LO:TUP:a:problem:klamra łukowa	!	!	!	!	!	!	!	!	!	!	!	!	!	!	!	!	!	!	!	!	!LO:TUP:a:problem:klamra łukowa	!	!LO:TX:b:i:t=due	!	!LO:TUP:a:problem:klamra łukowa	!	!	!	!	!
8Re\L	.	8AA/L	.	8AA/Lyy	.	8gL 8A\	.	8ccL 8e/	.	24aa\LL	.	4.r	.	4.r	.	4.r	.	4.r	.	4.r	.	4.r	.	8AL 8AA\	.	8ee/L	8cc#X\L	.	8ggL 8a\	.	24a/LL	.	4.r	.	24aa\LL	.	4.r	.
.	.	.	.	.	.	.	.	.	.	24gg#X\	.	.	.	.	.	.	.	.	.	.	.	.	.	.	.	.	.	.	.	.	24g#/	.	.	.	24gg#X\	.	.	.
.	.	.	.	.	.	.	.	.	.	24bb\JJ	.	.	.	.	.	.	.	.	.	.	.	.	.	.	.	.	.	.	.	.	24b/JJ	.	.	.	24bb\JJ	.	.	.
!LO:SIC:s=8AA\	!	!	!	!	!	!	!	!	!	!	!	!	!	!	!	!	!	!	!	!	!	!	!	!	!	!	!	!	!	!	!	!	!	!	!	!	!	!
8Re\	.	8A\	.	8A\yy	.	8g 8A\	.	8cc 8e/	.	8aa\L	.	.	.	.	.	.	.	.	.	.	.	.	.	8A 8AA\	.	8ee/	8cc#\	.	8gg 8a\	.	8a/L	.	.	.	8aa\L	.	.	.
!LO:SIC:s=8AA\J	!	!	!	!	!	!	!	!	!	!	!	!	!	!	!	!	!	!	!	!	!	!	!	!	!	!	!	!	!	!	!	!	!	!	!	!	!	!
8Re\J	.	8AA/J	.	8AA/Jyy	.	8gJ 8A\	.	8ccJ 8e/	.	16.ee\L	.	.	.	.	.	.	.	.	.	.	.	.	.	8AJ 8AA\	.	8ee/J	8cc#\J	.	8ggJ 8a\	.	16.e/L	.	.	.	16.ee\L	.	.	.
.	.	.	.	.	.	.	.	.	.	32ff#\JJk	.	.	.	.	.	.	.	.	.	.	.	.	.	.	.	.	.	.	.	.	32f#/JJk	.	.	.	32ff#\JJk	.	.	.
*Xtremolo	*	*	*	*	*	*Xtremolo	*	*Xtremolo	*	*	*	*	*	*	*	*	*	*	*	*	*	*	*	*Xtremolo	*	*Xtremolo	*Xtremolo	*	*Xtremolo	*	*	*	*	*	*	*	*	*
=50	=50	=50	=50	=50	=50	=50	=50	=50	=50	=50	=50	=50	=50	=50	=50	=50	=50	=50	=50	=50	=50	=50	=50	=50	=50	=50	=50	=50	=50	=50	=50	=50	=50	=50	=50	=50	=50	=50
*	*	*	*	*	*	*	*	*	*	*	*	*^	*	*	*	*	*	*	*	*	*	*	*	*	*	*	*	*	*	*	*	*	*	*	*	*	*	*
!LO:SIC:s=16D/	!	!	!	!	!	!	!	!	!	!	!	!	!	!	!	!	!	!	!	!	!	!	!	!	!	!	!	!	!	!	!	!	!	!	!	!	!	!	!
16Re/	.	16D/	.	16D/yy	.	16f# 16A\	.	16dd 16f#/	.	16dd\	.	8ryy	8r	.	8r	.	8r	.	8r	.	8r	.	8r	.	16d 16D\	.	16dd/	16dd\	.	16ff# 16a\	.	16d/	.	8r	.	16dd\	.	8r	.
16r	.	16r	.	16ryy	.	16r	.	16r	.	16r	.	.	.	.	.	.	.	.	.	.	.	.	.	.	16r	.	16raa	16rcyy	.	16r	.	16r	.	.	.	16r	.	.	.
!LO:SIC:s=8D/	!	!	!	!	!	!	!	!	!	!	!	!	!	!	!	!	!	!LO:DY:rj	!	!LO:DY:a:rj	!	!	!	!	!	!	!	!	!	!	!	!	!	!	!	!	!	!	!
8Re^>/	.	8D/	.	8D/yy	.	8f# 8A\	.	8dd 8f#/	.	8ddd 8dd^<\	.	8Ree/	8Ra\	.	8C/	.	8F# 8D\	f	8A/	f	8d\	.	16.r	.	8D 8DD/	.	8dd/	8dd\	.	8ff# 8a\	.	8dd 8f#\	.	16.r	.	8ddd\	.	8ddd\	.
.	.	.	.	.	.	.	.	.	.	.	.	.	.	.	.	.	.	.	.	.	.	.	32aKLL 32f#/|	.	.	.	.	.	.	.	.	.	.	32aKLL 32f#/|	.	.	.	.	.
8r	.	8r	.	8ryy	.	8r	.	8r	.	8r	.	8r	8rEEyy	.	8r	.	8r	.	8r	.	8r	.	16.b 16.g/|	.	8r	.	8raa	8rcyy	.	8r	.	8r	.	16.b 16.g/|	.	8r	.	8r	.
.	.	.	.	.	.	.	.	.	.	.	.	.	.	.	.	.	.	.	.	.	.	.	32ccnJJk 32a/|	.	.	.	.	.	.	.	.	.	.	32ccnJJk 32a/|	.	.	.	.	.
*	*	*	*	*	*	*	*	*	*	*	*	*	*	*	*	*	*	*	*	*	*	*	*	*	*	*	*v	*v	*	*	*	*	*	*	*	*	*	*	*
!!LO:PB:g=original
=51	=51	=51	=51	=51	=51	=51	=51	=51	=51	=51	=51	=51	=51	=51	=51	=51	=51	=51	=51	=51	=51	=51	=51	=51	=51	=51	=51	=51	=51	=51	=51	=51	=51	=51	=51	=51	=51	=51
!	!	!	!	!	!	!	!	!	!	!	!	!	!	!	!	!LO:DY:rj	!	!	!	!	!	!	!	!	!	!	!	!	!	!	!	!	!	!	!	!	!LO:TX:a:t=P:problem:tt. 51-58 oznaczone odnośnikiem C.D. dopisanym ołówkiem	!
.	.	.	.	.	.	.	.	.	.	.	.	.	.	.	16qqC/LLyy	py	.	.	.	.	.	.	.	.	.	.	.	.	.	.	.	.	.	.	.	.	.	.
.	.	.	.	.	.	.	.	.	.	.	.	.	.	.	16qqC/JJyy	.	.	.	.	.	.	.	.	.	.	.	.	.	.	.	.	.	.	.	.	.	.	.
!	!	!	!LO:DY:rj	!	!LO:DY:rj	!	!	!	!	!	!	!	!	!	!	!	!	!	!	!	!	!	!	!	!	!	!	!	!	!	!	!	!	!	!	!	!	!
4.ryy	.	8GG/yy	py	(y16GG\LLyy	py	8ryy	.	8ryy	py	4.ryy	.	8ryy	4.rGGyy	.	8C/yy	.	4.ryy	.	4.ryy	.	4.ryy	.	16.bLLyy 16.g\yy	.	8ryy	.	8ryy	.	4.ryy	.	4.ryy	.	16.bLL 16.g/	.	16.b\Lyy	.	16.gg\LLyy	.
.	.	.	.	16BB\)yy	.	.	.	.	.	.	.	.	.	.	.	.	.	.	.	.	.	.	.	.	.	.	.	.	.	.	.	.	.	.	.	.	.	.
.	.	.	.	.	.	.	.	.	.	.	.	.	.	.	.	.	.	.	.	.	.	.	32eeJJkyy 32cc\yy	.	.	.	.	.	.	.	.	.	32eeJJk 32cc/	.	32ee\Jkyy	.	32ccc\JJkyy	.
!	!	!	!	!	!	!	!	!	!	!	!	!	!	!	!	!	!	!	!	!	!	!	!	!	!	!	!	!LO:DY:rj	!	!	!	!	!	!	!	!	!	!
.	.	8ryy	.	16D'\yy	.	8dLyy 8G\yy	.	8gLyy 8B/yy	.	.	.	8Ree/Lyy	.	.	8ryy	.	.	.	.	.	.	.	8ddLyy 8b\yy	.	8BLyy 8GG\yy	.	8ddLyy 8g/yy	py	.	.	.	.	8ddL 8b/	.	8dd\Lyy	.	8bb\Lyy	.
.	.	.	.	16G'\Jyy	.	.	.	.	.	.	.	.	.	.	.	.	.	.	.	.	.	.	.	.	.	.	.	.	.	.	.	.	.	.	.	.	.	.
.	.	8ryy	.	8B'\Jyy	.	8dJyy 8G\yy	.	8gJyy 8B/yy	.	.	.	8Ree/Jyy	.	.	8ryy	.	.	.	.	.	.	.	8bJyy 8g\yy	.	8BJyy 8GG\yy	.	8ddJyy 8g/yy	.	.	.	.	.	8bJ 8g/	.	8b\Jyy	.	8gg\Jyy	.
=52	=52	=52	=52	=52	=52	=52	=52	=52	=52	=52	=52	=52	=52	=52	=52	=52	=52	=52	=52	=52	=52	=52	=52	=52	=52	=52	=52	=52	=52	=52	=52	=52	=52	=52	=52	=52	=52	=52
*	*	*	*	*	*	*	*	*	*	*	*	*rep	*	*	*rep	*	*	*	*	*	*	*	*	*	*	*	*	*	*	*	*	*	*	*	*	*	*	*
.	.	.	.	.	.	.	.	.	.	.	.	.	.	.	16qqC/LLyy	.	.	.	.	.	.	.	.	.	.	.	.	.	.	.	.	.	.	.	.	.	.	.
.	.	.	.	.	.	.	.	.	.	.	.	.	.	.	16qqC/JJyy	.	.	.	.	.	.	.	.	.	.	.	.	.	.	.	.	.	.	.	.	.	.	.
4.ryy	.	8C/yy	.	(y16C\LLyy	.	8ryy	.	8ryy	.	4.ryy	.	8ryy	4.rGGyy	.	8C/yy	.	4.ryy	.	4.ryy	.	4.ryy	.	8ryy	.	8ryy	.	8ryy	.	4.ryy	.	4.ryy	.	16.aaLL 16.ff#\	.	16.aa\LLyy	.	16.fff#\LLyy	.
.	.	.	.	16E\)yy	.	.	.	.	.	.	.	.	.	.	.	.	.	.	.	.	.	.	.	.	.	.	.	.	.	.	.	.	.	.	.	.	.	.
.	.	.	.	.	.	.	.	.	.	.	.	.	.	.	.	.	.	.	.	.	.	.	.	.	.	.	.	.	.	.	.	.	32ggJJk 32ee\	.	32gg\JJkyy	.	32eee\JJkyy	.
.	.	8ryy	.	16G'\yy	.	8eLyy 8c\yy	.	8aLyy 8c/yy	.	.	.	8Ree/Lyy	.	.	8ryy	.	.	.	.	.	.	.	8eeLyy 8cc\yy	.	8ALyy 8C\yy	.	8eeLyy 8cc\yy	.	.	.	.	.	8eeL 8cc\	.	8ee\Lyy	.	8ccc\Lyy	.
.	.	.	.	16c'\Jyy	.	.	.	.	.	.	.	.	.	.	.	.	.	.	.	.	.	.	.	.	.	.	.	.	.	.	.	.	.	.	.	.	.	.
.	.	8ryy	.	8e'\Jyy	.	8eJyy 8c\yy	.	8aJyy 8c/yy	.	.	.	8Ree/Jyy	.	.	8ryy	.	.	.	.	.	.	.	8ccJyy 8a\yy	.	8AJyy 8C\yy	.	8eeJyy 8cc\yy	.	.	.	.	.	8ccJ 8a\	.	8cc\Jyy	.	8aa\Jyy	.
*	*	*	*	*	*	*	*	*	*	*	*	*Xrep	*	*	*Xrep	*	*	*	*	*	*	*	*	*	*	*	*	*	*	*	*	*	*	*	*	*	*	*
=53	=53	=53	=53	=53	=53	=53	=53	=53	=53	=53	=53	=53	=53	=53	=53	=53	=53	=53	=53	=53	=53	=53	=53	=53	=53	=53	=53	=53	=53	=53	=53	=53	=53	=53	=53	=53	=53	=53
*	*	*	*	*	*	*	*	*	*	*	*	*rep	*	*	*rep	*	*	*	*	*	*	*	*	*	*	*	*	*	*	*	*	*	*	*	*	*	*	*
.	.	.	.	.	.	.	.	.	.	.	.	.	.	.	16qqC/LLyy	.	.	.	.	.	.	.	.	.	.	.	.	.	.	.	.	.	.	.	.	.	.	.
.	.	.	.	.	.	.	.	.	.	.	.	.	.	.	16qqC/JJyy	.	.	.	.	.	.	.	.	.	.	.	.	.	.	.	.	.	.	.	.	.	.	.
4.ryy	.	8D\yy	.	(y16D\LLyy	.	8ryy	.	8ryy	.	4.ryy	.	8ryy	4.rGGyy	.	8C/yy	.	4.ryy	.	4.ryy	.	4.ryy	.	16.aLLyy 16.f#\yy	.	8ryy	.	8ryy	.	4.ryy	.	4.ryy	.	16.aLL 16.f#/	.	16.a\LLyy	.	16.ff#\LLyy	.
.	.	.	.	16F#\)yy	.	.	.	.	.	.	.	.	.	.	.	.	.	.	.	.	.	.	.	.	.	.	.	.	.	.	.	.	.	.	.	.	.	.
.	.	.	.	.	.	.	.	.	.	.	.	.	.	.	.	.	.	.	.	.	.	.	32eeJJkyy 32cc\yy	.	.	.	.	.	.	.	.	.	32eeJJk 32cc 32f#/	.	32ee\JJkyy	.	32ccc\JJkyy	.
.	.	8ryy	.	16A'\yy	.	8dLyy 8A\yy	.	8f#Lyy 8c/yy	.	.	.	8Ree/Lyy	.	.	8ryy	.	.	.	.	.	.	.	8ddLyy 8f#\yy	.	8ALyy 8D\yy	.	8ddLyy 8cc\yy	.	.	.	.	.	8ddL 8f#/	.	8dd\Lyy	.	8ff#\Lyy	.
.	.	.	.	16c'\Jyy	.	.	.	.	.	.	.	.	.	.	.	.	.	.	.	.	.	.	.	.	.	.	.	.	.	.	.	.	.	.	.	.	.	.
.	.	8ryy	.	8d'\Jyy	.	8dJyy 8A\yy	.	8f#Jyy 8c/yy	.	.	.	8Ree/Jyy	.	.	8ryy	.	.	.	.	.	.	.	8ccJyy 8a\yy	.	8F#Jyy 8D\yy	.	8ddJyy 8cc\yy	.	.	.	.	.	8ccJ 8a/	.	8cc\Jyy	.	8aa\Jyy	.
*	*	*	*	*	*	*	*	*	*	*	*	*Xrep	*	*	*Xrep	*	*	*	*	*	*	*	*	*	*	*	*	*	*	*	*	*	*	*	*	*	*	*
=54	=54	=54	=54	=54	=54	=54	=54	=54	=54	=54	=54	=54	=54	=54	=54	=54	=54	=54	=54	=54	=54	=54	=54	=54	=54	=54	=54	=54	=54	=54	=54	=54	=54	=54	=54	=54	=54	=54
!	!	!	!	!	!	!	!	!	!	!	!	!	!	!	!	!	!	!	!	!	!	!	!	!	!	!	!	!LO:DY:rj	!	!	!	!LO:DY:a:rj	!	!	!	!LO:DY:a:rj	!	!
!	!	!	!LO:DY:rj	!	!LO:DY:rj	!	!	!	!LO:DY:rj	!	!	!	!	!LO:DY:a:rj	!	!	!	!	!	!LO:DY:a:rj	!	!	!	!	!	!	!	!	!	!	!	!	!	!	!	!	!	!
4.ryy	.	16G\yy	fy	16G\yy	fy	16dyy 16G\yy	.	16gyy 16B/yy	fy	16.bbLLyy 16.gg\yy	.	16Ree/LLyy	4.rGGyy	fy	16C/yy	.	16Gyy 16GG\yy	.	16B\yy	fy	16g\yy	.	16.bLLyy 16.g\yy	.	16Byy 16GG\yy	.	16ddyy 16g/yy	fy	4.ryy	.	4.ryy	fy	16.bLL 16.g/	.	16.b\LLyy	fy	16.gg\LLyy	.
*	*	*	*	*	*	*	*	*	*	*	*	*tremolo	*	*	*	*	*	*	*	*	*	*	*	*	*	*	*	*	*	*	*	*	*	*	*	*	*	*
.	.	16ryy	.	16ryy	.	16ryy	.	16ryy	.	.	.	32Ree/Lyy	.	.	16ryy	.	16ryy	.	16ryy	.	16ryy	.	.	.	16ryy	.	16ryy	.	.	.	.	.	.	.	.	.	.	.
.	.	.	.	.	.	.	.	.	.	32cccJJkyy 32aa\yy	.	32Ree/yy	.	.	.	.	.	.	.	.	.	.	32ccJJkyy 32a\yy	.	.	.	.	.	.	.	.	.	32ccJJk 32a/	.	32cc\JJkyy	.	32aa\JJkyy	.
.	.	4GG/yy	.	4Dyy 4GG/yy	.	4dyy 4G\yy	.	4gyy 4B/yy	.	4dddyy 4bb\yy	.	32Ree/yy	.	.	4C/yy	.	4Gyy 4GG\yy	.	4B\yy	.	4g\yy	.	4ddyy 4b\yy	.	4Byy 4GG^\yy	.	4ddyy 4g/yy	.	.	.	.	.	4dd 4b/	.	4dd\yy	.	4bb\yy	.
.	.	.	.	.	.	.	.	.	.	.	.	32Ree/yy	.	.	.	.	.	.	.	.	.	.	.	.	.	.	.	.	.	.	.	.	.	.	.	.	.	.
.	.	.	.	.	.	.	.	.	.	.	.	32Ree/yy	.	.	.	.	.	.	.	.	.	.	.	.	.	.	.	.	.	.	.	.	.	.	.	.	.	.
.	.	.	.	.	.	.	.	.	.	.	.	32Ree/JJyy	.	.	.	.	.	.	.	.	.	.	.	.	.	.	.	.	.	.	.	.	.	.	.	.	.	.
.	.	.	.	.	.	.	.	.	.	.	.	8Ree/Jyy	.	.	.	.	.	.	.	.	.	.	.	.	.	.	.	.	.	.	.	.	.	.	.	.	.	.
*	*	*	*	*	*	*	*	*	*	*	*	*Xtremolo	*	*	*	*	*	*	*	*	*	*	*	*	*	*	*	*	*	*	*	*	*	*	*	*	*	*
=55	=55	=55	=55	=55	=55	=55	=55	=55	=55	=55	=55	=55	=55	=55	=55	=55	=55	=55	=55	=55	=55	=55	=55	=55	=55	=55	=55	=55	=55	=55	=55	=55	=55	=55	=55	=55	=55	=55
.	.	.	.	.	.	.	.	.	.	.	.	.	.	.	16qqC/LLyy	.	.	.	.	.	.	.	.	.	.	.	.	.	.	.	.	.	.	.	.	.	.	.
.	.	.	.	.	.	.	.	.	.	.	.	.	.	.	16qqC/JJyy	.	.	.	.	.	.	.	.	.	.	.	.	.	.	.	.	.	.	.	.	.	.	.
!	!	!	!LO:DY:rj	!	!	!	!	!	!	!	!	!	!	!	!	!	!	!	!	!	!	!	!LO:TX:a:t=P:problem:niedokończone "p"	!	!	!	!	!	!	!	!	!	!	!	!	!	!	!
4.ryy	.	8G\yy	py	(y16GG\LLyy	.	8ryy	py	8ryy	py	4.ryy	.	8ryy	4.rGGyy	.	8C/yy	py	4.ryy	.	4.ryy	.	4.ryy	.	16.bLLyy 16.g\yy	py	8ryy	.	8ryy	py	4.ryy	.	4.ryy	.	16.bLL 16.g/	.	16.b\LLyy	.	16.gg\LLyy	.
.	.	.	.	16BB\)yy	.	.	.	.	.	.	.	.	.	.	.	.	.	.	.	.	.	.	.	.	.	.	.	.	.	.	.	.	.	.	.	.	.	.
.	.	.	.	.	.	.	.	.	.	.	.	.	.	.	.	.	.	.	.	.	.	.	32eeJJkyy 32cc\yy	.	.	.	.	.	.	.	.	.	32eeJJk 32cc/	.	32ee\JJkyy	.	32ccc\JJkyy	.
!	!	!	!	!	!	!	!	!	!	!	!	!	!	!	!	!	!	!	!	!	!	!	!LO:TX:a:t=P:problem:pokreślone nuty	!	!	!	!	!	!	!	!	!	!	!	!	!	!	!
.	.	8ryy	.	16D'\yy	.	8dLyy 8G\yy	.	8gLyy 8B/yy	.	.	.	8Ree/Lyy	.	.	8ryy	.	.	.	.	.	.	.	8ddLyy 8b\yy	.	8BLyy 8GG\yy	.	8ddLyy 8g/yy	.	.	.	.	.	8ddL 8b/	.	8dd\Lyy	.	8bb\Lyy	.
.	.	.	.	16G'\Jyy	.	.	.	.	.	.	.	.	.	.	.	.	.	.	.	.	.	.	.	.	.	.	.	.	.	.	.	.	.	.	.	.	.	.
.	.	8ryy	.	8B'\Jyy	.	8dJyy 8G\yy	.	8gJyy 8B/yy	.	.	.	8Ree/Jyy	.	.	8ryy	.	.	.	.	.	.	.	8bJyy 8g\yy	.	8BJyy 8GG\yy	.	8ddJyy 8g/yy	.	.	.	.	.	8bJ 8g/	.	8b\Jyy	.	8gg\Jyy	.
=56	=56	=56	=56	=56	=56	=56	=56	=56	=56	=56	=56	=56	=56	=56	=56	=56	=56	=56	=56	=56	=56	=56	=56	=56	=56	=56	=56	=56	=56	=56	=56	=56	=56	=56	=56	=56	=56	=56
*	*	*	*	*	*	*	*	*	*	*	*	*rep	*	*	*rep	*	*	*	*	*	*	*	*	*	*	*	*	*	*	*	*	*	*	*	*	*	*	*
.	.	.	.	.	.	.	.	.	.	.	.	.	.	.	16qqC/LLyy	.	.	.	.	.	.	.	.	.	.	.	.	.	.	.	.	.	.	.	.	.	.	.
.	.	.	.	.	.	.	.	.	.	.	.	.	.	.	16qqC/JJyy	.	.	.	.	.	.	.	.	.	.	.	.	.	.	.	.	.	.	.	.	.	.	.
4.ryy	.	8C/yy	.	(y16C\LLyy	.	8ryy	.	8ryy	.	4.ryy	.	8ryy	4.rGGyy	.	8C/yy	.	4.ryy	.	4.ryy	.	4.ryy	.	8ryy	.	8ryy	.	8ryy	.	4.ryy	.	4.ryy	.	16.aaLL 16.ff#\	.	16.aa\LLyy	.	16.fff#\LLyy	.
.	.	.	.	16E\)yy	.	.	.	.	.	.	.	.	.	.	.	.	.	.	.	.	.	.	.	.	.	.	.	.	.	.	.	.	.	.	.	.	.	.
.	.	.	.	.	.	.	.	.	.	.	.	.	.	.	.	.	.	.	.	.	.	.	.	.	.	.	.	.	.	.	.	.	32ggJJk 32ee\	.	32gg\JJkyy	.	32eee\JJkyy	.
.	.	8ryy	.	16G'\yy	.	8eLyy 8c\yy	.	8aLyy 8c/yy	.	.	.	8Ree/Lyy	.	.	8ryy	.	.	.	.	.	.	.	8eeLyy 8cc\yy	.	8ALyy 8C\yy	.	8eeLyy 8cc\yy	.	.	.	.	.	8eeL 8cc\	.	8ee\Lyy	.	8ccc\Lyy	.
.	.	.	.	16c'\Jyy	.	.	.	.	.	.	.	.	.	.	.	.	.	.	.	.	.	.	.	.	.	.	.	.	.	.	.	.	.	.	.	.	.	.
.	.	8ryy	.	8e'\Jyy	.	8eJyy 8c\yy	.	8aJyy 8c/yy	.	.	.	8Ree/Jyy	.	.	8ryy	.	.	.	.	.	.	.	8ccJyy 8a\yy	.	8AJyy 8C\yy	.	8eeJyy 8cc\yy	.	.	.	.	.	8ccJ 8a\	.	8cc\Jyy	.	8aa\Jyy	.
*	*	*	*	*	*	*	*	*	*	*	*	*Xrep	*	*	*Xrep	*	*	*	*	*	*	*	*	*	*	*	*	*	*	*	*	*	*	*	*	*	*	*
!!LO:PB:g=original
=57	=57	=57	=57	=57	=57	=57	=57	=57	=57	=57	=57	=57	=57	=57	=57	=57	=57	=57	=57	=57	=57	=57	=57	=57	=57	=57	=57	=57	=57	=57	=57	=57	=57	=57	=57	=57	=57	=57
*	*	*	*	*	*	*	*	*	*	*	*	*	*	*	*	*	*	*	*	*	*	*	*	*	*	*	*^	*	*	*	*	*	*^	*	*	*	*	*
*	*	*	*	*	*	*tremolo	*	*tremolo	*	*Xtuplet	*	*tremolo	*	*	*	*	*	*	*	*	*	*	*	*	*	*	*	*	*	*	*	*Xtuplet	*	*	*	*	*	*	*	*
!	!	!	!	!	!	!	!	!	!	!	!	!	!	!	!	!	!	!	!	!	!	!	!	!	!	!	!	!	!	!	!	!	!	!	!	!	!LO:TX:a:t=Col V°. 1°	!	!	!
4.ryy	.	8D\Lyy	<	8D\Lyy	<	8d\Lyy	.	8aLyy 8c/yy	.	24a\LL	.	8Ree/Lyy	4.rGGyy	.	4.ryy	.	4.D\yy	.	4.c\yy	.	4f#\yy	.	4.ryy	.	4.Ayy 4.D\yy	.	4.dd/yy	4.cc\yy	<	4.ryy	.	(y24a\LLyy	.	4.cc/yy	4.a\yy	.	24a\LLyy	.	(y24aa\LLyy	.
.	.	.	.	.	.	.	.	.	.	24b\	.	.	.	.	.	.	.	.	.	.	.	.	.	.	.	.	.	.	.	.	.	24b\yy	.	.	.	.	24b\yy	.	24bb\yy	.
!	!	!	!	!	!	!	!	!	!	!	!	!	!	!	!	!	!	!	!	!LO:HP:a	!	!	!	!	!	!	!	!	!	!	!	!	!	!	!	!	!	!	!	!
.	.	.	.	.	.	.	.	.	.	24cc\JJ	.	.	.	.	.	.	.	.	.	<	.	.	.	.	.	.	.	.	.	.	.	24ccn\JJyy	.	.	.	.	24cc\JJyy	.	24ccc\JJyy	.
.	.	8d\yy	.	8d\yy	.	8d\yy	.	8ayy 8c/yy	<	24cc#X\LL	.	8Ree/yy	.	.	.	.	.	.	.	.	.	.	.	.	.	.	.	.	.	.	.	24cc#\LLyy	.	.	.	.	24cc#X\LLyy	.	24ccc#X\LLyy	.
.	.	.	.	.	.	.	.	.	.	24dd\	<	.	.	.	.	.	.	.	.	.	.	.	.	.	.	.	.	.	.	.	.	24dd\yy	.	.	.	.	24dd\yy	.	24ddd\yy	.
.	.	.	.	.	.	.	.	.	.	24dd#X\JJ	.	.	.	.	.	.	.	.	.	.	.	.	.	.	.	.	.	.	.	.	.	24dd#X\JJyy	.	.	.	.	24dd#X\JJyy	.	24ddd#X\JJyy	.
.	.	8D\Jyy	.	8D\Jyy	.	8d\Jyy	.	8aJyy 8c/yy	[[	24ee\LL	.	8Ree/Jyy	.	.	.	.	.	.	.	.	8a\yy	.	.	.	.	.	.	.	.	.	.	24ee\LLyy	.	.	.	.	24ee\LLyy	.	24eee\LLyy	.
.	.	.	.	.	.	.	.	.	.	24ee#X\	.	.	.	.	.	.	.	.	.	.	.	.	.	.	.	.	.	.	.	.	.	24ee#X\yyyy	.	.	.	.	24ee#X\yy	.	24eee#X\yy	.
.	.	.	[[	.	[[	.	.	.	.	24ff#\JJ	[[	.	.	.	.	.	.	.	.	[[	.	.	.	.	.	.	.	.	.	.	.	24ff#\JJyy	.	.	.	.	24ff#\JJyy	.	24fff#\JJyy	.
*	*	*	*	*	*	*Xtremolo	*	*Xtremolo	*	*	*	*Xtremolo	*	*	*	*	*	*	*	*	*	*	*	*	*	*	*	*	*	*	*	*	*	*	*	*	*	*	*	*
*	*	*	*	*	*	*	*	*	*	*	*	*	*	*	*	*	*	*	*	*	*	*	*	*	*	*	*v	*v	*	*	*	*	*	*	*	*	*	*	*	*
=58	=58	=58	=58	=58	=58	=58	=58	=58	=58	=58	=58	=58	=58	=58	=58	=58	=58	=58	=58	=58	=58	=58	=58	=58	=58	=58	=58	=58	=58	=58	=58	=58	=58	=58	=58	=58	=58	=58	=58
4.ryy	.	16G\yy	.	16G\yy	.	16dyy 16G\yy	.	16gyy 16B/yy	.	16gg\	.	16Ree/yy	4.rGGyy	.	8ryy	.	16G\yy	.	16B\yy	.	16g\yy	.	4.ryy	.	16Byy 16G\yy	.	16ddyy 16g/yy	[	4.ryy	.	16gg\)yy	.	16b/yy	16g\yy	.	16gg\yy	.	16ggg\)yy	.
.	.	16ryy	fy	16ryy	.	16ryy	.	16ryy	fy	16r	.	16rBByy	.	.	.	.	16ryy	.	16ryy	.	16ryy	fy	.	.	16ryy	.	16ryy	fy	.	.	16ryy	.	16ryy	16rcyy	.	16ryy	.	16ryy	.
!	!	!	!	!	!	!	!	!	!	!	!LO:DY:rj	!	!	!	!	!	!	!	!	!	!	!	!	!	!	!	!	!	!	!	!	!	!	!	!	!	!	!	!
.	.	8GG/yy	.	8GG/yy	fy	8dyy 8G\yy	.	8gyy 8B/yy	.	8g 8G/	f	8Ree/yy	.	.	8C/yy	.	8Gyy 8GG\yy	.	8B\yy	.	16g\yy	.	.	.	8Byy 8GG\yy	.	8ddyy 8g/yy	.	.	.	8g\yy	.	8ggyy 8b\yy	8rcyy	.	8gg\yy	.	8gg\yy	.
.	.	.	.	.	.	.	.	.	.	.	.	.	.	.	.	.	.	.	.	.	16ryy	.	.	.	.	.	.	.	.	.	.	.	.	.	.	.	.	.	.
.	.	8ryy	.	8ryy	.	8ryy	.	8ryy	.	8r	.	8ryy	.	.	8ryy	.	8ryy	.	8ryy	.	8ryy	.	.	.	8ryy	.	8ryy	.	.	.	8ryy	.	8ryy	8rcyy	.	8ryy	.	8ryy	.
*	*	*	*	*	*	*	*	*	*	*	*	*v	*v	*	*	*	*	*	*	*	*	*	*	*	*	*	*	*	*	*	*	*	*v	*v	*	*	*	*	*
==:|!	==:|!	==:|!	==:|!	==:|!	==:|!	==:|!	==:|!	==:|!	==:|!	==:|!	==:|!	==:|!	==:|!	==:|!	==:|!	==:|!	==:|!	==:|!	==:|!	==:|!	==:|!	==:|!	==:|!	==:|!	==:|!	==:|!	==:|!	==:|!	==:|!	==:|!	==:|!	==:|!	==:|!	==:|!	==:|!	==:|!	==:|!
*-	*-	*-	*-	*-	*-	*-	*-	*-	*-	*-	*-	*-	*-	*-	*-	*-	*-	*-	*-	*-	*-	*-	*-	*-	*-	*-	*-	*-	*-	*-	*-	*-	*-	*-	*-	*-	*-
!!!system-decoration: ({s1,s2}s3,s4{g1}s7,s8{g2}s12,s13)({g3,s16}{s17,s18}s19)
!!!RDF**kern: > = above
!!!RDF**kern: < = below
!!!RDF**kern: | = vertical stroke
!!!ENC: Marta Lawrence
!!!END: 2021-07-03
!!!ENC: Mateusz Solarz
!!!END: 2021-06-08
